;FLAVOR:Marlin
;TIME:1593
;Filament used: 1.13411m
;Layer height: 0.2
;MINX:85.55
;MINY:48.751
;MINZ:0.3
;MAXX:149.45
;MAXY:112.649
;MAXZ:1.5
;TARGET_MACHINE.NAME:BIQU B1
;Generated with Cura_SteamEngine 5.12.0
                                 ; BIQU B1 Start G-code
M117 Getting the bed up to temp!
M140 S60      ; Set Heat Bed temperature
M190 S60      ; Wait for Heat Bed temperature
M117 Getting the extruder up to temp!
M104 S200    ; Set Extruder temperature
G92 E0                           ; Reset Extruder
M117 Homing axes
G28                              ; Home all axes
M109 S200    ; Wait for Extruder temperature
G1 Z2.0 F3000                    ; Move Z Axis up little to prevent scratching of Heat Bed
G1 X4.1 Y20 Z0.3 F5000.0         ; Move to start position
M117 Purging
G1 X4.1 Y200.0 Z0.3 F1500.0 E15  ; Draw the first line
G1 X4.4 Y200.0 Z0.3 F5000.0      ; Move to side a little
G1 X4.4 Y20 Z0.3 F1500.0 E30     ; Draw the second line
G92 E0                           ; Reset Extruder
M117 Lets make
G1 Z2.0 F3000                    ; Move Z Axis up little to prevent scratching of Heat Bed
G1 X5 Y20 Z0.3 F5000.0           ; Move over to prevent blob squish
M82 ;absolute extrusion mode
G92 E0
G92 E0
G1 F3600 E-4
;LAYER_COUNT:6
;LAYER:0
M107
G0 F4800 X87.122 Y54.42 Z0.3
;TYPE:SKIRT
G1 F3600 E0
G1 F600 X87.61 Y53.666 E0.05377
G1 X87.87 Y53.309 E0.08021
G1 X88.353 Y52.712 E0.12618
G1 X88.924 Y52.098 E0.17638
G1 X89.36 Y51.688 E0.21221
G1 X90.117 Y51.066 E0.27087
G1 X90.898 Y50.53 E0.32758
G1 X91.839 Y50 E0.39224
G1 X92.76 Y49.591 E0.45257
G1 X93.921 Y49.193 E0.52605
G1 X94.883 Y48.965 E0.58523
G1 X95.778 Y48.831 E0.63941
G1 X96.797 Y48.767 E0.70054
G1 X97.602 Y48.754 E0.74874
G1 X137.327 Y48.751 E3.12701
G1 X138.221 Y48.764 E3.18053
G1 X139.209 Y48.825 E3.2398
G1 X140.195 Y48.974 E3.2995
G1 X141.161 Y49.205 E3.35896
G1 X141.592 Y49.338 E3.38596
G1 X142.559 Y49.71 E3.44799
G1 X143.068 Y49.948 E3.48163
G1 X144.016 Y50.472 E3.54648
G1 X144.885 Y51.065 E3.60946
G1 X145.883 Y51.914 E3.68791
G1 X146.678 Y52.75 E3.75697
G1 X147.265 Y53.493 E3.81366
G1 X147.786 Y54.283 E3.87032
G1 X148.338 Y55.321 E3.9407
G1 X148.749 Y56.297 E4.0041
G1 X149.048 Y57.238 E4.06322
G1 X149.263 Y58.198 E4.12211
G1 X149.381 Y59.041 E4.17307
G1 X149.434 Y59.831 E4.22048
G1 X149.449 Y60.611 E4.26718
G1 X149.45 Y100.468 E6.65335
G1 X149.437 Y101.375 E6.70766
G1 X149.392 Y102.219 E6.75826
G1 X149.272 Y103.116 E6.81244
G1 X149.038 Y104.157 E6.87632
G1 X148.798 Y104.925 E6.92449
G1 X148.414 Y105.909 E6.98772
G1 X147.972 Y106.793 E7.04689
G1 X147.5 Y107.565 E7.10107
G1 X146.914 Y108.363 E7.16034
G1 X146.2 Y109.168 E7.22476
G1 X145.479 Y109.845 E7.28397
G1 X144.699 Y110.456 E7.34329
G1 X143.774 Y111.057 E7.40933
G1 X142.898 Y111.524 E7.46876
G1 X141.909 Y111.943 E7.53306
G1 X141.048 Y112.222 E7.58725
G1 X139.999 Y112.461 E7.65166
G1 X139.103 Y112.583 E7.7058
G1 X138.218 Y112.633 E7.75887
G1 X137.408 Y112.645 E7.80736
G1 X97.64 Y112.649 E10.1882
G1 X96.759 Y112.636 E10.24095
G1 X95.925 Y112.591 E10.29096
G1 X95.062 Y112.479 E10.34306
G1 X94.176 Y112.291 E10.39728
G1 X93.062 Y111.942 E10.46717
G1 X92.074 Y111.526 E10.53135
G1 X91.369 Y111.158 E10.57896
G1 X90.169 Y110.379 E10.66461
G1 X89.544 Y109.868 E10.71295
G1 X88.892 Y109.267 E10.76603
G1 X88.425 Y108.769 E10.80691
G1 X87.807 Y108.008 E10.8656
G1 X87.318 Y107.293 E10.91746
G1 X86.751 Y106.279 E10.98701
G1 X86.482 Y105.695 E11.0255
G1 X86.091 Y104.652 E11.09219
G1 X85.851 Y103.78 E11.14633
G1 X85.659 Y102.726 E11.21047
G1 X85.574 Y101.82 E11.26495
G1 X85.559 Y101.405 E11.28981
G1 X85.55 Y100.675 E11.33352
G1 X85.551 Y60.695 E13.72705
G1 X85.564 Y59.926 E13.7731
G1 X85.609 Y59.09 E13.82322
G1 X85.729 Y58.193 E13.8774
G1 X85.965 Y57.146 E13.94166
G1 X86.24 Y56.284 E13.99582
G1 X86.657 Y55.293 E14.06019
G1 X87.122 Y54.42 E14.11941
G0 F4800 X87.525 Y54.681
G1 F600 X88.013 Y53.927 E14.17318
G1 X88.243 Y53.611 E14.19658
G1 X88.726 Y53.014 E14.24255
G1 X89.254 Y52.447 E14.28894
G1 X89.665 Y52.059 E14.32278
G1 X90.422 Y51.437 E14.38143
G1 X91.169 Y50.926 E14.43562
G1 X92.034 Y50.439 E14.49505
G1 X92.955 Y50.03 E14.55538
G1 X94.033 Y49.66 E14.62361
G1 X94.954 Y49.44 E14.6803
G1 X95.849 Y49.306 E14.73448
G1 X96.805 Y49.247 E14.79182
G1 X97.602 Y49.234 E14.83954
G1 X137.32 Y49.231 E17.21739
G1 X138.192 Y49.243 E17.2696
G1 X139.138 Y49.3 E17.32634
G1 X140.084 Y49.441 E17.3836
G1 X141.019 Y49.664 E17.44115
G1 X141.45 Y49.797 E17.46815
G1 X142.356 Y50.145 E17.52625
G1 X142.865 Y50.383 E17.55989
G1 X143.746 Y50.869 E17.62013
G1 X144.574 Y51.431 E17.68004
G1 X145.572 Y52.28 E17.75849
G1 X146.301 Y53.048 E17.82188
G1 X146.888 Y53.791 E17.87857
G1 X147.385 Y54.547 E17.93273
G1 X147.914 Y55.546 E18.00041
G1 X148.292 Y56.443 E18.05869
G1 X148.58 Y57.344 E18.11532
G1 X148.788 Y58.265 E18.17184
G1 X148.902 Y59.073 E18.2207
G1 X148.954 Y59.84 E18.26672
G1 X148.969 Y60.611 E18.31289
G1 X148.97 Y100.462 E20.6987
G1 X148.958 Y101.35 E20.75186
G1 X148.916 Y102.155 E20.80012
G1 X148.796 Y103.052 E20.8543
G1 X148.58 Y104.014 E20.91333
G1 X148.34 Y104.782 E20.9615
G1 X147.984 Y105.695 E21.02017
G1 X147.562 Y106.543 E21.07688
G1 X147.09 Y107.315 E21.13105
G1 X146.528 Y108.078 E21.18778
G1 X145.871 Y108.819 E21.24707
G1 X145.182 Y109.468 E21.30374
G1 X144.437 Y110.054 E21.36049
G1 X143.548 Y110.633 E21.424
G1 X142.672 Y111.1 E21.48343
G1 X141.761 Y111.486 E21.54267
G1 X140.9 Y111.765 E21.59685
G1 X139.934 Y111.985 E21.65617
G1 X139.038 Y112.107 E21.7103
G1 X138.211 Y112.153 E21.75989
G1 X137.408 Y112.165 E21.80797
G1 X97.647 Y112.169 E24.18839
G1 X96.784 Y112.157 E24.24006
G1 X95.986 Y112.115 E24.2879
G1 X95.162 Y112.009 E24.33764
G1 X94.276 Y111.821 E24.39186
G1 X93.248 Y111.499 E24.45636
G1 X92.296 Y111.1 E24.51816
G1 X91.591 Y110.732 E24.56577
G1 X90.473 Y110.007 E24.64554
G1 X89.848 Y109.496 E24.69387
G1 X89.242 Y108.938 E24.74319
G1 X88.798 Y108.466 E24.78199
G1 X88.18 Y107.705 E24.84068
G1 X87.715 Y107.023 E24.89009
G1 X87.187 Y106.078 E24.9549
G1 X86.918 Y105.494 E24.9934
G1 X86.554 Y104.525 E25.05537
G1 X86.314 Y103.653 E25.10951
G1 X86.137 Y102.681 E25.16866
G1 X86.054 Y101.802 E25.22152
G1 X86.039 Y101.399 E25.24566
G1 X86.03 Y100.675 E25.28901
G1 X86.031 Y60.703 E27.68206
G1 X86.043 Y59.951 E27.72709
G1 X86.085 Y59.154 E27.77487
G1 X86.205 Y58.257 E27.82905
G1 X86.422 Y57.292 E27.88827
G1 X86.697 Y56.43 E27.94244
G1 X87.081 Y55.518 E28.00168
G1 X87.525 Y54.681 E28.0584
G0 F4800 X87.928 Y54.942
G1 F600 X88.416 Y54.188 E28.11217
G1 X88.616 Y53.913 E28.13253
G1 X89.099 Y53.316 E28.1785
G1 X89.584 Y52.796 E28.22108
G1 X89.995 Y52.408 E28.25491
G1 X90.693 Y51.833 E28.30906
G1 X91.44 Y51.322 E28.36324
G1 X92.229 Y50.878 E28.41744
G1 X93.15 Y50.469 E28.47777
G1 X94.145 Y50.127 E28.54076
G1 X95.025 Y49.915 E28.59495
G1 X95.92 Y49.781 E28.64913
G1 X96.813 Y49.727 E28.70269
G1 X97.602 Y49.714 E28.74993
G1 X137.314 Y49.711 E31.12742
G1 X138.164 Y49.722 E31.17831
G1 X139.068 Y49.775 E31.23253
G1 X139.973 Y49.908 E31.28729
G1 X140.877 Y50.123 E31.34292
G1 X141.308 Y50.256 E31.36993
G1 X142.153 Y50.58 E31.42411
G1 X142.662 Y50.818 E31.45775
G1 X143.514 Y51.289 E31.51603
G1 X144.263 Y51.797 E31.57021
G1 X145.261 Y52.646 E31.64865
G1 X145.925 Y53.346 E31.70642
G1 X146.487 Y54.055 E31.76058
G1 X146.984 Y54.811 E31.81475
G1 X147.472 Y55.733 E31.8772
G1 X147.835 Y56.59 E31.93292
G1 X148.112 Y57.451 E31.98707
G1 X148.313 Y58.333 E32.04122
G1 X148.423 Y59.106 E32.08797
G1 X148.474 Y59.849 E32.13256
G1 X148.489 Y60.611 E32.17818
G1 X148.49 Y100.456 E34.56363
G1 X148.479 Y101.326 E34.61572
G1 X148.44 Y102.091 E34.66158
G1 X148.32 Y102.988 E34.71576
G1 X148.122 Y103.871 E34.76994
G1 X147.882 Y104.639 E34.81811
G1 X147.554 Y105.482 E34.87227
G1 X147.152 Y106.293 E34.92646
G1 X146.68 Y107.065 E34.98063
G1 X146.142 Y107.793 E35.03482
G1 X145.542 Y108.47 E35.08898
G1 X144.884 Y109.091 E35.14315
G1 X144.174 Y109.652 E35.19732
G1 X143.322 Y110.209 E35.25826
G1 X142.446 Y110.676 E35.31769
G1 X141.613 Y111.029 E35.37186
G1 X140.752 Y111.308 E35.42604
G1 X139.869 Y111.509 E35.48026
G1 X138.973 Y111.631 E35.5344
G1 X138.203 Y111.673 E35.58056
G1 X137.403 Y111.686 E35.62846
G1 X97.653 Y111.689 E38.00823
G1 X96.809 Y111.678 E38.05876
G1 X96.047 Y111.639 E38.10444
G1 X95.262 Y111.539 E38.15181
G1 X94.376 Y111.351 E38.20604
G1 X93.436 Y111.049 E38.26515
G1 X93.433 Y111.056 E38.2656
G1 X92.518 Y110.674 E38.32497
G1 X91.813 Y110.306 E38.37258
G1 X90.777 Y109.635 E38.44647
G1 X90.152 Y109.124 E38.49481
G1 X89.592 Y108.609 E38.54035
G1 X89.148 Y108.137 E38.57915
G1 X88.577 Y107.435 E38.63332
G1 X88.112 Y106.753 E38.68274
G1 X87.623 Y105.877 E38.7428
G1 X87.354 Y105.293 E38.7813
G1 X87.017 Y104.398 E38.83855
G1 X86.777 Y103.526 E38.8927
G1 X86.615 Y102.636 E38.94686
G1 X86.534 Y101.784 E38.99809
G1 X86.519 Y101.393 E39.02152
G1 X86.51 Y100.675 E39.06451
G1 X86.511 Y60.71 E41.45714
G1 X86.522 Y59.976 E41.50109
G1 X86.561 Y59.218 E41.54653
G1 X86.681 Y58.321 E41.60071
G1 X86.879 Y57.438 E41.65489
G1 X87.154 Y56.576 E41.70906
G1 X87.505 Y55.742 E41.76323
G1 X87.928 Y54.942 E41.81741
G1 F3600 E37.81741
;MESH:Case_UWB-Cover.obj
G0 F4800 X99.845 Y63.738
G0 X101.169 Y63.497
;TYPE:WALL-INNER
G1 F3600 E41.81741
G1 F600 X100.774 Y64.013 E41.85631
G1 X100.242 Y64.402 E41.89577
G1 X99.755 Y64.623 E41.92778
G1 X99.268 Y64.734 E41.95769
G1 X98.888 Y64.759 E41.98049
G1 X98.46 Y64.72 E42.00622
G1 X98.123 Y64.638 E42.02698
G1 X97.948 Y64.567 E42.03829
G1 X97.948 Y100.247 E44.17439
G1 X137.047 Y100.244 E46.51517
G1 X137.041 Y61.148 E48.85578
G1 X101.394 Y61.151 E50.98991
G1 X101.534 Y61.715 E51.0247
G1 X101.555 Y62.199 E51.0537
G1 X101.521 Y62.544 E51.07446
G1 X101.402 Y63.019 E51.10377
G1 X101.364 Y63.098 E51.10902
G0 F540 X101.169 Y63.497
G0 F4800 X100.948 Y62.854
G1 F600 X100.756 Y63.248 E51.13526
G1 X100.412 Y63.689 E51.16874
G1 X99.994 Y63.987 E51.19948
G1 X99.601 Y64.166 E51.22533
G1 X99.048 Y64.292 E51.25929
G1 X98.406 Y64.233 E51.29788
G1 X97.917 Y64.038 E51.3294
G1 X97.469 Y63.755 E51.36113
G1 X97.468 Y100.727 E53.57457
G1 X137.527 Y100.724 E55.97284
G1 X137.521 Y60.668 E58.37092
G1 X100.526 Y60.671 E60.58574
G1 X100.675 Y60.851 E60.59973
G1 X100.928 Y61.267 E60.62888
G1 X101.057 Y61.788 E60.66102
G1 X101.081 Y62.325 E60.6932
G1 X101.056 Y62.423 E60.69925
G0 F540 X100.948 Y62.854
G0 F4800 X100.598 Y62.278
;TYPE:WALL-OUTER
G1 F600 X100.485 Y62.709 E60.72593
G1 X100.336 Y63.005 E60.74577
G1 X100.092 Y63.329 E60.77005
G1 X99.732 Y63.579 E60.79629
G1 X99.468 Y63.699 E60.81365
G1 X99.018 Y63.807 E60.84136
G1 X98.516 Y63.761 E60.87154
G1 X98.115 Y63.595 E60.89752
G1 X97.835 Y63.412 E60.91755
G1 X97.627 Y63.208 E60.93499
G1 X97.434 Y62.937 E60.95491
G1 F590.2 X97.292 Y62.628 E60.9756
G1 F554.9 X97.253 Y62.585 E60.97936
G1 F455.7 X97.108 Y62.314 E61.00359
G1 F473.7 X96.996 Y62.687 E61.03312
G1 F590.2 X96.989 Y62.977 E61.05078
G1 F600 X96.988 Y101.176 E63.33769
G1 X97.042 Y101.208 E63.34144
G1 X137.97 Y101.203 E65.79173
G1 X138.008 Y101.158 E65.79526
G1 X138 Y60.227 E68.24573
G1 X137.946 Y60.188 E68.24971
G1 X99.831 Y60.192 E70.53159
G1 F560.3 X99.355 Y60.317 E70.56314
G1 X99.732 Y60.635 E70.59476
G1 F600 X100.045 Y60.857 E70.61773
G1 X100.265 Y61.102 E70.63745
G1 X100.48 Y61.454 E70.66214
G1 X100.57 Y61.835 E70.68558
G0 F540 X100.58 Y61.877
G0 X100.598 Y62.278
G1 F3600 E66.68558
G0 F4800 X101.248 Y62.444
G0 X100.422 Y60.959
G0 X99.965 Y60.555
G0 X99.649 Y60.384
G0 X99.352 Y60.327
G1 F3600 E70.68558
G1 F395.6 X98.935 Y60.304 E70.7235
G1 F400.6 X98.529 Y60.318 E70.75993
G0 F4800 X98.177 Y60.38
G0 X97.446 Y60.787
G0 X97.591 Y60.889
G1 F424.2 X98.008 Y60.553 E70.80528
G1 F402.2 X98.529 Y60.318 E70.85632
G1 F412.6 X98.021 Y60.282 E70.90066
G1 F435.7 X97.078 Y60.281 E70.97841
G1 F434.4 X97.081 Y61.52 E71.08086
G1 F415 X97.11 Y61.889 E71.1129
G1 F411.4 X97.188 Y61.613 E71.13794
G1 F429.9 X97.344 Y61.253 E71.17073
G1 F435.7 X97.591 Y60.889 E71.207
G0 F4800 X97.446 Y60.787
G0 X97.18 Y61.388
G0 X97.11 Y61.889
G1 F398.9 X97.108 Y62.314 E71.24527
G1 F3600 E67.24527
G0 F4800 X97.18 Y62.827
G0 X97.45 Y63.328
G0 X98.04 Y63.798
G0 X98.468 Y63.968
G0 X98.924 Y64.008
G0 X101.213 Y63.671
G0 X101.456 Y63.842
;TYPE:SKIN
G1 F3600 E71.24527
G1 F600 X101.621 Y63.573 E71.26416
G1 X101.75 Y63.303 E71.28208
G1 X101.854 Y63.019 E71.30018
G1 X101.946 Y62.649 E71.32301
G1 X101.991 Y62.212 E71.34931
G1 X101.966 Y61.588 E71.3867
G1 X136.6 Y61.589 E73.46017
G1 X136.603 Y99.804 E75.74804
G1 X98.388 Y99.804 E78.0359
G1 X98.389 Y65.15 E80.11058
G1 X98.883 Y65.196 E80.14028
G1 X99.328 Y65.168 E80.16697
G1 X99.753 Y65.072 E80.19306
G1 X100.025 Y64.98 E80.21025
G1 X100.312 Y64.851 E80.22909
G1 X100.586 Y64.695 E80.24796
G1 X101.083 Y64.33 E80.28488
G1 X101.456 Y63.842 E80.32165
G1 F3600 E76.32165
G0 F4800 X101.213 Y63.671
G0 X101.686 Y61.365
G0 X135.821 Y61.288
G0 X135.821 Y61.829
G1 F3600 E80.32165
G1 F600 X136.361 Y62.369 E80.36737
G0 F4800 X136.361 Y63.048
G1 F600 X135.142 Y61.829 E80.47058
G0 F4800 X134.463 Y61.829
G1 F600 X136.361 Y63.727 E80.63128
G0 F4800 X136.361 Y64.405
G1 F600 X133.785 Y61.829 E80.84938
G0 F4800 X133.106 Y61.829
G1 F600 X136.361 Y65.084 E81.12497
G0 F4800 X136.361 Y65.763
G1 F600 X132.427 Y61.829 E81.45805
G0 F4800 X131.748 Y61.829
G1 F600 X136.361 Y66.442 E81.84861
G0 F4800 X136.361 Y67.121
G1 F600 X131.069 Y61.829 E82.29667
G0 F4800 X130.39 Y61.829
G1 F600 X136.361 Y67.8 E82.80221
G0 F4800 X136.361 Y68.478
G1 F600 X129.712 Y61.829 E83.36516
G0 F4800 X129.033 Y61.829
G1 F600 X136.361 Y69.157 E83.98559
G0 F4800 X136.361 Y69.837
G1 F600 X128.354 Y61.829 E84.66356
G0 F4800 X127.675 Y61.829
G1 F600 X136.361 Y70.516 E85.39902
G0 F4800 X136.361 Y71.194
G1 F600 X126.996 Y61.829 E86.19192
G0 F4800 X126.318 Y61.829
G1 F600 X136.361 Y71.873 E87.04227
G0 F4800 X136.361 Y72.552
G1 F600 X125.639 Y61.829 E87.9501
G0 F4800 X124.96 Y61.829
G1 F600 X136.361 Y73.231 E88.91543
G0 F4800 X136.361 Y73.91
G1 F600 X124.281 Y61.829 E89.93824
G0 F4800 X123.602 Y61.829
G1 F600 X136.361 Y74.588 E91.0185
G0 F4800 X136.361 Y75.267
G1 F600 X122.923 Y61.829 E92.15625
G0 F4800 X122.245 Y61.829
G1 F600 X136.361 Y75.946 E93.35144
G0 F4800 X136.361 Y76.625
G1 F600 X121.566 Y61.829 E94.60413
G0 F4800 X120.887 Y61.829
G1 F600 X136.362 Y77.304 E95.91434
G0 F4800 X136.362 Y77.983
G1 F600 X120.208 Y61.829 E97.28204
G0 F4800 X119.529 Y61.829
G1 F600 X136.362 Y78.662 E98.70723
G0 F4800 X136.362 Y79.341
G1 F600 X118.851 Y61.829 E100.18987
G0 F4800 X118.172 Y61.829
G1 F600 X136.362 Y80.02 E101.73
G0 F4800 X136.362 Y80.699
G1 F600 X117.493 Y61.829 E103.32761
G0 F4800 X116.814 Y61.829
G1 F600 X136.362 Y81.377 E104.98267
G0 F4800 X136.362 Y82.056
G1 F600 X116.135 Y61.829 E106.69522
G0 F4800 X115.456 Y61.829
G1 F600 X136.362 Y82.735 E108.46526
G0 F4800 X136.362 Y83.414
G1 F600 X114.778 Y61.829 E110.29274
G0 F4800 X114.099 Y61.829
G1 F600 X136.362 Y84.093 E112.17771
G0 F4800 X136.363 Y84.772
G1 F600 X113.42 Y61.829 E114.12022
G0 F4800 X112.741 Y61.829
G1 F600 X136.363 Y85.451 E116.12021
G0 F4800 X136.363 Y86.13
G1 F600 X112.062 Y61.829 E118.17769
G0 F4800 X111.383 Y61.829
G1 F600 X136.363 Y86.809 E120.29266
G0 F4800 X136.363 Y87.487
G1 F600 X110.705 Y61.829 E122.46503
G0 F4800 X110.026 Y61.829
G1 F600 X136.363 Y88.166 E124.69489
G0 F4800 X136.363 Y88.845
G1 F600 X109.347 Y61.829 E126.98224
G0 F4800 X108.668 Y61.829
G1 F600 X136.363 Y89.524 E129.32708
G0 F4800 X136.363 Y90.203
G1 F600 X107.989 Y61.829 E131.7294
G0 F4800 X107.311 Y61.829
G1 F600 X136.363 Y90.882 E134.18918
G0 F4800 X136.363 Y91.56
G1 F600 X106.632 Y61.829 E136.7064
G0 F4800 X105.953 Y61.829
G1 F600 X136.363 Y92.24 E139.28115
G0 F4800 X136.363 Y92.919
G1 F600 X105.274 Y61.829 E141.91339
G0 F4800 X104.595 Y61.829
G1 F600 X136.363 Y93.598 E144.60311
G0 F4800 X136.363 Y94.276
G1 F600 X103.916 Y61.829 E147.35029
G0 F4800 X103.238 Y61.829
G1 F600 X136.363 Y94.955 E150.15491
G0 F4800 X136.363 Y95.634
G1 F600 X102.559 Y61.829 E153.01701
G0 F4800 X102.228 Y62.177
G1 F600 X136.363 Y96.313 E155.90715
G0 F4800 X136.363 Y96.992
G1 F600 X102.159 Y62.787 E158.80312
G0 F4800 X102.003 Y63.31
G1 F600 X136.363 Y97.671 E161.7123
G0 F4800 X136.363 Y98.349
