;FLAVOR:Marlin
;TIME:7306
;Filament used: 4.0592m
;Layer height: 0.2
;MINX:75.561
;MINY:93.126
;MINZ:0.3
;MAXX:159.423
;MAXY:167.312
;MAXZ:18.1
;TARGET_MACHINE.NAME:BIQU B1
;Generated with Cura_SteamEngine 5.12.0
                                 ; BIQU B1 Start G-code
M117 Getting the bed up to temp!
M140 S60      ; Set Heat Bed temperature
M190 S60      ; Wait for Heat Bed temperature
M117 Getting the extruder up to temp!
M104 S200    ; Set Extruder temperature
G92 E0                           ; Reset Extruder
M117 Homing axes
G28                              ; Home all axes
M109 S200    ; Wait for Extruder temperature
G1 Z2.0 F3000                    ; Move Z Axis up little to prevent scratching of Heat Bed
G1 X4.1 Y20 Z0.3 F5000.0         ; Move to start position
M117 Purging
G1 X4.1 Y200.0 Z0.3 F1500.0 E15  ; Draw the first line
G1 X4.4 Y200.0 Z0.3 F5000.0      ; Move to side a little
G1 X4.4 Y20 Z0.3 F1500.0 E30     ; Draw the second line
G92 E0                           ; Reset Extruder
M117 Lets make
G1 Z2.0 F3000                    ; Move Z Axis up little to prevent scratching of Heat Bed
G1 X5 Y20 Z0.3 F5000.0           ; Move over to prevent blob squish
M82 ;absolute extrusion mode
G92 E0
G92 E0
G1 F3600 E-4
;LAYER_COUNT:86
;LAYER:0
M107
G0 F4800 X81.708 Y100.192 Z0.3
;TYPE:SKIRT
G1 F3600 E0
G1 F600 X82.427 Y99.643 E0.05416
G1 X83.32 Y99.077 E0.11746
G1 X83.862 Y98.787 E0.15426
G1 X85.625 Y97.924 E0.27177
G1 X87.877 Y96.765 E0.4234
G1 X90.067 Y95.558 E0.57311
G1 X91.616 Y94.664 E0.68018
G1 X92.084 Y94.423 E0.7117
G1 X93.364 Y93.885 E0.79482
G1 X94.114 Y93.646 E0.84195
G1 X95.363 Y93.35 E0.91879
G1 X96.112 Y93.236 E0.96415
G1 X96.715 Y93.174 E1.00044
G1 X97.444 Y93.138 E1.04414
G1 X98.337 Y93.126 E1.09761
G1 X136.965 Y93.128 E3.4102
G1 X137.711 Y93.14 E3.45486
G1 X138.698 Y93.201 E3.51407
G1 X139.66 Y93.345 E3.5723
G1 X140.234 Y93.473 E3.60751
G1 X143.39 Y94.293 E3.80273
G1 X145.868 Y94.859 E3.9549
G1 X146.49 Y94.992 E3.99298
G1 X148.256 Y95.449 E4.10219
G1 X149.341 Y95.768 E4.1699
G1 X150.197 Y96.063 E4.2241
G1 X151.18 Y96.503 E4.28858
G1 X152.006 Y96.966 E4.34527
G1 X152.867 Y97.556 E4.40776
G1 X153.805 Y98.347 E4.48122
G1 X154.184 Y98.715 E4.51284
G1 X155.27 Y99.843 E4.60659
G1 X155.829 Y100.45 E4.65599
G1 X156.206 Y100.88 E4.69022
G1 X156.534 Y101.295 E4.72189
G1 X157.106 Y102.133 E4.78264
G1 X157.609 Y103.034 E4.84441
G1 X158.004 Y103.917 E4.90233
G1 X158.211 Y104.482 E4.93835
G1 X158.643 Y105.899 E5.02704
G1 X158.879 Y106.759 E5.08043
G1 X159.047 Y107.469 E5.12411
G1 X159.142 Y108 E5.1564
G1 X159.249 Y108.993 E5.2162
G1 X159.264 Y110.183 E5.28745
G1 X159.242 Y110.693 E5.31801
G1 X159.17 Y113.259 E5.47169
G1 X159.17 Y115.766 E5.62178
G1 X159.241 Y118.285 E5.77265
G1 X159.32 Y119.932 E5.87136
G1 X159.329 Y120.442 E5.9019
G1 X159.317 Y120.911 E5.92999
G1 X159.212 Y122.985 E6.05431
G1 X159.142 Y125.522 E6.20626
G1 X159.144 Y128.029 E6.35635
G1 X159.218 Y130.568 E6.50842
G1 X159.375 Y133.254 E6.6695
G1 X159.402 Y134.047 E6.717
G1 X159.404 Y136.954 E6.89104
G1 X159.423 Y138.206 E6.966
G1 X159.391 Y139.194 E7.02518
G1 X159.279 Y140.131 E7.08168
G1 X159.102 Y141.007 E7.13518
G1 X158.983 Y141.48 E7.16438
G1 X158.729 Y142.394 E7.22118
G1 X158.467 Y143.283 E7.27666
G1 X158.173 Y144.138 E7.33079
G1 X157.733 Y145.124 E7.39543
G1 X157.249 Y145.987 E7.45467
G1 X156.693 Y146.801 E7.51368
G1 X156.194 Y147.419 E7.56124
G1 X156.101 Y147.509 E7.56899
G1 X155.708 Y147.952 E7.60444
G1 X154.686 Y148.989 E7.69161
G1 X154.063 Y149.595 E7.74364
G1 X153.258 Y150.302 E7.80778
G1 X152.378 Y150.938 E7.87278
G1 X150.288 Y152.256 E8.02071
G1 X148.238 Y153.622 E8.16819
G1 X146.174 Y155.082 E8.31955
G1 X144.149 Y156.604 E8.47121
G1 X142.187 Y158.166 E8.62135
G1 X140.283 Y159.772 E8.77047
G1 X138.409 Y161.446 E8.92091
G1 X136.096 Y163.644 E9.11194
G1 X135.122 Y164.486 E9.18902
G1 X134.348 Y165.032 E9.24572
G1 X133.492 Y165.531 E9.30504
G1 X132.592 Y165.954 E9.36458
G1 X131.467 Y166.357 E9.43612
G1 X130.243 Y166.714 E9.51245
G1 X129.344 Y166.951 E9.56811
G1 X128.376 Y167.157 E9.62736
G1 X127.398 Y167.278 E9.68636
G1 X126.483 Y167.312 E9.74118
G1 X125.579 Y167.272 E9.79535
G1 X124.52 Y167.13 E9.85932
G1 X123.735 Y166.958 E9.90743
G1 X123.302 Y166.844 E9.93424
G1 X122.224 Y166.533 E10.00141
G1 X121.533 Y166.32 E10.0447
G1 X120.727 Y166.035 E10.09588
G1 X120.084 Y165.755 E10.13787
G1 X119.261 Y165.368 E10.19231
G1 X116.889 Y164.294 E10.3482
G1 X114.535 Y163.306 E10.50104
G1 X112.179 Y162.392 E10.65233
G1 X109.872 Y161.576 E10.79883
G1 X107.429 Y160.787 E10.95253
G1 X105.024 Y160.081 E11.10259
G1 X102.638 Y159.459 E11.25021
G1 X100.156 Y158.882 E11.40276
G1 X97.704 Y158.388 E11.55251
G1 X95.405 Y157.983 E11.69227
G1 X94.761 Y157.844 E11.73171
G1 X94.006 Y157.649 E11.77839
G1 X93.596 Y157.526 E11.80402
G1 X92.763 Y157.222 E11.85711
G1 X90.18 Y156.133 E12.02493
G1 X87.823 Y155.214 E12.17639
G1 X84.839 Y154.149 E12.36607
G1 X83.904 Y153.747 E12.427
G1 X83.069 Y153.299 E12.48373
G1 X82.206 Y152.733 E12.54552
G1 X81.496 Y152.172 E12.59969
G1 X81.241 Y151.934 E12.62057
G1 X81.169 Y151.878 E12.62604
G1 X80.81 Y151.54 E12.65556
G1 X79.811 Y150.543 E12.74005
G1 X79.232 Y149.947 E12.7898
G1 X78.844 Y149.524 E12.82416
G1 X78.339 Y148.91 E12.87176
G1 X77.907 Y148.299 E12.91656
G1 X77.399 Y147.451 E12.97574
G1 X76.965 Y146.559 E13.03513
G1 X76.621 Y145.656 E13.09298
G1 X76.441 Y145.094 E13.12831
G1 X76.177 Y144.203 E13.18394
G1 X75.901 Y143.194 E13.24657
G1 X75.692 Y142.16 E13.30972
G1 X75.585 Y141.186 E13.36839
G1 X75.561 Y140.432 E13.41355
G1 X75.572 Y139.978 E13.44074
G1 X75.703 Y137.469 E13.59115
G1 X75.769 Y134.973 E13.74064
G1 X75.763 Y132.433 E13.8927
G1 X75.685 Y129.89 E14.04502
G1 X75.626 Y128.453 E14.13112
G1 X75.622 Y127.786 E14.17105
G1 X75.644 Y126.127 E14.27038
G1 X75.737 Y124.173 E14.3875
G1 X75.803 Y121.599 E14.54165
G1 X75.795 Y119.094 E14.69162
G1 X75.716 Y116.575 E14.8425
G1 X75.658 Y115.268 E14.92083
G1 X75.649 Y114.65 E14.95783
G1 X75.716 Y111.854 E15.12527
G1 X75.774 Y110.865 E15.18458
G1 X75.918 Y109.892 E15.24347
G1 X76.107 Y109.08 E15.29338
G1 X76.476 Y107.763 E15.37526
G1 X76.708 Y107.014 E15.42221
G1 X77.044 Y106.082 E15.48152
G1 X77.46 Y105.186 E15.54066
G1 X77.909 Y104.4 E15.59485
G1 X78.52 Y103.522 E15.65889
G1 X79.05 Y102.883 E15.70859
G1 X79.668 Y102.209 E15.76334
G1 X80.953 Y100.879 E15.87406
G1 X81.708 Y100.192 E15.93517
G0 F4800 X81.999 Y100.574
G1 F600 X82.718 Y100.025 E15.98933
G1 X83.546 Y99.5 E16.04803
G1 X84.073 Y99.218 E16.08381
G1 X85.845 Y98.351 E16.20191
G1 X88.097 Y97.192 E16.35354
G1 X90.307 Y95.974 E16.50462
G1 X91.837 Y95.09 E16.6104
G1 X92.27 Y94.865 E16.63962
G1 X93.511 Y94.342 E16.72024
G1 X94.225 Y94.113 E16.76513
G1 X95.435 Y93.825 E16.8396
G1 X96.184 Y93.711 E16.88496
G1 X96.739 Y93.653 E16.91836
G1 X97.45 Y93.618 E16.96098
G1 X98.337 Y93.606 E17.01409
G1 X136.958 Y93.608 E19.32626
G1 X137.682 Y93.619 E19.36961
G1 X138.627 Y93.676 E19.42629
G1 X139.556 Y93.814 E19.48252
G1 X140.113 Y93.938 E19.51668
G1 X143.269 Y94.758 E19.7119
G1 X145.761 Y95.327 E19.86493
G1 X146.37 Y95.457 E19.90221
G1 X148.121 Y95.91 E20.01049
G1 X149.185 Y96.222 E20.07687
G1 X150.041 Y96.517 E20.13108
G1 X150.945 Y96.922 E20.19038
G1 X151.771 Y97.385 E20.24707
G1 X152.558 Y97.923 E20.30415
G1 X153.496 Y98.714 E20.3776
G1 X153.838 Y99.048 E20.40622
G1 X154.917 Y100.169 E20.49937
G1 X155.468 Y100.766 E20.54801
G1 X155.829 Y101.178 E20.58081
G1 X156.157 Y101.593 E20.61247
G1 X156.709 Y102.403 E20.67116
G1 X157.171 Y103.231 E20.72792
G1 X157.553 Y104.082 E20.78377
G1 X157.76 Y104.647 E20.81979
G1 X158.18 Y106.026 E20.90609
G1 X158.412 Y106.87 E20.9585
G1 X158.58 Y107.58 E21.00218
G1 X158.665 Y108.052 E21.03089
G1 X158.769 Y108.999 E21.08793
G1 X158.784 Y110.162 E21.15756
G1 X158.762 Y110.672 E21.18812
G1 X158.69 Y113.246 E21.34228
G1 X158.69 Y115.766 E21.49315
G1 X158.762 Y118.299 E21.64486
G1 X158.84 Y119.941 E21.74327
G1 X158.849 Y120.43 E21.77255
G1 X158.838 Y120.887 E21.79992
G1 X158.732 Y122.972 E21.92491
G1 X158.662 Y125.509 E22.07685
G1 X158.664 Y128.029 E22.22772
G1 X158.738 Y130.582 E22.38062
G1 X158.895 Y133.271 E22.54188
G1 X158.922 Y134.047 E22.58837
G1 X158.924 Y136.954 E22.76241
G1 X158.943 Y138.191 E22.83647
G1 X158.914 Y139.138 E22.8932
G1 X158.808 Y140.036 E22.94733
G1 X158.636 Y140.89 E22.99948
G1 X158.52 Y141.352 E23.028
G1 X158.269 Y142.258 E23.08429
G1 X158.013 Y143.127 E23.13852
G1 X157.719 Y143.982 E23.19265
G1 X157.314 Y144.89 E23.25217
G1 X156.852 Y145.717 E23.30889
G1 X156.32 Y146.499 E23.36551
G1 X155.821 Y147.117 E23.41306
G1 X155.77 Y147.159 E23.41702
G1 X155.366 Y147.615 E23.45349
G1 X154.351 Y148.645 E23.54007
G1 X153.746 Y149.234 E23.59062
G1 X152.941 Y149.941 E23.65476
G1 X152.098 Y150.548 E23.71695
G1 X150.032 Y151.85 E23.86315
G1 X147.961 Y153.23 E24.01214
G1 X145.897 Y154.69 E24.1635
G1 X143.861 Y156.22 E24.31597
G1 X141.878 Y157.799 E24.46773
G1 X139.963 Y159.414 E24.61771
G1 X138.089 Y161.088 E24.76814
G1 X136.21 Y162.865 E24.92297
G1 X135.782 Y163.281 E24.95871
G1 X134.844 Y164.094 E25.03302
G1 X134.106 Y164.617 E25.08717
G1 X133.25 Y165.116 E25.14649
G1 X132.389 Y165.519 E25.2034
G1 X131.332 Y165.896 E25.27059
G1 X130.12 Y166.25 E25.34618
G1 X129.243 Y166.482 E25.40049
G1 X128.317 Y166.681 E25.4572
G1 X127.379 Y166.798 E25.51379
G1 X126.504 Y166.832 E25.56621
G1 X125.6 Y166.792 E25.62039
G1 X124.622 Y166.661 E25.67946
G1 X123.857 Y166.494 E25.72634
G1 X123.435 Y166.383 E25.75246
G1 X122.365 Y166.074 E25.81914
G1 X121.693 Y165.867 E25.86124
G1 X120.887 Y165.582 E25.91242
G1 X120.288 Y165.321 E25.95153
G1 X119.459 Y164.931 E26.00638
G1 X117.075 Y163.851 E26.16307
G1 X114.721 Y162.863 E26.31591
G1 X112.352 Y161.945 E26.46802
G1 X110.02 Y161.119 E26.61613
G1 X107.571 Y160.328 E26.7702
G1 X105.159 Y159.621 E26.92068
G1 X102.747 Y158.991 E27.06993
G1 X100.259 Y158.413 E27.22285
G1 X97.799 Y157.917 E27.37309
G1 X95.506 Y157.514 E27.51247
G1 X94.881 Y157.379 E27.55075
G1 X94.144 Y157.189 E27.59631
G1 X93.734 Y157.066 E27.62194
G1 X92.949 Y156.78 E27.67196
G1 X90.354 Y155.686 E27.84056
G1 X87.984 Y154.762 E27.99285
G1 X85.028 Y153.708 E28.18073
G1 X84.131 Y153.324 E28.23915
G1 X83.296 Y152.876 E28.29588
G1 X82.504 Y152.356 E28.3526
G1 X81.794 Y151.795 E28.40677
G1 X81.543 Y151.56 E28.42736
G1 X81.498 Y151.529 E28.43063
G1 X81.149 Y151.2 E28.45935
G1 X80.155 Y150.209 E28.54338
G1 X79.585 Y149.622 E28.59236
G1 X79.214 Y149.219 E28.62516
G1 X78.73 Y148.632 E28.6707
G1 X78.318 Y148.052 E28.7133
G1 X77.83 Y147.241 E28.76996
G1 X77.414 Y146.388 E28.82678
G1 X77.07 Y145.485 E28.88463
G1 X76.901 Y144.958 E28.91776
G1 X76.64 Y144.076 E28.97283
G1 X76.364 Y143.067 E29.03546
G1 X76.169 Y142.107 E29.0941
G1 X76.065 Y141.17 E29.15054
G1 X76.041 Y140.443 E29.19409
G1 X76.051 Y140.003 E29.22044
G1 X76.183 Y137.482 E29.37158
G1 X76.249 Y134.986 E29.52106
G1 X76.243 Y132.432 E29.67396
G1 X76.165 Y129.875 E29.82712
G1 X76.106 Y128.45 E29.9125
G1 X76.102 Y127.792 E29.9519
G1 X76.123 Y126.15 E30.05021
G1 X76.217 Y124.185 E30.16798
G1 X76.283 Y121.611 E30.32214
G1 X76.275 Y119.092 E30.47294
G1 X76.196 Y116.56 E30.6246
G1 X76.138 Y115.261 E30.70245
G1 X76.129 Y114.661 E30.73838
G1 X76.195 Y111.881 E30.90486
G1 X76.249 Y110.935 E30.96158
G1 X76.386 Y110.001 E31.0181
G1 X76.575 Y109.189 E31.06801
G1 X76.935 Y107.905 E31.14785
G1 X77.16 Y107.176 E31.19352
G1 X77.48 Y106.283 E31.25031
G1 X77.877 Y105.424 E31.30697
G1 X78.326 Y104.638 E31.36116
G1 X78.89 Y103.828 E31.42025
G1 X79.404 Y103.207 E31.46851
G1 X80.013 Y102.543 E31.52245
G1 X81.298 Y101.213 E31.63317
G1 X81.999 Y100.574 E31.68996
G0 F4800 X82.29 Y100.956
G1 F600 X83.009 Y100.407 E31.74412
G1 X83.773 Y99.923 E31.79826
G1 X84.284 Y99.649 E31.83298
G1 X86.065 Y98.778 E31.95167
G1 X88.317 Y97.619 E32.1033
G1 X90.547 Y96.39 E32.25574
G1 X92.06 Y95.515 E32.36038
G1 X92.457 Y95.307 E32.38721
G1 X93.658 Y94.799 E32.46528
G1 X94.337 Y94.58 E32.50799
G1 X95.507 Y94.3 E32.58001
G1 X96.256 Y94.186 E32.62537
G1 X96.762 Y94.132 E32.65584
G1 X97.457 Y94.098 E32.6975
G1 X98.337 Y94.086 E32.75018
G1 X136.951 Y94.088 E35.06194
G1 X137.654 Y94.098 E35.10403
G1 X138.557 Y94.151 E35.15818
G1 X139.452 Y94.283 E35.21234
G1 X139.992 Y94.403 E35.24546
G1 X143.148 Y95.223 E35.44068
G1 X145.654 Y95.795 E35.59457
G1 X146.25 Y95.922 E35.63105
G1 X147.986 Y96.371 E35.7384
G1 X149.029 Y96.676 E35.80346
G1 X149.885 Y96.971 E35.85766
G1 X150.711 Y97.341 E35.91185
G1 X151.501 Y97.782 E35.96602
G1 X152.249 Y98.29 E36.02015
G1 X153.161 Y99.058 E36.09153
G1 X153.492 Y99.381 E36.11922
G1 X154.564 Y100.495 E36.21177
G1 X155.107 Y101.083 E36.25969
G1 X155.452 Y101.476 E36.291
G1 X155.78 Y101.891 E36.32267
G1 X156.29 Y102.638 E36.37682
G1 X156.733 Y103.428 E36.43104
G1 X157.102 Y104.247 E36.48482
G1 X157.309 Y104.812 E36.52085
G1 X157.717 Y106.154 E36.60482
G1 X157.945 Y106.981 E36.65618
G1 X158.113 Y107.691 E36.69986
G1 X158.188 Y108.106 E36.72511
G1 X158.289 Y109.005 E36.77927
G1 X158.304 Y110.141 E36.84728
G1 X158.282 Y110.651 E36.87784
G1 X158.21 Y113.233 E37.03248
G1 X158.21 Y115.766 E37.18413
G1 X158.283 Y118.313 E37.33668
G1 X158.36 Y119.95 E37.43479
G1 X158.369 Y120.419 E37.46287
G1 X158.359 Y120.863 E37.48946
G1 X158.252 Y122.959 E37.61511
G1 X158.182 Y125.496 E37.76705
G1 X158.184 Y128.029 E37.9187
G1 X158.258 Y130.596 E38.07244
G1 X158.415 Y133.288 E38.23388
G1 X158.442 Y134.047 E38.27935
G1 X158.444 Y136.954 E38.45339
G1 X158.463 Y138.177 E38.52662
G1 X158.437 Y139.082 E38.58082
G1 X158.331 Y139.98 E38.63495
G1 X158.17 Y140.773 E38.6834
G1 X158.057 Y141.224 E38.71123
G1 X157.809 Y142.122 E38.76701
G1 X157.559 Y142.971 E38.81999
G1 X157.265 Y143.826 E38.87412
G1 X156.895 Y144.657 E38.92858
G1 X156.455 Y145.448 E38.98277
G1 X155.947 Y146.197 E39.03695
G1 X155.448 Y146.815 E39.08451
G1 X155.439 Y146.808 E39.08519
G1 X155.024 Y147.278 E39.12273
G1 X154.016 Y148.301 E39.20871
G1 X153.411 Y148.89 E39.25926
G1 X152.661 Y149.551 E39.31911
G1 X151.818 Y150.158 E39.3813
G1 X149.776 Y151.444 E39.52577
G1 X147.684 Y152.838 E39.67628
G1 X145.62 Y154.298 E39.82764
G1 X143.573 Y155.836 E39.98092
G1 X141.569 Y157.432 E40.1343
G1 X139.643 Y159.056 E40.28512
G1 X137.769 Y160.73 E40.43556
G1 X135.88 Y162.516 E40.5912
G1 X135.463 Y162.922 E40.62604
G1 X134.566 Y163.702 E40.6972
G1 X133.828 Y164.225 E40.75136
G1 X133.046 Y164.682 E40.80558
G1 X132.228 Y165.067 E40.85971
G1 X131.197 Y165.435 E40.92525
G1 X129.997 Y165.786 E41.0001
G1 X129.141 Y166.013 E41.05312
G1 X128.257 Y166.205 E41.10727
G1 X127.359 Y166.318 E41.16146
G1 X126.525 Y166.352 E41.21143
G1 X125.621 Y166.312 E41.26561
G1 X124.724 Y166.192 E41.31979
G1 X123.979 Y166.03 E41.36543
G1 X123.568 Y165.922 E41.39087
G1 X122.506 Y165.615 E41.45705
G1 X121.853 Y165.414 E41.49796
G1 X121.047 Y165.129 E41.54914
G1 X120.492 Y164.887 E41.58539
G1 X119.657 Y164.494 E41.64064
G1 X117.261 Y163.408 E41.79813
G1 X114.907 Y162.42 E41.95097
G1 X112.525 Y161.498 E42.10389
G1 X110.168 Y160.662 E42.25361
G1 X107.713 Y159.869 E42.40806
G1 X105.294 Y159.161 E42.55896
G1 X102.855 Y158.523 E42.70989
G1 X100.367 Y157.946 E42.8628
G1 X97.882 Y157.444 E43.01457
G1 X95.607 Y157.045 E43.15285
G1 X95.001 Y156.914 E43.18997
G1 X94.282 Y156.729 E43.23442
G1 X93.872 Y156.606 E43.26004
G1 X93.135 Y156.338 E43.30699
G1 X90.528 Y155.239 E43.47637
G1 X88.145 Y154.31 E43.6295
G1 X85.189 Y153.256 E43.81738
G1 X84.357 Y152.901 E43.87153
G1 X83.559 Y152.474 E43.92572
G1 X82.802 Y151.979 E43.97987
G1 X82.092 Y151.418 E44.03404
G1 X81.833 Y151.174 E44.05535
G1 X81.827 Y151.18 E44.05585
G1 X81.488 Y150.86 E44.08376
G1 X80.499 Y149.874 E44.16737
G1 X79.938 Y149.297 E44.21555
G1 X79.567 Y148.894 E44.24834
G1 X79.572 Y148.89 E44.24873
G1 X79.121 Y148.353 E44.29071
G1 X78.729 Y147.804 E44.3311
G1 X78.261 Y147.03 E44.38525
G1 X77.863 Y146.217 E44.43944
G1 X77.519 Y145.314 E44.49729
G1 X77.361 Y144.822 E44.52823
G1 X77.103 Y143.949 E44.58273
G1 X76.827 Y142.94 E44.64535
G1 X76.646 Y142.053 E44.69955
G1 X76.545 Y141.154 E44.75371
G1 X76.521 Y140.453 E44.7957
G1 X76.53 Y140.028 E44.82115
G1 X76.663 Y137.495 E44.97301
G1 X76.729 Y134.999 E45.12249
G1 X76.723 Y132.431 E45.27623
