;FLAVOR:Marlin
;TIME:7273
;Filament used: 3.87891m
;Layer height: 0.2
;MINX:75.028
;MINY:69.341
;MINZ:0.3
;MAXX:161.332
;MAXY:160.935
;MAXZ:17.78
;TARGET_MACHINE.NAME:BIQU B1
;Generated with Cura_SteamEngine 5.12.0
                                 ; BIQU B1 Start G-code
M117 Getting the bed up to temp!
M140 S60      ; Set Heat Bed temperature
M190 S60      ; Wait for Heat Bed temperature
M117 Getting the extruder up to temp!
M104 S190    ; Set Extruder temperature
G92 E0                           ; Reset Extruder
M117 Homing axes
G28                              ; Home all axes
M109 S190    ; Wait for Extruder temperature
G1 Z2.0 F3000                    ; Move Z Axis up little to prevent scratching of Heat Bed
G1 X4.1 Y20 Z0.3 F5000.0         ; Move to start position
M117 Purging
G1 X4.1 Y200.0 Z0.3 F1500.0 E15  ; Draw the first line
G1 X4.4 Y200.0 Z0.3 F5000.0      ; Move to side a little
G1 X4.4 Y20 Z0.3 F1500.0 E30     ; Draw the second line
G92 E0                           ; Reset Extruder
M117 Lets make
G1 Z2.0 F3000                    ; Move Z Axis up little to prevent scratching of Heat Bed
G1 X5 Y20 Z0.3 F5000.0           ; Move over to prevent blob squish
M82 ;absolute extrusion mode
G92 E0
G92 E0
G1 F3600 E-4
;LAYER_COUNT:85
;LAYER:0
M107
G0 F4800 X80.842 Y93.577 Z0.3
;TYPE:SKIRT
G1 F3600 E0
G1 F600 X82.714 Y92.012 E0.14608
G1 X83.074 Y91.733 E0.17335
G1 X85.575 Y89.875 E0.35987
G1 X87.549 Y88.31 E0.51069
G1 X89.483 Y86.687 E0.66184
G1 X91.352 Y85.027 E0.8115
G1 X93.868 Y82.652 E1.01864
G1 X94.481 Y82.118 E1.06731
G1 X95.39 Y81.356 E1.13832
G1 X96.034 Y80.838 E1.1878
G1 X97.481 Y79.74 E1.29654
G1 X99.47 Y78.166 E1.4484
G1 X101.372 Y76.572 E1.59697
G1 X103.239 Y74.916 E1.74638
G1 X104.046 Y74.16 E1.81258
G1 X104.754 Y73.513 E1.87
G1 X105.712 Y72.687 E1.94573
G1 X106.349 Y72.176 E1.99462
G1 X107.038 Y71.681 E2.04541
G1 X107.964 Y71.134 E2.1098
G1 X108.826 Y70.725 E2.16692
G1 X109.969 Y70.312 E2.23968
G1 X111.41 Y69.895 E2.32949
G1 X112.074 Y69.72 E2.3706
G1 X112.549 Y69.609 E2.3998
G1 X113.583 Y69.431 E2.46261
G1 X114.284 Y69.366 E2.50476
G1 X114.68 Y69.348 E2.52849
G1 X114.923 Y69.387 E2.54323
G1 X115.199 Y69.341 E2.55998
G1 X116.162 Y69.395 E2.61772
G1 X116.746 Y69.464 E2.65293
G1 X117.1 Y69.521 E2.67439
G1 X117.701 Y69.655 E2.71126
G1 X118.786 Y69.928 E2.77824
G1 X120.234 Y70.347 E2.86849
G1 X121.11 Y70.65 E2.92398
G1 X122.051 Y71.07 E2.98567
G1 X122.842 Y71.509 E3.03983
G1 X123.726 Y72.107 E3.10373
G1 X126.21 Y74.07 E3.29327
G1 X128.264 Y75.604 E3.44675
G1 X130.37 Y77.104 E3.60154
G1 X130.914 Y77.538 E3.64321
G1 X131.57 Y78.14 E3.69651
G1 X131.985 Y78.575 E3.7325
G1 X132.303 Y78.93 E3.76104
G1 X157.63 Y109.087 E6.11874
G1 X158.205 Y109.791 E6.17316
G1 X158.806 Y110.603 E6.23364
G1 X159.281 Y111.374 E6.28785
G1 X159.567 Y111.919 E6.3247
G1 X159.886 Y112.587 E6.36902
G1 X159.93 Y112.723 E6.37758
G1 X160.296 Y113.621 E6.43563
G1 X160.542 Y114.443 E6.487
G1 X160.769 Y115.452 E6.54892
G1 X160.857 Y115.939 E6.57855
G1 X160.919 Y116.41 E6.60699
G1 X160.966 Y116.933 E6.63842
G1 X160.989 Y117.669 E6.68251
G1 X160.962 Y120.58 E6.85679
G1 X161.009 Y123.077 E7.00631
G1 X161.123 Y125.494 E7.15117
G1 X161.213 Y126.615 E7.2185
G1 X161.221 Y126.851 E7.23264
G1 X161.309 Y128.097 E7.30742
G1 X161.332 Y129.094 E7.36712
G1 X161.253 Y130.202 E7.43363
G1 X161.015 Y131.514 E7.51345
G1 X160.885 Y132.031 E7.54537
G1 X160.542 Y133.262 E7.62188
G1 X160.249 Y134.236 E7.68277
G1 X159.867 Y135.227 E7.74635
G1 X159.45 Y136.077 E7.80303
G1 X158.916 Y136.959 E7.86476
G1 X158.382 Y137.69 E7.91896
G1 X157.658 Y138.515 E7.98467
G1 X157 Y139.193 E8.04124
G1 X156.053 Y140.115 E8.12036
G1 X155.269 Y140.813 E8.18321
G1 X154.852 Y141.132 E8.21464
G1 X154.052 Y141.714 E8.27387
G1 X153.211 Y142.309 E8.33554
G1 X151.237 Y143.791 E8.48332
G1 X149.274 Y145.354 E8.63355
G1 X147.38 Y146.952 E8.78191
G1 X145.432 Y148.692 E8.93828
G1 X144.875 Y149.201 E8.98345
G1 X144.259 Y149.707 E9.03118
G1 X144.173 Y149.791 E9.03837
G1 X143.737 Y150.128 E9.07136
G1 X142.288 Y151.214 E9.17977
G1 X140.315 Y152.783 E9.33069
G1 X138.371 Y154.42 E9.48284
G1 X136.53 Y156.062 E9.63053
G1 X135.595 Y156.946 E9.70756
G1 X134.815 Y157.658 E9.77079
G1 X133.992 Y158.314 E9.8338
G1 X133.239 Y158.814 E9.88791
G1 X132.333 Y159.308 E9.94969
G1 X131.389 Y159.717 E10.01129
G1 X130.599 Y159.983 E10.06119
G1 X129.406 Y160.331 E10.13559
G1 X128.515 Y160.567 E10.19077
G1 X127.75 Y160.739 E10.23771
G1 X126.78 Y160.878 E10.29638
G1 X126.067 Y160.926 E10.33916
G1 X125.973 Y160.922 E10.34479
G1 X125.707 Y160.935 E10.36074
G1 X124.987 Y160.919 E10.40385
G1 X124.021 Y160.833 E10.46192
G1 X122.525 Y160.532 E10.55327
G1 X121.517 Y160.253 E10.61589
G1 X120.354 Y159.901 E10.68864
G1 X119.865 Y159.736 E10.71953
G1 X119.023 Y159.393 E10.77396
G1 X117.329 Y158.587 E10.88628
G1 X115.052 Y157.556 E11.03592
G1 X112.695 Y156.566 E11.18897
G1 X110.349 Y155.657 E11.3396
G1 X108.035 Y154.839 E11.48653
G1 X105.6 Y154.052 E11.63974
G1 X103.194 Y153.349 E11.7898
G1 X102.504 Y153.165 E11.83255
G1 X100.805 Y152.679 E11.93835
G1 X99.857 Y152.382 E11.99783
G1 X98.973 Y152.041 E12.05455
G1 X98.085 Y151.607 E12.11372
G1 X97.202 Y151.072 E12.17553
G1 X96.41 Y150.489 E12.23441
G1 X95.788 Y149.95 E12.28368
G1 X95.423 Y149.604 E12.31379
G1 X94.637 Y148.821 E12.38021
G1 X93.917 Y148.077 E12.4422
G1 X93.279 Y147.328 E12.5011
G1 X92.77 Y146.618 E12.5534
G1 X92.261 Y145.77 E12.61261
G1 X91.846 Y144.918 E12.66935
G1 X91.479 Y143.965 E12.73049
G1 X91.307 Y143.433 E12.76396
G1 X90.996 Y142.371 E12.83021
G1 X90.724 Y141.39 E12.89116
G1 X90.014 Y138.965 E13.04244
G1 X89.249 Y136.601 E13.19119
G1 X88.405 Y134.227 E13.34203
G1 X87.49 Y131.865 E13.49368
G1 X86.522 Y129.562 E13.64324
G1 X85.487 Y127.281 E13.7932
G1 X84.38 Y125.018 E13.94402
G1 X83.211 Y122.79 E14.09466
G1 X81.985 Y120.602 E14.24481
G1 X80.872 Y118.73 E14.3752
G1 X79.502 Y116.536 E14.53005
G1 X78.018 Y114.303 E14.69057
G1 X77.505 Y113.555 E14.74487
G1 X76.973 Y112.695 E14.80541
G1 X76.545 Y111.846 E14.86233
G1 X76.112 Y110.739 E14.9335
G1 X75.938 Y110.2 E14.9674
G1 X75.606 Y109.064 E15.03826
G1 X75.365 Y108.179 E15.09317
G1 X75.156 Y107.147 E15.15621
G1 X75.049 Y106.165 E15.21535
G1 X75.028 Y105.21 E15.27254
G1 X75.071 Y104.659 E15.30562
G1 X75.067 Y104.482 E15.31622
G1 X75.135 Y103.863 E15.35351
G1 X75.188 Y103.514 E15.37464
G1 X75.442 Y102.306 E15.44854
G1 X75.801 Y101.015 E15.52876
G1 X76.058 Y100.179 E15.58113
G1 X76.394 Y99.247 E15.64044
G1 X76.791 Y98.388 E15.69709
G1 X77.305 Y97.493 E15.75888
G1 X77.868 Y96.689 E15.81764
G1 X78.341 Y96.113 E15.86226
G1 X79.386 Y94.985 E15.95432
G1 X80 Y94.356 E16.00695
G1 X80.475 Y93.898 E16.04645
G1 X80.842 Y93.577 E16.07564
G0 F4800 X81.15 Y93.945
G1 F600 X83.008 Y92.391 E16.22065
G1 X83.36 Y92.118 E16.24732
G1 X85.871 Y90.252 E16.43461
G1 X87.858 Y88.678 E16.58637
G1 X89.792 Y87.055 E16.73753
G1 X91.671 Y85.386 E16.88799
G1 X94.184 Y83.014 E17.09487
G1 X94.789 Y82.486 E17.14295
G1 X95.691 Y81.73 E17.21341
G1 X96.324 Y81.22 E17.26207
G1 X97.771 Y80.122 E17.37082
G1 X99.768 Y78.542 E17.52327
G1 X101.691 Y76.931 E17.67346
G1 X103.558 Y75.275 E17.82287
G1 X104.37 Y74.514 E17.88949
G1 X105.067 Y73.876 E17.94606
G1 X106.012 Y73.061 E18.02077
G1 X106.629 Y72.566 E18.06813
G1 X107.318 Y72.071 E18.11892
G1 X108.17 Y71.568 E18.17815
G1 X109.032 Y71.159 E18.23527
G1 X110.131 Y70.764 E18.30519
G1 X111.533 Y70.359 E18.39256
G1 X112.184 Y70.187 E18.43287
G1 X112.631 Y70.082 E18.46036
G1 X113.627 Y69.909 E18.52088
G1 X114.306 Y69.846 E18.5617
G1 X114.702 Y69.828 E18.58544
G1 X114.929 Y69.881 E18.59939
G1 X115.172 Y69.82 E18.61439
G1 X116.106 Y69.872 E18.6704
G1 X116.67 Y69.938 E18.70439
G1 X117.024 Y69.995 E18.72586
G1 X117.584 Y70.12 E18.76021
G1 X118.653 Y70.389 E18.8262
G1 X120.077 Y70.801 E18.91495
G1 X120.953 Y71.104 E18.97045
G1 X121.818 Y71.49 E19.02715
G1 X122.609 Y71.929 E19.08131
G1 X123.428 Y72.484 E19.14054
G1 X125.912 Y74.447 E19.33009
G1 X127.977 Y75.989 E19.48438
G1 X130.071 Y77.48 E19.63828
G1 X130.589 Y77.892 E19.6779
G1 X131.245 Y78.494 E19.73121
G1 X131.627 Y78.895 E19.76436
G1 X131.935 Y79.239 E19.79201
G1 X157.258 Y109.391 E22.14932
G1 X157.833 Y110.095 E22.20374
G1 X158.397 Y110.855 E22.2604
G1 X158.872 Y111.626 E22.31462
G1 X159.134 Y112.126 E22.34841
G1 X159.453 Y112.794 E22.39273
G1 X159.473 Y112.874 E22.39767
G1 X159.851 Y113.802 E22.45766
G1 X160.082 Y114.58 E22.50624
G1 X160.297 Y115.537 E22.56497
G1 X160.381 Y116.002 E22.59325
G1 X160.441 Y116.453 E22.62049
G1 X160.486 Y116.948 E22.65025
G1 X160.509 Y117.665 E22.6932
G1 X160.482 Y120.576 E22.86748
G1 X160.529 Y123.086 E23.01778
G1 X160.645 Y125.532 E23.16438
G1 X160.733 Y126.632 E23.23045
G1 X160.742 Y126.885 E23.2456
G1 X160.829 Y128.109 E23.31907
G1 X160.853 Y129.06 E23.37602
G1 X160.774 Y130.168 E23.44252
G1 X160.543 Y131.427 E23.51915
G1 X160.423 Y131.902 E23.54848
G1 X160.082 Y133.124 E23.62444
G1 X159.789 Y134.098 E23.68533
G1 X159.436 Y135.016 E23.74421
G1 X159.019 Y135.866 E23.80089
G1 X158.528 Y136.676 E23.8576
G1 X157.994 Y137.407 E23.9118
G1 X157.313 Y138.181 E23.97352
G1 X156.665 Y138.849 E24.02924
G1 X155.733 Y139.757 E24.10714
G1 X154.977 Y140.432 E24.16781
G1 X154.57 Y140.744 E24.19851
G1 X153.775 Y141.322 E24.25736
G1 X152.934 Y141.917 E24.31904
G1 X150.949 Y143.407 E24.46763
G1 X148.965 Y144.987 E24.61947
G1 X147.06 Y146.594 E24.76868
G1 X145.112 Y148.334 E24.92505
G1 X144.57 Y148.83 E24.96904
G1 X143.929 Y149.357 E25.01872
G1 X143.88 Y149.411 E25.02308
G1 X143.449 Y149.744 E25.05569
G1 X141.989 Y150.838 E25.16491
G1 X140.016 Y152.407 E25.31583
G1 X138.062 Y154.053 E25.46879
G1 X136.2 Y155.713 E25.61813
G1 X135.271 Y156.591 E25.69466
G1 X134.491 Y157.303 E25.75788
G1 X133.726 Y157.914 E25.8165
G1 X132.973 Y158.414 E25.87061
G1 X132.141 Y158.868 E25.92735
G1 X131.236 Y159.262 E25.98645
G1 X130.465 Y159.522 E26.03516
G1 X129.283 Y159.867 E26.10888
G1 X128.409 Y160.099 E26.16301
G1 X127.681 Y160.264 E26.2077
G1 X126.748 Y160.399 E26.26414
G1 X126.035 Y160.447 E26.30692
G1 X125.992 Y160.441 E26.30952
G1 X125.718 Y160.455 E26.32595
G1 X124.998 Y160.439 E26.36906
G1 X124.064 Y160.355 E26.42521
G1 X122.653 Y160.069 E26.5114
G1 X121.656 Y159.794 E26.57332
G1 X120.507 Y159.446 E26.64519
G1 X120.018 Y159.281 E26.67609
G1 X119.229 Y158.959 E26.72711
G1 X117.535 Y158.154 E26.83939
G1 X115.238 Y157.113 E26.99037
G1 X112.881 Y156.123 E27.14342
G1 X110.522 Y155.21 E27.29486
G1 X108.183 Y154.382 E27.44341
G1 X105.741 Y153.593 E27.59705
G1 X103.329 Y152.888 E27.74749
G1 X102.636 Y152.704 E27.79042
G1 X100.948 Y152.221 E27.89553
G1 X100.03 Y151.934 E27.95311
G1 X99.146 Y151.593 E28.00984
G1 X98.296 Y151.176 E28.06652
G1 X97.486 Y150.685 E28.12323
G1 X96.724 Y150.126 E28.17981
G1 X96.118 Y149.601 E28.22781
G1 X95.762 Y149.264 E28.25716
G1 X94.982 Y148.487 E28.32307
G1 X94.282 Y147.765 E28.38327
G1 X93.668 Y147.047 E28.43983
G1 X93.181 Y146.371 E28.48971
G1 X92.693 Y145.56 E28.54638
G1 X92.278 Y144.708 E28.60312
G1 X91.936 Y143.817 E28.66025
G1 X91.768 Y143.298 E28.69291
G1 X91.459 Y142.243 E28.75873
G1 X91.187 Y141.262 E28.81967
G1 X90.475 Y138.83 E28.97138
G1 X89.706 Y136.453 E29.12095
G1 X88.853 Y134.054 E29.27338
G1 X87.938 Y131.692 E29.42503
G1 X86.965 Y129.376 E29.57543
G1 X85.924 Y127.083 E29.72619
G1 X84.811 Y124.807 E29.87787
G1 X83.63 Y122.555 E30.03011
G1 X82.404 Y120.367 E30.18026
G1 X81.285 Y118.485 E30.31135
G1 X79.902 Y116.27 E30.46768
G1 X78.418 Y114.037 E30.6282
G1 X77.913 Y113.302 E30.68158
G1 X77.402 Y112.479 E30.73958
G1 X76.974 Y111.63 E30.7965
G1 X76.569 Y110.592 E30.86321
G1 X76.399 Y110.065 E30.89636
G1 X76.069 Y108.938 E30.96666
G1 X75.828 Y108.053 E31.02158
G1 X75.633 Y107.094 E31.08017
G1 X75.529 Y106.153 E31.13684
G1 X75.507 Y105.248 E31.19104
G1 X75.553 Y104.664 E31.22611
G1 X75.544 Y104.534 E31.23391
G1 X75.61 Y103.934 E31.27005
G1 X75.658 Y103.613 E31.28948
G1 X75.912 Y102.405 E31.36339
G1 X76.26 Y101.156 E31.44101
G1 X76.51 Y100.341 E31.49205
G1 X76.83 Y99.448 E31.54884
G1 X77.227 Y98.589 E31.60549
G1 X77.699 Y97.768 E31.66219
G1 X78.239 Y96.994 E31.71869
G1 X78.712 Y96.418 E31.76331
G1 X79.73 Y95.32 E31.85295
G1 X80.334 Y94.701 E31.90473
G1 X80.791 Y94.259 E31.94279
G1 X81.15 Y93.945 E31.97134
G0 F4800 X81.458 Y94.313
G1 F600 X83.303 Y92.77 E32.11534
G1 X83.646 Y92.503 E32.14136
G1 X86.167 Y90.629 E32.32942
G1 X88.156 Y89.054 E32.48131
G1 X90.111 Y87.414 E32.63408
G1 X91.99 Y85.745 E32.78454
G1 X94.5 Y83.376 E32.99117
G1 X95.098 Y82.854 E33.0387
G1 X95.992 Y82.104 E33.10856
G1 X96.614 Y81.602 E33.15641
G1 X98.061 Y80.504 E33.26516
G1 X100.066 Y78.918 E33.41821
G1 X102.01 Y77.29 E33.57001
G1 X103.877 Y75.634 E33.71942
G1 X104.694 Y74.868 E33.78647
G1 X105.381 Y74.239 E33.84223
G1 X106.312 Y73.435 E33.91588
G1 X106.909 Y72.956 E33.9617
G1 X107.598 Y72.461 E34.01249
G1 X108.377 Y72.001 E34.06665
G1 X109.194 Y71.611 E34.12085
G1 X110.293 Y71.216 E34.19077
G1 X111.656 Y70.823 E34.27569
G1 X112.294 Y70.654 E34.31521
G1 X112.714 Y70.555 E34.34104
G1 X113.671 Y70.387 E34.39921
G1 X114.328 Y70.326 E34.43871
G1 X114.724 Y70.308 E34.46244
G1 X114.733 Y70.6 E34.47993
G1 X115.146 Y70.601 E34.50466
G1 X115.146 Y70.299 E34.52274
G1 X116.051 Y70.349 E34.577
G1 X116.594 Y70.412 E34.60973
G1 X116.948 Y70.469 E34.6312
G1 X117.467 Y70.585 E34.66303
G1 X118.52 Y70.85 E34.72804
G1 X119.921 Y71.255 E34.81535
G1 X120.758 Y71.543 E34.86834
G1 X121.585 Y71.91 E34.92251
G1 X122.376 Y72.349 E34.97667
G1 X123.125 Y72.857 E35.03085
G1 X123.471 Y73.138 E35.05754
G1 X125.625 Y74.832 E35.2216
G1 X127.69 Y76.374 E35.37589
G1 X129.772 Y77.856 E35.52889
G1 X130.29 Y78.268 E35.56851
G1 X130.92 Y78.847 E35.61974
G1 X131.269 Y79.215 E35.6501
G1 X131.567 Y79.548 E35.67686
G1 X156.886 Y109.695 E38.03379
G1 X157.448 Y110.382 E38.08693
G1 X157.988 Y111.107 E38.14105
G1 X158.463 Y111.878 E38.19527
G1 X158.701 Y112.333 E38.22601
G1 X159.02 Y113.001 E38.27033
G1 X159.008 Y113.006 E38.2711
G1 X159.406 Y113.983 E38.33426
G1 X159.622 Y114.716 E38.38001
G1 X159.825 Y115.622 E38.4356
G1 X159.905 Y116.065 E38.46255
G1 X159.965 Y116.516 E38.48979
G1 X159.974 Y116.682 E38.49974
G1 X160.006 Y116.964 E38.51673
G1 X160.029 Y117.661 E38.55848
G1 X160.002 Y120.572 E38.73276
G1 X160.049 Y123.095 E38.88384
G1 X160.167 Y125.57 E39.03218
G1 X160.253 Y126.65 E39.09704
G1 X160.263 Y126.919 E39.11316
G1 X160.349 Y128.122 E39.18536
G1 X160.374 Y129.026 E39.23951
G1 X160.295 Y130.134 E39.30601
G1 X160.077 Y131.31 E39.37761
G1 X159.961 Y131.773 E39.40619
G1 X159.622 Y132.986 E39.48159
G1 X159.329 Y133.96 E39.54248
G1 X159.005 Y134.805 E39.59666
G1 X158.608 Y135.618 E39.65083
G1 X158.14 Y136.393 E39.70503
G1 X157.606 Y137.124 E39.75923
G1 X156.969 Y137.847 E39.81692
G1 X156.33 Y138.505 E39.87183
G1 X155.413 Y139.399 E39.9485
G1 X154.657 Y140.074 E40.00918
G1 X154.288 Y140.356 E40.03698
G1 X153.498 Y140.93 E40.09544
G1 X152.657 Y141.525 E40.15712
G1 X150.661 Y143.023 E40.30653
G1 X148.656 Y144.62 E40.45998
G1 X146.74 Y146.236 E40.61004
G1 X144.787 Y147.98 E40.7668
G1 X144.265 Y148.459 E40.80921
G1 X143.58 Y149.023 E40.86234
G1 X143.586 Y149.031 E40.86294
G1 X143.161 Y149.36 E40.89511
G1 X141.69 Y150.462 E41.00515
G1 X139.717 Y152.031 E41.15607
G1 X137.753 Y153.686 E41.30983
G1 X135.881 Y155.355 E41.45998
G1 X134.947 Y156.236 E41.53684
G1 X134.167 Y156.948 E41.60007
G1 X133.46 Y157.514 E41.65429
G1 X132.707 Y158.014 E41.7084
G1 X131.912 Y158.446 E41.76257
G1 X131.082 Y158.807 E41.81676
G1 X130.33 Y159.061 E41.86428
G1 X129.16 Y159.403 E41.93726
G1 X128.302 Y159.631 E41.99041
G1 X127.611 Y159.789 E42.03284
G1 X126.716 Y159.92 E42.087
G1 X126.003 Y159.968 E42.12978
G1 X126.003 Y159.96 E42.13026
G1 X125.729 Y159.975 E42.14669
G1 X125.009 Y159.959 E42.1898
G1 X124.108 Y159.877 E42.24397
G1 X122.78 Y159.606 E42.32511
G1 X121.795 Y159.335 E42.38627
G1 X120.66 Y158.991 E42.45727
G1 X120.171 Y158.826 E42.48817
G1 X119.411 Y158.515 E42.53733
G1 X117.733 Y157.717 E42.64857
G1 X115.424 Y156.67 E42.80036
G1 X113.067 Y155.68 E42.95341
G1 X110.695 Y154.763 E43.10566
G1 X108.331 Y153.925 E43.25582
G1 X105.882 Y153.134 E43.40989
G1 X103.464 Y152.427 E43.56071
G1 X102.768 Y152.242 E43.60383
