;FLAVOR:Marlin
;TIME:1955
;Filament used: 1.44221m
;Layer height: 0.2
;MINX:85.803
;MINY:85.802
;MINZ:0.3
;MAXX:149.2
;MAXY:149.2
;MAXZ:1.98
;TARGET_MACHINE.NAME:BIQU B1
;Generated with Cura_SteamEngine 5.12.0
                                 ; BIQU B1 Start G-code
M117 Getting the bed up to temp!
M140 S60      ; Set Heat Bed temperature
M190 S60      ; Wait for Heat Bed temperature
M117 Getting the extruder up to temp!
M104 S190    ; Set Extruder temperature
G92 E0                           ; Reset Extruder
M117 Homing axes
G28                              ; Home all axes
M109 S190    ; Wait for Extruder temperature
G1 Z2.0 F3000                    ; Move Z Axis up little to prevent scratching of Heat Bed
G1 X4.1 Y20 Z0.3 F5000.0         ; Move to start position
M117 Purging
G1 X4.1 Y200.0 Z0.3 F1500.0 E15  ; Draw the first line
G1 X4.4 Y200.0 Z0.3 F5000.0      ; Move to side a little
G1 X4.4 Y20 Z0.3 F1500.0 E30     ; Draw the second line
G92 E0                           ; Reset Extruder
M117 Lets make
G1 Z2.0 F3000                    ; Move Z Axis up little to prevent scratching of Heat Bed
G1 X5 Y20 Z0.3 F5000.0           ; Move over to prevent blob squish
M82 ;absolute extrusion mode
G92 E0
G92 E0
G1 F3600 E-4
;LAYER_COUNT:8
;LAYER:0
M107
G0 F4800 X89.274 Y89.193 Z0.3
;TYPE:SKIRT
G1 F3600 E0
G1 F600 X89.908 Y88.611 E0.05152
G1 X90.746 Y87.958 E0.11513
G1 X91.506 Y87.465 E0.16936
G1 X92.366 Y87.002 E0.22784
G1 X92.948 Y86.742 E0.266
G1 X93.309 Y86.598 E0.28927
G1 X94.022 Y86.347 E0.33452
G1 X94.894 Y86.106 E0.38868
G1 X95.968 Y85.911 E0.45403
G1 X97.224 Y85.816 E0.52944
G1 X98.22 Y85.802 E0.58908
G1 X136.997 Y85.803 E2.91059
G1 X137.721 Y85.813 E2.95394
G1 X138.285 Y85.837 E2.98773
G1 X139.795 Y86.039 E3.07894
G1 X140.627 Y86.239 E3.13017
G1 X141.233 Y86.427 E3.16815
G1 X141.803 Y86.637 E3.20452
G1 X142.946 Y87.158 E3.27972
G1 X143.824 Y87.666 E3.34045
G1 X144.704 Y88.29 E3.40504
G1 X145.418 Y88.901 E3.4613
G1 X145.955 Y89.434 E3.50659
G1 X146.562 Y90.122 E3.56152
G1 X147.02 Y90.716 E3.60643
G1 X147.539 Y91.509 E3.66317
G1 X147.988 Y92.342 E3.71982
G1 X148.281 Y92.994 E3.76262
G1 X148.566 Y93.755 E3.81127
G1 X148.834 Y94.653 E3.86737
G1 X149.05 Y95.706 E3.93172
G1 X149.158 Y96.673 E3.98998
G1 X149.181 Y97.24 E4.02395
G1 X149.198 Y98.367 E4.09143
G1 X149.2 Y136.822 E6.39366
G1 X149.187 Y137.735 E6.44833
G1 X149.142 Y138.586 E6.49935
G1 X149.008 Y139.563 E6.55839
G1 X148.819 Y140.415 E6.61063
G1 X148.682 Y140.891 E6.64029
G1 X148.431 Y141.631 E6.68707
G1 X148.031 Y142.574 E6.74839
G1 X147.572 Y143.436 E6.80686
G1 X147.205 Y144.017 E6.848
G1 X146.771 Y144.62 E6.89248
G1 X146.134 Y145.378 E6.95176
G1 X145.217 Y146.278 E7.02868
G1 X144.89 Y146.557 E7.05442
G1 X144.577 Y146.803 E7.07825
G1 X143.98 Y147.229 E7.12216
G1 X142.767 Y147.937 E7.20624
G1 X142.311 Y148.154 E7.23648
G1 X141.367 Y148.528 E7.29726
G1 X140.746 Y148.725 E7.33627
G1 X140.37 Y148.819 E7.35947
G1 X140.261 Y148.856 E7.36636
G1 X139.745 Y148.971 E7.39801
G1 X139.277 Y149.054 E7.42647
G1 X138.528 Y149.145 E7.47164
G1 X137.917 Y149.183 E7.50829
G1 X137.063 Y149.198 E7.55943
G1 X98.173 Y149.2 E9.8877
G1 X97.293 Y149.189 E9.94039
G1 X96.803 Y149.17 E9.96975
G1 X95.775 Y149.063 E10.03162
G1 X95.177 Y148.955 E10.068
G1 X93.899 Y148.614 E10.14719
G1 X93.167 Y148.346 E10.19386
G1 X92.339 Y147.983 E10.24799
G1 X91.434 Y147.488 E10.30974
G1 X90.564 Y146.9 E10.37261
G1 X89.452 Y145.965 E10.45959
G1 X88.731 Y145.22 E10.52166
G1 X88.054 Y144.384 E10.58606
G1 X87.505 Y143.561 E10.64529
G1 X87.033 Y142.698 E10.70418
G1 X86.688 Y141.924 E10.75491
G1 X86.478 Y141.363 E10.79077
G1 X86.184 Y140.418 E10.85002
G1 X85.978 Y139.47 E10.9081
G1 X85.896 Y138.9 E10.94258
G1 X85.816 Y137.718 E11.0135
G1 X85.805 Y136.846 E11.06571
G1 X85.803 Y97.915 E13.39644
G1 X85.815 Y97.195 E13.43955
G1 X85.876 Y96.206 E13.49888
G1 X86.017 Y95.27 E13.55555
G1 X86.261 Y94.268 E13.61729
G1 X86.549 Y93.41 E13.67147
G1 X86.787 Y92.835 E13.70873
G1 X87.01 Y92.357 E13.7403
G1 X87.484 Y91.475 E13.80025
G1 X88.15 Y90.483 E13.87178
G1 X88.376 Y90.193 E13.89379
G1 X88.674 Y89.836 E13.92164
G1 X88.914 Y89.57 E13.94308
G1 X89.274 Y89.193 E13.97429
G0 F4800 X89.599 Y89.547
G1 F600 X90.233 Y88.965 E14.02582
G1 X91.008 Y88.36 E14.08468
G1 X91.734 Y87.887 E14.13655
G1 X92.562 Y87.44 E14.19289
G1 X93.126 Y87.188 E14.22987
G1 X93.469 Y87.051 E14.25198
G1 X94.15 Y86.81 E14.29523
G1 X95.022 Y86.569 E14.34939
G1 X96.004 Y86.39 E14.40915
G1 X97.26 Y86.295 E14.48456
G1 X98.22 Y86.282 E14.54204
G1 X136.99 Y86.283 E16.86313
G1 X137.701 Y86.293 E16.9057
G1 X138.265 Y86.317 E16.9395
G1 X139.683 Y86.506 E17.02514
G1 X140.485 Y86.698 E17.07451
G1 X141.068 Y86.878 E17.11104
G1 X141.604 Y87.074 E17.14521
G1 X142.747 Y87.595 E17.22041
G1 X143.583 Y88.081 E17.2783
G1 X144.392 Y88.655 E17.33769
G1 X145.106 Y89.266 E17.39395
G1 X145.595 Y89.752 E17.43523
G1 X146.182 Y90.416 E17.48829
G1 X146.618 Y90.979 E17.53092
G1 X147.137 Y91.772 E17.58766
G1 X147.565 Y92.569 E17.64182
G1 X147.831 Y93.162 E17.68073
G1 X148.116 Y93.923 E17.72938
G1 X148.374 Y94.79 E17.78353
G1 X148.573 Y95.76 E17.84281
G1 X148.678 Y96.693 E17.89902
G1 X148.701 Y97.247 E17.93222
G1 X148.718 Y98.367 E17.99928
G1 X148.72 Y136.816 E20.30115
G1 X148.708 Y137.71 E20.35468
G1 X148.666 Y138.522 E20.40336
G1 X148.539 Y139.459 E20.45997
G1 X148.35 Y140.311 E20.51221
G1 X148.227 Y140.738 E20.53882
G1 X147.989 Y141.444 E20.58342
G1 X147.607 Y142.349 E20.64223
G1 X147.166 Y143.18 E20.69855
G1 X146.815 Y143.737 E20.73797
G1 X146.403 Y144.312 E20.78032
G1 X145.797 Y145.036 E20.83684
G1 X144.905 Y145.913 E20.91173
G1 X144.593 Y146.18 E20.93632
G1 X144.297 Y146.413 E20.95887
G1 X143.738 Y146.814 E21.00006
G1 X142.525 Y147.522 E21.08414
G1 X142.106 Y147.72 E21.11189
G1 X141.221 Y148.071 E21.16888
G1 X140.63 Y148.259 E21.20601
G1 X140.213 Y148.363 E21.23174
G1 X140.156 Y148.388 E21.23547
G1 X139.66 Y148.499 E21.2659
G1 X139.219 Y148.578 E21.29272
G1 X138.498 Y148.666 E21.33621
G1 X137.908 Y148.703 E21.3716
G1 X137.058 Y148.719 E21.4225
G1 X98.179 Y148.72 E23.75011
G1 X97.312 Y148.709 E23.80202
G1 X96.822 Y148.69 E23.83138
G1 X95.859 Y148.59 E23.88934
G1 X95.301 Y148.491 E23.92327
G1 X94.023 Y148.15 E24.00246
G1 X93.36 Y147.906 E24.04476
G1 X92.532 Y147.543 E24.09888
G1 X91.665 Y147.067 E24.15809
G1 X90.872 Y146.532 E24.21536
G1 X89.797 Y145.631 E24.29934
G1 X89.076 Y144.886 E24.36141
G1 X88.453 Y144.117 E24.42066
G1 X87.926 Y143.33 E24.47736
G1 X87.471 Y142.502 E24.53393
G1 X87.137 Y141.755 E24.58291
G1 X86.936 Y141.22 E24.61713
G1 X86.653 Y140.316 E24.67384
G1 X86.453 Y139.4 E24.72997
G1 X86.375 Y138.867 E24.76222
G1 X86.296 Y137.712 E24.83153
G1 X86.285 Y136.846 E24.88338
G1 X86.283 Y97.923 E27.21363
G1 X86.294 Y97.224 E27.25548
G1 X86.351 Y96.278 E27.31222
G1 X86.492 Y95.342 E27.36889
G1 X86.716 Y94.421 E27.42564
G1 X87.004 Y93.563 E27.47982
G1 X87.222 Y93.037 E27.51391
G1 X87.433 Y92.583 E27.54388
G1 X87.883 Y91.742 E27.60099
G1 X88.529 Y90.778 E27.67046
G1 X88.745 Y90.5 E27.69154
G1 X89.031 Y90.157 E27.71827
G1 X89.261 Y89.901 E27.73888
G1 X89.599 Y89.547 E27.76818
G0 F4800 X89.924 Y89.901
G1 F600 X90.558 Y89.319 E27.8197
G1 X91.271 Y88.762 E27.87387
G1 X91.963 Y88.309 E27.92339
G1 X92.758 Y87.878 E27.97753
G1 X93.305 Y87.633 E28.01341
G1 X93.629 Y87.503 E28.03431
G1 X94.278 Y87.273 E28.07553
G1 X95.15 Y87.032 E28.12969
G1 X96.04 Y86.869 E28.18386
G1 X97.296 Y86.774 E28.25927
G1 X98.22 Y86.762 E28.31459
G1 X136.983 Y86.763 E30.63527
G1 X137.681 Y86.773 E30.67706
G1 X138.245 Y86.797 E30.71086
G1 X139.572 Y86.973 E30.791
G1 X140.343 Y87.157 E30.83845
G1 X140.926 Y87.337 E30.87498
G1 X141.406 Y87.511 E30.90555
G1 X142.506 Y88.01 E30.97786
G1 X143.342 Y88.496 E31.03575
G1 X144.08 Y89.02 E31.08994
G1 X144.768 Y89.607 E31.14408
G1 X145.236 Y90.071 E31.18354
G1 X145.803 Y90.711 E31.23473
G1 X146.217 Y91.243 E31.27509
G1 X146.714 Y91.999 E31.32925
G1 X147.142 Y92.796 E31.38341
G1 X147.393 Y93.358 E31.42026
G1 X147.656 Y94.06 E31.46514
G1 X147.914 Y94.927 E31.5193
G1 X148.096 Y95.814 E31.57351
G1 X148.198 Y96.713 E31.62767
G1 X148.221 Y97.254 E31.66009
G1 X148.238 Y98.367 E31.72673
G1 X148.24 Y136.81 E34.02825
G1 X148.229 Y137.686 E34.0807
G1 X148.19 Y138.458 E34.12697
G1 X148.07 Y139.355 E34.18115
G1 X147.888 Y140.179 E34.23167
G1 X147.772 Y140.585 E34.25695
G1 X147.534 Y141.291 E34.30156
G1 X147.183 Y142.125 E34.35573
G1 X146.76 Y142.925 E34.40991
G1 X146.425 Y143.458 E34.44759
G1 X146.034 Y144.005 E34.48785
G1 X145.46 Y144.694 E34.54154
G1 X144.568 Y145.571 E34.61643
G1 X144.296 Y145.803 E34.63783
G1 X144.016 Y146.024 E34.65919
G1 X143.495 Y146.4 E34.69765
G1 X142.32 Y147.088 E34.77917
G1 X141.901 Y147.286 E34.80691
G1 X141.075 Y147.614 E34.86012
G1 X140.514 Y147.793 E34.89537
G1 X140.048 Y147.909 E34.92412
G1 X140.051 Y147.92 E34.92481
G1 X139.575 Y148.027 E34.95402
G1 X139.16 Y148.102 E34.97926
G1 X138.468 Y148.187 E35.021
G1 X137.899 Y148.223 E35.05514
G1 X137.058 Y148.239 E35.1055
G1 X98.185 Y148.24 E37.43275
G1 X97.331 Y148.229 E37.48389
G1 X96.841 Y148.21 E37.51324
G1 X95.941 Y148.117 E37.56741
G1 X95.424 Y148.027 E37.59883
G1 X94.188 Y147.699 E37.67539
G1 X93.553 Y147.466 E37.71588
G1 X92.725 Y147.103 E37.77001
G1 X91.932 Y146.668 E37.82416
G1 X91.18 Y146.164 E37.87835
G1 X90.142 Y145.297 E37.95932
G1 X89.421 Y144.552 E38.02139
G1 X88.851 Y143.849 E38.07557
G1 X88.346 Y143.098 E38.12976
G1 X87.909 Y142.306 E38.18391
G1 X87.575 Y141.559 E38.2329
G1 X87.394 Y141.076 E38.26378
G1 X87.122 Y140.213 E38.31795
G1 X86.928 Y139.329 E38.37213
G1 X86.854 Y138.834 E38.4021
G1 X86.776 Y137.706 E38.46979
G1 X86.765 Y136.846 E38.52128
G1 X86.763 Y97.93 E40.85111
G1 X86.773 Y97.252 E40.89171
G1 X86.826 Y96.349 E40.94586
G1 X86.959 Y95.454 E41.00003
G1 X87.171 Y94.574 E41.05422
G1 X87.459 Y93.716 E41.10841
G1 X87.657 Y93.239 E41.13933
G1 X87.857 Y92.808 E41.16777
G1 X88.282 Y92.009 E41.22195
G1 X88.908 Y91.073 E41.28937
G1 X89.124 Y90.795 E41.31045
G1 X89.389 Y90.477 E41.33523
G1 X89.608 Y90.232 E41.3549
G1 X89.924 Y89.901 E41.3823
G1 F3600 E37.3823
;MESH:Case_UWB_v2-Cover.obj
G0 F4800 X100.953 Y98.909
G0 X101.432 Y100.136
;TYPE:WALL-INNER
G1 F3600 E41.3823
G1 F600 X101.133 Y100.608 E41.41575
G1 X100.77 Y101.005 E41.44795
G1 X100.41 Y101.267 E41.47461
G1 X100.192 Y101.393 E41.48968
G1 X99.797 Y101.568 E41.51555
G1 X99.287 Y101.683 E41.54685
G1 X98.939 Y101.709 E41.56774
G1 X98.543 Y101.682 E41.5915
G1 X98.204 Y101.611 E41.61224
G1 X98.204 Y136.791 E43.7184
G1 X136.796 Y136.795 E46.02884
G1 X136.796 Y98.204 E48.33921
G1 X101.629 Y98.201 E50.4446
G1 X101.704 Y98.738 E50.47706
G1 X101.705 Y99.078 E50.49742
G1 X101.648 Y99.47 E50.52113
G1 X101.586 Y99.715 E50.53626
G1 X101.585 Y99.718 E50.53645
G0 F540 X101.432 Y100.136
G0 F4800 X100.998 Y99.925
G1 F600 X100.754 Y100.314 E50.56394
G1 X100.447 Y100.647 E50.59106
G1 X100.069 Y100.922 E50.61904
G1 X99.642 Y101.112 E50.64702
G1 X99.078 Y101.238 E50.68162
G1 X98.502 Y101.198 E50.71619
G1 X98.053 Y101.069 E50.74416
G1 X97.725 Y100.901 E50.76622
G1 X97.724 Y137.271 E52.94363
G1 X137.276 Y137.275 E55.31154
G1 X137.276 Y97.724 E57.67939
G1 X100.89 Y97.721 E59.85775
G1 X101.023 Y97.964 E59.87434
G1 X101.162 Y98.337 E59.89817
G1 X101.244 Y98.908 E59.9327
G1 X101.162 Y99.478 E59.96718
G1 X101.151 Y99.508 E59.96909
G0 F540 X100.998 Y99.925
G0 F4800 X100.686 Y99.383
;TYPE:WALL-OUTER
G1 F600 X100.553 Y99.73 E59.99134
G1 X100.374 Y100.02 E60.01174
G1 X100.11 Y100.299 E60.03474
G1 X99.802 Y100.516 E60.0573
G1 X99.469 Y100.659 E60.07899
G1 X99.042 Y100.755 E60.10519
G1 X98.562 Y100.715 E60.13403
G1 X98.21 Y100.61 E60.15602
G1 X97.889 Y100.439 E60.1778
G1 X97.608 Y100.207 E60.19961
G1 X97.352 Y99.903 E60.2234
G1 X97.245 Y99.674 E60.23854
G1 X97.244 Y137.528 E62.50479
G1 X97.286 Y137.641 E62.51201
G1 X97.467 Y137.751 E62.52469
G1 X137.568 Y137.756 E64.92546
G1 X137.725 Y137.605 E64.93851
G1 X137.756 Y137.492 E64.94552
G1 X137.756 Y97.493 E67.34019
G1 X137.706 Y97.354 E67.34903
G1 X137.527 Y97.244 E67.36161
G1 X99.687 Y97.241 E69.62703
G1 X100.06 Y97.462 E69.65298
G1 X100.386 Y97.815 E69.68175
G1 X100.573 Y98.132 E69.70378
G1 X100.698 Y98.481 E69.72598
G1 X100.759 Y98.909 E69.75186
G1 X100.754 Y98.944 E69.75398
G0 F540 X100.686 Y99.383
G1 F3600 E65.75398
G0 F4800 X101.314 Y99.614
G0 X100.658 Y97.769
G0 X99.32 Y97.179
G1 F3600 E69.75398
G1 F813.6 X99.286 Y97.175 E69.75549
G1 X99.32 Y97.179 E69.757
G0 F4800 X99.286 Y97.175
G1 F878 X98.948 Y97.154 E69.77085
G1 F897.2 X98.6 Y97.167 E69.7848
G0 F4800 X97.694 Y97.537
G1 F650.1 X98.165 Y97.226 E69.81598
G1 F742.3 X98.6 Y97.167 E69.83723
G1 X98.183 Y97.224 E69.85759
G1 F650.1 X97.488 Y97.222 E69.896
G1 X97.34 Y97.273 E69.90464
G1 X97.225 Y97.466 E69.91706
G1 X97.225 Y98.213 E69.95833
G1 X97.419 Y97.86 E69.98059
G1 X97.694 Y97.537 E70.00403
G0 F4800 X97.515 Y97.467
G0 X97.145 Y98.88
G1 F1021.3 X97.144 Y98.908 E70.00501
G1 F3600 E66.00501
G0 F4800 X97.982 Y98.999
G0 X99.203 Y99.794
G0 X99.557 Y100.833
G0 X101.242 Y100.697
G0 X101.491 Y100.858
;TYPE:SKIN
G1 F3600 E70.00501
G1 F600 X101.747 Y100.458 E70.03344
G1 X101.882 Y100.176 E70.05216
G1 X101.998 Y99.864 E70.07209
G1 X102.077 Y99.556 E70.09113
G1 X102.138 Y99.138 E70.11642
G1 X102.14 Y98.64 E70.14623
G1 X136.356 Y98.644 E72.19468
G1 X136.356 Y136.351 E74.45214
G1 X98.645 Y136.348 E76.70983
G1 X98.644 Y102.13 E78.7584
G1 X98.903 Y102.148 E78.77394
G1 X99.351 Y102.116 E78.80083
G1 X99.768 Y102.027 E78.82636
G1 X100.092 Y101.919 E78.8468
G1 X100.364 Y101.795 E78.8647
G1 X100.651 Y101.633 E78.88443
G1 X101.065 Y101.324 E78.91536
G1 X101.491 Y100.858 E78.95316
G1 F3600 E74.95316
G0 F4800 X101.241 Y100.699
G0 X101.875 Y98.415
G0 X136.584 Y98.416
G0 X136.656 Y99.46
G0 X136.117 Y99.46
G1 F3600 E78.95316
G1 F600 X135.54 Y98.884 E79.00197
G0 F4800 X134.862 Y98.884
G1 F600 X136.117 Y100.139 E79.10823
G0 F4800 X136.117 Y100.818
G1 F600 X134.183 Y98.884 E79.27197
G0 F4800 X133.504 Y98.884
G1 F600 X136.117 Y101.497 E79.4932
G0 F4800 X136.117 Y102.176
G1 F600 X132.825 Y98.884 E79.77193
G0 F4800 X132.146 Y98.884
G1 F600 X136.117 Y102.854 E80.10809
G0 F4800 X136.117 Y103.533
G1 F600 X131.467 Y98.884 E80.50175
G0 F4800 X130.789 Y98.884
G1 F600 X136.117 Y104.212 E80.95285
G0 F4800 X136.117 Y104.891
G1 F600 X130.109 Y98.883 E81.46153
G0 F4800 X129.43 Y98.883
G1 F600 X136.117 Y105.57 E82.02769
G0 F4800 X136.117 Y106.248
G1 F600 X128.751 Y98.883 E82.65131
G0 F4800 X128.073 Y98.883
G1 F600 X136.117 Y106.927 E83.33236
G0 F4800 X136.117 Y107.606
G1 F600 X127.394 Y98.883 E84.07091
G0 F4800 X126.715 Y98.883
G1 F600 X136.117 Y108.285 E84.86694
G0 F4800 X136.117 Y108.964
G1 F600 X126.036 Y98.883 E85.72047
G0 F4800 X125.357 Y98.883
G1 F600 X136.117 Y109.643 E86.63148
G0 F4800 X136.117 Y110.321
G1 F600 X124.678 Y98.883 E87.59993
G0 F4800 X123.999 Y98.883
G1 F600 X136.117 Y111 E88.62588
G0 F4800 X136.117 Y111.679
G1 F600 X123.32 Y98.883 E89.70932
G0 F4800 X122.641 Y98.883
G1 F600 X136.117 Y112.358 E90.85024
G0 F4800 X136.117 Y113.037
G1 F600 X121.962 Y98.883 E92.04865
G0 F4800 X121.284 Y98.883
G1 F600 X136.117 Y113.715 E93.30447
G0 F4800 X136.117 Y114.394
G1 F600 X120.605 Y98.883 E94.61777
G0 F4800 X119.926 Y98.883
G1 F600 X136.117 Y115.073 E95.98856
G0 F4800 X136.117 Y115.752
G1 F600 X119.246 Y98.882 E97.41693
G0 F4800 X118.568 Y98.882
G1 F600 X136.117 Y116.431 E98.90274
G0 F4800 X136.117 Y117.11
G1 F600 X117.889 Y98.882 E100.44604
G0 F4800 X117.21 Y98.882
G1 F600 X136.117 Y117.788 E102.04679
G0 F4800 X136.117 Y118.467
G1 F600 X116.531 Y98.882 E103.70502
G0 F4800 X115.852 Y98.882
G1 F600 X136.117 Y119.146 E105.42075
G0 F4800 X136.117 Y119.825
G1 F600 X115.174 Y98.882 E107.19392
G0 F4800 X114.495 Y98.882
G1 F600 X136.117 Y120.504 E109.02458
G0 F4800 X136.117 Y121.183
G1 F600 X113.816 Y98.882 E110.91272
G0 F4800 X113.136 Y98.881
G1 F600 X136.117 Y121.861 E112.8584
G0 F4800 X136.117 Y122.54
G1 F600 X112.458 Y98.881 E114.86153
G0 F4800 X111.779 Y98.881
G1 F600 X136.117 Y123.219 E116.92214
G0 F4800 X136.117 Y123.898
G1 F600 X111.1 Y98.881 E119.04024
G0 F4800 X110.421 Y98.881
G1 F600 X136.117 Y124.577 E121.21583
G0 F4800 X136.117 Y125.255
G1 F600 X109.742 Y98.881 E123.44887
