;FLAVOR:Marlin
;TIME:6366
;Filament used: 3.45833m
;Layer height: 0.2
;MINX:88.116
;MINY:78.815
;MINZ:0.3
;MAXX:156.206
;MAXY:156.185
;MAXZ:17.78
;TARGET_MACHINE.NAME:BIQU B1
;Generated with Cura_SteamEngine 5.12.0
                                 ; BIQU B1 Start G-code
M117 Getting the bed up to temp!
M140 S60      ; Set Heat Bed temperature
M190 S60      ; Wait for Heat Bed temperature
M117 Getting the extruder up to temp!
M104 S190    ; Set Extruder temperature
G92 E0                           ; Reset Extruder
M117 Homing axes
G28                              ; Home all axes
M109 S190    ; Wait for Extruder temperature
G1 Z2.0 F3000                    ; Move Z Axis up little to prevent scratching of Heat Bed
G1 X4.1 Y20 Z0.3 F5000.0         ; Move to start position
M117 Purging
G1 X4.1 Y200.0 Z0.3 F1500.0 E15  ; Draw the first line
G1 X4.4 Y200.0 Z0.3 F5000.0      ; Move to side a little
G1 X4.4 Y20 Z0.3 F1500.0 E30     ; Draw the second line
G92 E0                           ; Reset Extruder
M117 Lets make
G1 Z2.0 F3000                    ; Move Z Axis up little to prevent scratching of Heat Bed
G1 X5 Y20 Z0.3 F5000.0           ; Move over to prevent blob squish
M82 ;absolute extrusion mode
G92 E0
G92 E0
G1 F3600 E-4
;LAYER_COUNT:88
;LAYER:0
M107
G0 F4800 X93.159 Y83.135 Z0.3
;TYPE:SKIRT
G1 F3600 E0
G1 F600 X93.777 Y82.474 E0.05417
G1 X94.579 Y81.757 E0.11858
G1 X95.382 Y81.162 E0.17841
G1 X96.366 Y80.569 E0.24719
G1 X97.403 Y80.031 E0.31714
G1 X98.307 Y79.646 E0.37596
G1 X99.283 Y79.329 E0.4374
G1 X100.092 Y79.138 E0.48716
G1 X100.557 Y79.047 E0.51553
G1 X101.062 Y78.961 E0.5462
G1 X102.086 Y78.851 E0.60785
G1 X102.562 Y78.833 E0.63637
G1 X103.671 Y78.815 E0.70277
G1 X109.378 Y78.817 E1.04444
G1 X110.523 Y78.843 E1.11301
G1 X111.022 Y78.881 E1.14297
G1 X112.087 Y78.989 E1.20706
G1 X114.621 Y79.203 E1.3593
G1 X117.142 Y79.346 E1.51047
G1 X119.679 Y79.419 E1.66242
G1 X122.158 Y79.419 E1.81084
G1 X124.682 Y79.348 E1.962
G1 X127.215 Y79.205 E2.11389
G1 X129.696 Y78.994 E2.26296
G1 X131.036 Y78.858 E2.3436
G1 X131.608 Y78.828 E2.37789
G1 X132.238 Y78.815 E2.41561
G1 X138.702 Y78.817 E2.8026
G1 X139.424 Y78.829 E2.84583
G1 X140.269 Y78.874 E2.89649
G1 X141.166 Y78.994 E2.95067
G1 X142.2 Y79.226 E3.01411
G1 X142.822 Y79.416 E3.05305
G1 X143.51 Y79.66 E3.09675
G1 X143.933 Y79.824 E3.12392
G1 X144.808 Y80.212 E3.18122
G1 X146.069 Y80.942 E3.26845
G1 X146.732 Y81.406 E3.3169
G1 X147.141 Y81.714 E3.34755
G1 X147.903 Y82.346 E3.40682
G1 X148.577 Y83.012 E3.46355
G1 X149.221 Y83.769 E3.52305
G1 X149.907 Y84.755 E3.59496
G1 X150.459 Y85.669 E3.65888
G1 X150.925 Y86.579 E3.72009
G1 X151.266 Y87.417 E3.77426
G1 X151.626 Y88.623 E3.84961
G1 X152.376 Y91.637 E4.03555
G1 X153.045 Y94.014 E4.18339
G1 X153.798 Y96.425 E4.33461
G1 X154.611 Y98.793 E4.4845
G1 X155.548 Y101.299 E4.64467
G1 X155.723 Y101.833 E4.67831
G1 X155.94 Y102.676 E4.73043
G1 X156.109 Y103.669 E4.79073
G1 X156.165 Y104.516 E4.84155
G1 X156.192 Y104.679 E4.85144
G1 X156.205 Y105.179 E4.88139
G1 X156.206 Y111.108 E5.23634
G1 X156.194 Y111.843 E5.28035
G1 X156.147 Y112.694 E5.33138
G1 X155.977 Y113.855 E5.40163
G1 X155.792 Y114.712 E5.45412
G1 X155.602 Y115.522 E5.50393
G1 X155.101 Y117.957 E5.65276
G1 X154.662 Y120.439 E5.80366
G1 X154.288 Y122.963 E5.95642
G1 X153.995 Y125.431 E6.10521
G1 X153.768 Y127.936 E6.25579
G1 X153.616 Y130.399 E6.40353
G1 X153.531 Y132.914 E6.55418
G1 X153.539 Y137.048 E6.80168
G1 X153.499 Y137.952 E6.85585
G1 X153.377 Y138.897 E6.9129
G1 X153.171 Y139.859 E6.9718
G1 X152.514 Y142.481 E7.13362
G1 X151.725 Y146.054 E7.35269
G1 X151.579 Y146.597 E7.38635
G1 X151.402 Y147.187 E7.42323
G1 X151.049 Y148.143 E7.48424
G1 X150.645 Y149 E7.54096
G1 X150.131 Y149.882 E7.60208
G1 X149.562 Y150.744 E7.66391
G1 X148.942 Y151.556 E7.72508
G1 X148.303 Y152.256 E7.78182
G1 X147.547 Y152.95 E7.84326
G1 X146.873 Y153.473 E7.89433
G1 X146.137 Y153.994 E7.94832
G1 X145.781 Y154.231 E7.97392
G1 X144.878 Y154.757 E8.03649
G1 X144.02 Y155.161 E8.09326
G1 X143.026 Y155.524 E8.15662
G1 X142.609 Y155.647 E8.18264
G1 X141.702 Y155.875 E8.23863
G1 X140.73 Y156.059 E8.29786
G1 X140.224 Y156.111 E8.32831
G1 X139.467 Y156.171 E8.37377
G1 X138.532 Y156.185 E8.42976
G1 X132.236 Y156.184 E8.80669
G1 X131.509 Y156.174 E8.85022
G1 X130.849 Y156.143 E8.88977
G1 X129.481 Y156.011 E8.97205
G1 X126.934 Y155.795 E9.12509
G1 X124.412 Y155.653 E9.27631
G1 X121.88 Y155.582 E9.42796
G1 X119.402 Y155.582 E9.57631
G1 X116.84 Y155.655 E9.72976
G1 X114.376 Y155.796 E9.87751
G1 X111.822 Y156.014 E10.03097
G1 X110.561 Y156.142 E10.10685
G1 X109.99 Y156.172 E10.14109
G1 X109.36 Y156.185 E10.17881
G1 X103.132 Y156.183 E10.55167
G1 X102.419 Y156.172 E10.59436
G1 X101.431 Y156.112 E10.65362
G1 X100.454 Y155.964 E10.71278
G1 X99.541 Y155.745 E10.76899
G1 X98.976 Y155.568 E10.80444
G1 X98.356 Y155.356 E10.84366
G1 X97.877 Y155.18 E10.87422
G1 X96.777 Y154.69 E10.94631
G1 X95.631 Y154.022 E11.02572
G1 X94.814 Y153.425 E11.0863
G1 X94.39 Y153.066 E11.11956
G1 X94.044 Y152.748 E11.1477
G1 X93.411 Y152.126 E11.20083
G1 X92.745 Y151.393 E11.26012
G1 X92.196 Y150.674 E11.31428
G1 X91.838 Y150.134 E11.35307
G1 X91.375 Y149.37 E11.40655
G1 X90.854 Y148.349 E11.47517
G1 X90.57 Y147.659 E11.51984
G1 X90.185 Y146.42 E11.59752
G1 X90.069 Y145.929 E11.62772
G1 X89.592 Y143.701 E11.76413
G1 X88.946 Y141.048 E11.92761
G1 X88.618 Y139.762 E12.00706
G1 X88.475 Y139.126 E12.04609
G1 X88.327 Y138.397 E12.09062
G1 X88.178 Y137.419 E12.14985
G1 X88.116 Y136.423 E12.20959
G1 X88.148 Y135.367 E12.27284
G1 X88.37 Y132.939 E12.41881
G1 X88.534 Y130.463 E12.56737
G1 X88.631 Y127.901 E12.72086
G1 X88.657 Y125.768 E12.84857
G1 X88.659 Y109.036 E13.85028
G1 X88.622 Y106.464 E14.00428
G1 X88.515 Y103.91 E14.15732
G1 X88.335 Y101.379 E14.30923
G1 X88.183 Y99.738 E14.40789
G1 X88.132 Y98.749 E14.46718
G1 X88.164 Y97.845 E14.52134
G1 X88.314 Y96.676 E14.59189
G1 X88.431 Y96.065 E14.62914
G1 X88.662 Y95.052 E14.69134
G1 X89.383 Y92.16 E14.86978
G1 X90.063 Y89.041 E15.0609
G1 X90.321 Y88.075 E15.12076
G1 X90.72 Y87.004 E15.18918
G1 X91.115 Y86.133 E15.24644
G1 X91.56 Y85.298 E15.30308
G1 X92.095 Y84.474 E15.3619
G1 X92.474 Y83.972 E15.39956
G1 X93.159 Y83.135 E15.46431
G0 F4800 X93.51 Y83.463
G1 F600 X94.128 Y82.802 E15.51848
G1 X94.866 Y82.142 E15.57776
G1 X95.63 Y81.573 E15.63479
G1 X96.588 Y80.995 E15.70177
G1 X97.591 Y80.473 E15.76947
G1 X98.495 Y80.088 E15.82829
G1 X99.393 Y79.796 E15.88482
G1 X100.184 Y79.609 E15.93348
G1 X100.638 Y79.52 E15.96118
G1 X101.143 Y79.434 E15.99185
G1 X102.105 Y79.331 E16.04977
G1 X102.57 Y79.313 E16.07763
G1 X103.671 Y79.295 E16.14356
G1 X109.367 Y79.297 E16.48457
G1 X110.487 Y79.322 E16.55164
G1 X110.974 Y79.359 E16.58088
G1 X112.039 Y79.466 E16.64496
G1 X114.59 Y79.682 E16.79823
G1 X117.128 Y79.826 E16.95042
G1 X119.665 Y79.899 E17.10236
G1 X122.171 Y79.899 E17.25239
G1 X124.695 Y79.828 E17.40356
G1 X127.249 Y79.684 E17.55671
G1 X129.744 Y79.472 E17.70662
G1 X131.084 Y79.336 E17.78725
G1 X131.618 Y79.308 E17.81927
G1 X132.238 Y79.295 E17.85639
G1 X138.695 Y79.297 E18.24296
G1 X139.399 Y79.308 E18.28511
G1 X140.205 Y79.35 E18.33343
G1 X141.102 Y79.47 E18.38761
G1 X142.06 Y79.685 E18.44639
G1 X142.662 Y79.868 E18.48406
G1 X143.336 Y80.107 E18.52688
G1 X143.738 Y80.263 E18.55269
G1 X144.613 Y80.651 E18.61
G1 X145.794 Y81.336 E18.69173
G1 X146.444 Y81.79 E18.7392
G1 X146.835 Y82.084 E18.76849
G1 X147.566 Y82.688 E18.82526
G1 X148.211 Y83.323 E18.87945
G1 X148.855 Y84.08 E18.93895
G1 X149.496 Y85.003 E19.00622
G1 X150.048 Y85.917 E19.07015
G1 X150.48 Y86.76 E19.12686
G1 X150.821 Y87.598 E19.18102
G1 X151.16 Y88.739 E19.25228
G1 X151.91 Y91.753 E19.43823
G1 X152.587 Y94.157 E19.58775
G1 X153.344 Y96.581 E19.73978
G1 X154.161 Y98.961 E19.89043
G1 X155.092 Y101.449 E20.04947
G1 X155.258 Y101.954 E20.0813
G1 X155.467 Y102.758 E20.13103
G1 X155.63 Y103.701 E20.18832
G1 X155.688 Y104.581 E20.24112
G1 X155.712 Y104.692 E20.24792
G1 X155.725 Y105.179 E20.27709
G1 X155.726 Y111.101 E20.63163
G1 X155.715 Y111.817 E20.6745
G1 X155.672 Y112.624 E20.72288
G1 X155.502 Y113.785 E20.79313
G1 X155.325 Y114.602 E20.84317
G1 X155.135 Y115.412 E20.89298
G1 X154.628 Y117.873 E21.04341
G1 X154.189 Y120.355 E21.19431
G1 X153.813 Y122.893 E21.34792
G1 X153.518 Y125.374 E21.4975
G1 X153.29 Y127.893 E21.64892
G1 X153.136 Y130.383 E21.79828
G1 X153.051 Y132.898 E21.94893
G1 X153.059 Y137.027 E22.19613
G1 X153.019 Y137.931 E22.2503
G1 X152.908 Y138.796 E22.30251
G1 X152.705 Y139.742 E22.36044
G1 X152.048 Y142.364 E22.52226
G1 X151.256 Y145.951 E22.74218
G1 X151.119 Y146.459 E22.77368
G1 X150.942 Y147.049 E22.81056
G1 X150.615 Y147.938 E22.86727
G1 X150.211 Y148.795 E22.92399
G1 X149.73 Y149.618 E22.98106
G1 X149.18 Y150.453 E23.04092
G1 X148.587 Y151.232 E23.09953
G1 X147.948 Y151.932 E23.15628
G1 X147.253 Y152.571 E23.2128
G1 X146.596 Y153.081 E23.26259
G1 X145.871 Y153.594 E23.31576
G1 X145.515 Y153.831 E23.34137
G1 X144.673 Y154.323 E23.39975
G1 X143.855 Y154.71 E23.45393
G1 X142.861 Y155.073 E23.51728
G1 X142.492 Y155.182 E23.54032
G1 X141.612 Y155.404 E23.59465
G1 X140.681 Y155.582 E23.6514
G1 X140.186 Y155.633 E23.68119
G1 X139.46 Y155.691 E23.72479
G1 X138.532 Y155.705 E23.78036
G1 X132.243 Y155.704 E24.15687
G1 X131.531 Y155.694 E24.1995
G1 X130.895 Y155.665 E24.23761
G1 X129.527 Y155.533 E24.3199
G1 X126.968 Y155.316 E24.47365
G1 X124.425 Y155.173 E24.62613
G1 X121.893 Y155.102 E24.77778
G1 X119.388 Y155.102 E24.92775
G1 X116.826 Y155.175 E25.08119
G1 X114.342 Y155.317 E25.23015
G1 X111.774 Y155.536 E25.38445
G1 X110.513 Y155.664 E25.46033
G1 X109.98 Y155.692 E25.49228
G1 X109.36 Y155.705 E25.52941
G1 X103.139 Y155.703 E25.90185
G1 X102.447 Y155.693 E25.94328
G1 X101.502 Y155.637 E25.99996
G1 X100.566 Y155.497 E26.05662
G1 X99.653 Y155.278 E26.11283
G1 X99.132 Y155.114 E26.14553
G1 X98.522 Y154.905 E26.18413
G1 X98.043 Y154.729 E26.21468
G1 X97.018 Y154.275 E26.2818
G1 X95.914 Y153.634 E26.35823
G1 X95.124 Y153.058 E26.41676
G1 X94.714 Y152.712 E26.44888
G1 X94.38 Y152.406 E26.476
G1 X93.766 Y151.803 E26.52752
G1 X93.127 Y151.102 E26.58431
G1 X92.578 Y150.383 E26.63847
G1 X92.249 Y149.885 E26.6742
G1 X91.786 Y149.121 E26.72768
G1 X91.297 Y148.165 E26.79197
G1 X91.028 Y147.516 E26.83403
G1 X90.652 Y146.309 E26.90971
G1 X90.538 Y145.829 E26.93925
G1 X90.061 Y143.601 E27.07566
G1 X89.411 Y140.929 E27.24029
G1 X89.086 Y139.657 E27.31889
G1 X88.945 Y139.03 E27.35737
G1 X88.801 Y138.324 E27.4005
G1 X88.657 Y137.388 E27.4572
G1 X88.596 Y136.438 E27.51419
G1 X88.628 Y135.382 E27.57744
G1 X88.848 Y132.983 E27.72167
G1 X89.013 Y130.495 E27.87095
G1 X89.111 Y127.919 E28.02528
G1 X89.137 Y125.774 E28.15371
G1 X89.139 Y109.036 E29.15578
G1 X89.102 Y106.444 E29.31097
G1 X88.995 Y103.89 E29.46401
G1 X88.814 Y101.345 E29.61676
G1 X88.662 Y99.713 E29.71489
G1 X88.612 Y98.766 E29.77166
G1 X88.644 Y97.862 E29.82582
G1 X88.786 Y96.766 E29.89198
G1 X88.899 Y96.172 E29.92818
G1 X89.128 Y95.168 E29.98983
G1 X89.849 Y92.276 E30.16827
G1 X90.527 Y89.164 E30.35895
G1 X90.771 Y88.243 E30.41599
G1 X91.17 Y87.172 E30.48442
G1 X91.539 Y86.359 E30.53787
G1 X91.984 Y85.524 E30.59452
G1 X92.497 Y84.736 E30.65081
G1 X92.846 Y84.276 E30.68538
G1 X93.51 Y83.463 E30.74822
G0 F4800 X93.861 Y83.791
G1 F600 X94.479 Y83.13 E30.80239
G1 X95.153 Y82.526 E30.85658
G1 X95.878 Y81.984 E30.91077
G1 X96.836 Y81.406 E30.97775
G1 X97.812 Y80.899 E31.0436
G1 X98.644 Y80.544 E31.09775
G1 X99.504 Y80.263 E31.15192
G1 X100.276 Y80.08 E31.19942
G1 X100.719 Y79.993 E31.22645
G1 X101.224 Y79.907 E31.25712
G1 X102.124 Y79.811 E31.3113
G1 X102.578 Y79.793 E31.3385
G1 X103.671 Y79.775 E31.40395
G1 X109.356 Y79.777 E31.7443
G1 X110.451 Y79.801 E31.80987
G1 X110.926 Y79.837 E31.83839
G1 X111.991 Y79.943 E31.90247
G1 X114.556 Y80.161 E32.05658
G1 X117.114 Y80.306 E32.20997
G1 X119.651 Y80.379 E32.36192
G1 X122.184 Y80.379 E32.51356
G1 X124.708 Y80.308 E32.66473
G1 X127.283 Y80.163 E32.81914
G1 X129.792 Y79.95 E32.96989
G1 X131.132 Y79.814 E33.05052
G1 X131.628 Y79.788 E33.08026
G1 X132.238 Y79.775 E33.11679
G1 X138.688 Y79.777 E33.50294
G1 X139.375 Y79.787 E33.54407
G1 X140.141 Y79.826 E33.58999
G1 X141.038 Y79.946 E33.64417
G1 X141.921 Y80.144 E33.69834
G1 X142.502 Y80.32 E33.73469
G1 X143.162 Y80.554 E33.77661
G1 X143.543 Y80.702 E33.80108
G1 X144.418 Y81.09 E33.85839
G1 X145.519 Y81.729 E33.9346
G1 X146.156 Y82.174 E33.98112
G1 X146.53 Y82.455 E34.00912
G1 X147.229 Y83.03 E34.06331
G1 X147.874 Y83.665 E34.1175
G1 X148.461 Y84.354 E34.17169
G1 X149.085 Y85.251 E34.23711
G1 X149.621 Y86.137 E34.2991
G1 X150.035 Y86.941 E34.35324
G1 X150.376 Y87.779 E34.40741
G1 X150.694 Y88.855 E34.47458
G1 X151.444 Y91.869 E34.66053
G1 X152.129 Y94.3 E34.81173
G1 X152.89 Y96.737 E34.96458
G1 X153.711 Y99.129 E35.11598
G1 X154.636 Y101.599 E35.27389
G1 X154.802 Y102.104 E35.30571
G1 X154.994 Y102.841 E35.35131
G1 X155.151 Y103.732 E35.40547
G1 X155.215 Y104.706 E35.46391
G1 X155.232 Y104.705 E35.46493
G1 X155.245 Y105.179 E35.49332
G1 X155.246 Y111.094 E35.84744
G1 X155.236 Y111.792 E35.88923
G1 X155.197 Y112.554 E35.93491
G1 X155.027 Y113.715 E36.00516
G1 X154.858 Y114.492 E36.05276
G1 X154.668 Y115.302 E36.10257
G1 X154.155 Y117.789 E36.2546
G1 X153.716 Y120.271 E36.4055
G1 X153.338 Y122.823 E36.55995
G1 X153.041 Y125.317 E36.71032
G1 X152.812 Y127.85 E36.86258
G1 X152.656 Y130.367 E37.01356
G1 X152.571 Y132.882 E37.16421
G1 X152.579 Y137.006 E37.41111
G1 X152.539 Y137.91 E37.46528
G1 X152.439 Y138.695 E37.51266
G1 X152.239 Y139.625 E37.56961
G1 X151.582 Y142.247 E37.73144
G1 X150.787 Y145.847 E37.95216
G1 X150.659 Y146.322 E37.98161
G1 X150.491 Y146.884 E38.01673
G1 X150.18 Y147.734 E38.07091
G1 X149.796 Y148.553 E38.12507
G1 X149.329 Y149.354 E38.18058
G1 X148.779 Y150.189 E38.24044
G1 X148.232 Y150.909 E38.29457
G1 X147.623 Y151.579 E38.34878
G1 X146.958 Y152.192 E38.40292
G1 X146.319 Y152.689 E38.45139
G1 X145.605 Y153.194 E38.50375
G1 X145.249 Y153.431 E38.52935
G1 X144.468 Y153.889 E38.58355
G1 X143.65 Y154.276 E38.63773
G1 X142.724 Y154.613 E38.69672
G1 X142.374 Y154.717 E38.71858
G1 X141.521 Y154.933 E38.77126
G1 X140.632 Y155.105 E38.82547
G1 X140.147 Y155.155 E38.85466
G1 X139.453 Y155.211 E38.89635
G1 X138.532 Y155.225 E38.95149
G1 X132.25 Y155.224 E39.32758
G1 X131.552 Y155.214 E39.36938
G1 X130.941 Y155.187 E39.40599
G1 X129.573 Y155.055 E39.48827
G1 X127.002 Y154.837 E39.64275
G1 X124.438 Y154.693 E39.79649
G1 X121.906 Y154.622 E39.94814
G1 X119.374 Y154.622 E40.09972
G1 X116.812 Y154.695 E40.25317
G1 X114.308 Y154.838 E40.40332
G1 X111.726 Y155.058 E40.55846
G1 X110.465 Y155.186 E40.63434
G1 X109.97 Y155.212 E40.66402
G1 X109.36 Y155.225 E40.70055
G1 X103.145 Y155.223 E41.07263
G1 X102.475 Y155.214 E41.11274
G1 X101.572 Y155.162 E41.16689
G1 X100.677 Y155.03 E41.22106
G1 X99.797 Y154.82 E41.27522
G1 X99.288 Y154.66 E41.30716
G1 X98.688 Y154.454 E41.34514
G1 X98.209 Y154.278 E41.37569
G1 X97.259 Y153.86 E41.43783
G1 X96.155 Y153.219 E41.51426
G1 X95.433 Y152.691 E41.56781
G1 X95.038 Y152.358 E41.59874
G1 X94.716 Y152.063 E41.62488
G1 X94.12 Y151.479 E41.67484
G1 X93.509 Y150.811 E41.72904
G1 X92.96 Y150.092 E41.78319
G1 X92.66 Y149.636 E41.81587
G1 X92.197 Y148.872 E41.86936
G1 X91.74 Y147.981 E41.92931
G1 X91.471 Y147.332 E41.97137
G1 X91.119 Y146.198 E42.04245
G1 X91.007 Y145.729 E42.07132
G1 X90.53 Y143.501 E42.20773
G1 X89.876 Y140.81 E42.37352
G1 X89.554 Y139.552 E42.45127
G1 X89.415 Y138.934 E42.48919
G1 X89.275 Y138.25 E42.53099
G1 X89.136 Y137.356 E42.58515
G1 X89.076 Y136.453 E42.63933
G1 X89.108 Y135.397 E42.70258
G1 X89.326 Y133.027 E42.84507
G1 X89.492 Y130.527 E42.99507
G1 X89.591 Y127.937 E43.15024
G1 X89.617 Y125.78 E43.27939
G1 X89.619 Y109.036 E44.28182
G1 X89.582 Y106.424 E44.43821
G1 X89.475 Y103.87 E44.59125
G1 X89.293 Y101.311 E44.74484
G1 X89.141 Y99.687 E44.84249
G1 X89.092 Y98.783 E44.89669
G1 X89.124 Y97.879 E44.95085
G1 X89.262 Y96.828 E45.01431
G1 X89.367 Y96.279 E45.04777
G1 X89.594 Y95.284 E45.10887
G1 X90.315 Y92.392 E45.28731
G1 X90.991 Y89.286 E45.47761
G1 X91.221 Y88.411 E45.53178
G1 X91.62 Y87.34 E45.6002
