;FLAVOR:Marlin
;TIME:7160
;Filament used: 4.08451m
;Layer height: 0.2
;MINX:73.089
;MINY:72.11
;MINZ:0.3
;MAXX:161.918
;MAXY:162.892
;MAXZ:17.78
;TARGET_MACHINE.NAME:BIQU B1
;Generated with Cura_SteamEngine 5.12.0
                                 ; BIQU B1 Start G-code
M117 Getting the bed up to temp!
M140 S60      ; Set Heat Bed temperature
M190 S60      ; Wait for Heat Bed temperature
M117 Getting the extruder up to temp!
M104 S190    ; Set Extruder temperature
G92 E0                           ; Reset Extruder
M117 Homing axes
G28                              ; Home all axes
M109 S190    ; Wait for Extruder temperature
G1 Z2.0 F3000                    ; Move Z Axis up little to prevent scratching of Heat Bed
G1 X4.1 Y20 Z0.3 F5000.0         ; Move to start position
M117 Purging
G1 X4.1 Y200.0 Z0.3 F1500.0 E15  ; Draw the first line
G1 X4.4 Y200.0 Z0.3 F5000.0      ; Move to side a little
G1 X4.4 Y20 Z0.3 F1500.0 E30     ; Draw the second line
G92 E0                           ; Reset Extruder
M117 Lets make
G1 Z2.0 F3000                    ; Move Z Axis up little to prevent scratching of Heat Bed
G1 X5 Y20 Z0.3 F5000.0           ; Move over to prevent blob squish
M82 ;absolute extrusion mode
G92 E0
G92 E0
G1 F3600 E-4
;LAYER_COUNT:88
;LAYER:0
M107
G0 F4800 X77.622 Y100.368 Z0.3
;TYPE:SKIRT
G1 F3600 E0
G1 F600 X108.209 Y75.09 E2.3756
G1 X108.871 Y74.558 E2.42645
G1 X109.687 Y73.962 E2.48694
G1 X110.462 Y73.493 E2.54117
G1 X111.428 Y73.021 E2.60554
G1 X112.273 Y72.696 E2.65974
G1 X113.306 Y72.401 E2.72406
G1 X114.277 Y72.216 E2.78324
G1 X115.177 Y72.124 E2.8374
G1 X116.252 Y72.11 E2.90176
G1 X117.197 Y72.182 E2.9585
G1 X118.215 Y72.352 E3.02029
G1 X119.123 Y72.587 E3.07644
G1 X119.63 Y72.755 E3.10842
G1 X120.314 Y73.008 E3.15208
G1 X121.246 Y73.414 E3.21294
G1 X122.041 Y73.847 E3.26714
G1 X122.893 Y74.412 E3.32834
G1 X123.368 Y74.778 E3.36424
G1 X124.031 Y75.318 E3.41544
G1 X124.653 Y75.854 E3.46459
G1 X124.999 Y76.169 E3.49261
G1 X125.379 Y76.546 E3.52465
G1 X127.163 Y78.444 E3.6806
G1 X128.907 Y80.197 E3.82864
G1 X130.108 Y81.354 E3.92848
G1 X130.674 Y81.963 E3.97825
G1 X131.282 Y82.726 E4.03666
G1 X133.007 Y85.237 E4.21905
G1 X134.479 Y87.258 E4.36873
G1 X136.037 Y89.277 E4.52141
G1 X137.134 Y90.63 E4.62569
G1 X147.691 Y103.405 E5.61786
G1 X149.413 Y105.431 E5.77705
G1 X151.098 Y107.303 E5.92784
G1 X153.354 Y109.652 E6.12282
G1 X154.086 Y110.388 E6.18497
G1 X154.733 Y111.102 E6.24265
G1 X155.458 Y112.074 E6.31525
G1 X157.026 Y114.373 E6.48185
G1 X158.487 Y116.389 E6.63091
G1 X159.3 Y117.611 E6.71878
G1 X160.066 Y118.853 E6.80614
G1 X160.455 Y119.518 E6.85226
G1 X160.888 Y120.361 E6.909
G1 X161.262 Y121.28 E6.9684
G1 X161.592 Y122.377 E7.03698
G1 X161.78 Y123.308 E7.09384
G1 X161.898 Y124.388 E7.15889
G1 X161.914 Y124.787 E7.18279
G1 X161.918 Y125.592 E7.23099
G1 X161.856 Y126.758 E7.30089
G1 X161.71 Y127.735 E7.36003
G1 X161.48 Y128.697 E7.41925
G1 X161.195 Y129.556 E7.47343
G1 X160.767 Y130.542 E7.53778
G1 X160.335 Y131.337 E7.59195
G1 X159.741 Y132.233 E7.65631
G1 X159.128 Y132.996 E7.71491
G1 X158.657 Y133.5 E7.75621
G1 X158.107 Y134.016 E7.80136
G1 X157.411 Y134.61 E7.85614
G1 X126.808 Y159.897 E10.23282
G1 X126.094 Y160.47 E10.28763
G1 X125.363 Y161.004 E10.34183
G1 X124.444 Y161.556 E10.40601
G1 X123.592 Y161.97 E10.46272
G1 X122.626 Y162.338 E10.5246
G1 X121.672 Y162.606 E10.58393
G1 X120.7 Y162.787 E10.64312
G1 X119.8 Y162.878 E10.69728
G1 X118.768 Y162.892 E10.75907
G1 X117.74 Y162.81 E10.82081
G1 X116.763 Y162.644 E10.88014
G1 X115.815 Y162.396 E10.9388
G1 X115.124 Y162.161 E10.9825
G1 X114.489 Y161.915 E11.02327
G1 X113.614 Y161.516 E11.08084
G1 X112.458 Y160.841 E11.16098
G1 X111.524 Y160.148 E11.23061
G1 X110.846 Y159.582 E11.28349
G1 X110.366 Y159.163 E11.32163
G1 X108.37 Y157.468 E11.4784
G1 X106.436 Y155.916 E11.62686
G1 X104.423 Y154.393 E11.77798
G1 X102.38 Y152.937 E11.92817
G1 X100.536 Y151.682 E12.06171
G1 X99.747 Y151.086 E12.12091
G1 X99.074 Y150.481 E12.17509
G1 X98.398 Y149.762 E12.23417
G1 X97.559 Y148.784 E12.31132
G1 X94.491 Y145.068 E12.59981
G1 X93.729 Y144.11 E12.6731
G1 X93.157 Y143.272 E12.73384
G1 X92.719 Y142.503 E12.78682
G1 X92.109 Y141.29 E12.86811
G1 X90.944 Y139.089 E13.0172
G1 X89.68 Y136.852 E13.17103
G1 X88.394 Y134.721 E13.32004
G1 X87.043 Y132.618 E13.46968
G1 X85.623 Y130.543 E13.62021
G1 X84.137 Y128.494 E13.77174
G1 X82.623 Y126.526 E13.9204
G1 X80.861 Y124.372 E14.087
G1 X79.882 Y123.205 E14.1782
G1 X79.437 Y122.62 E14.2222
G1 X77.947 Y120.455 E14.37955
G1 X75.913 Y117.685 E14.58529
G1 X75.856 Y117.583 E14.59228
G1 X75.435 Y117.002 E14.63524
G1 X75.085 Y116.426 E14.67559
G1 X74.349 Y115.094 E14.7667
G1 X73.965 Y114.275 E14.82085
G1 X73.595 Y113.255 E14.88581
G1 X73.318 Y112.176 E14.9525
G1 X73.152 Y111.096 E15.01792
G1 X73.089 Y109.914 E15.08878
G1 X73.103 Y109.154 E15.13429
G1 X73.162 Y108.208 E15.19104
G1 X73.319 Y107.189 E15.25276
G1 X73.555 Y106.228 E15.31201
G1 X73.861 Y105.332 E15.36869
G1 X74.242 Y104.464 E15.42544
G1 X74.761 Y103.522 E15.48983
G1 X75.291 Y102.737 E15.54654
G1 X75.942 Y101.937 E15.60828
G1 X76.571 Y101.286 E15.66248
G1 X77.045 Y100.858 E15.70071
G1 X77.622 Y100.368 E15.74603
G0 F4800 X77.928 Y100.738
G1 F600 X108.51 Y75.464 E18.12125
G1 X109.172 Y74.932 E18.1721
G1 X109.936 Y74.373 E18.22877
G1 X110.711 Y73.904 E18.283
G1 X111.6 Y73.469 E18.34226
G1 X112.445 Y73.144 E18.39646
G1 X113.396 Y72.872 E18.45567
G1 X114.326 Y72.694 E18.51236
G1 X115.226 Y72.602 E18.56653
G1 X116.216 Y72.589 E18.6258
G1 X117.161 Y72.661 E18.68254
G1 X118.095 Y72.817 E18.73923
G1 X119.003 Y73.052 E18.79538
G1 X119.463 Y73.205 E18.82441
G1 X120.147 Y73.458 E18.86807
G1 X121.016 Y73.836 E18.9248
G1 X121.811 Y74.269 E18.979
G1 X122.6 Y74.792 E19.03567
G1 X123.065 Y75.15 E19.0708
G1 X123.718 Y75.682 E19.12123
G1 X124.33 Y76.209 E19.16958
G1 X124.661 Y76.51 E19.19636
G1 X125.029 Y76.875 E19.2274
G1 X126.813 Y78.773 E19.38334
G1 X128.574 Y80.543 E19.53282
G1 X129.775 Y81.7 E19.63266
G1 X130.299 Y82.263 E19.6787
G1 X130.886 Y82.998 E19.73502
G1 X132.619 Y85.52 E19.91822
G1 X134.091 Y87.541 E20.0679
G1 X135.664 Y89.579 E20.22203
G1 X136.764 Y90.936 E20.32661
G1 X147.325 Y103.716 E21.31917
G1 X149.056 Y105.752 E21.47916
G1 X150.741 Y107.624 E21.62994
G1 X153.014 Y109.991 E21.82641
G1 X153.731 Y110.711 E21.88724
G1 X154.348 Y111.389 E21.94213
G1 X155.061 Y112.344 E22.01348
G1 X156.637 Y114.655 E22.18094
G1 X158.087 Y116.655 E22.32884
G1 X158.9 Y117.877 E22.41671
G1 X159.652 Y119.095 E22.50241
G1 X160.028 Y119.738 E22.547
G1 X160.443 Y120.542 E22.60117
G1 X160.817 Y121.461 E22.66057
G1 X161.121 Y122.472 E22.72377
G1 X161.309 Y123.403 E22.78063
G1 X161.418 Y124.408 E22.84115
G1 X161.434 Y124.789 E22.86398
G1 X161.438 Y125.594 E22.91218
G1 X161.381 Y126.688 E22.97776
G1 X161.243 Y127.624 E23.03441
G1 X161.024 Y128.546 E23.09114
G1 X160.739 Y129.405 E23.14532
G1 X160.345 Y130.313 E23.20458
G1 X159.913 Y131.108 E23.25875
G1 X159.366 Y131.933 E23.31801
G1 X158.777 Y132.668 E23.3744
G1 X158.306 Y133.172 E23.4157
G1 X157.795 Y133.651 E23.45763
G1 X157.105 Y134.24 E23.51194
G1 X126.507 Y159.523 E25.88824
G1 X125.811 Y160.082 E25.94169
G1 X125.08 Y160.616 E25.99588
G1 X124.233 Y161.125 E26.05504
G1 X123.42 Y161.522 E26.10921
G1 X122.495 Y161.876 E26.16851
G1 X121.583 Y162.134 E26.22525
G1 X120.652 Y162.309 E26.28196
G1 X119.752 Y162.4 E26.33612
G1 X118.762 Y162.412 E26.39539
G1 X117.819 Y162.337 E26.45203
G1 X116.884 Y162.18 E26.50879
G1 X115.969 Y161.941 E26.5654
G1 X115.297 Y161.713 E26.60789
G1 X114.662 Y161.467 E26.64866
G1 X113.856 Y161.101 E26.70165
G1 X112.7 Y160.426 E26.78179
G1 X111.832 Y159.779 E26.84661
G1 X111.162 Y159.22 E26.89885
G1 X110.682 Y158.801 E26.93699
G1 X108.681 Y157.102 E27.09415
G1 X106.726 Y155.533 E27.24422
G1 X104.713 Y154.01 E27.39534
G1 X102.659 Y152.546 E27.54635
G1 X100.825 Y151.299 E27.67912
G1 X100.068 Y150.729 E27.73586
G1 X99.395 Y150.124 E27.79003
G1 X98.762 Y149.449 E27.84544
G1 X97.929 Y148.478 E27.92203
G1 X94.867 Y144.769 E28.20997
G1 X94.105 Y143.811 E28.28326
G1 X93.554 Y143.002 E28.34186
G1 X93.148 Y142.287 E28.39108
G1 X92.537 Y141.074 E28.47239
G1 X91.362 Y138.853 E28.62282
G1 X90.098 Y136.616 E28.77665
G1 X88.805 Y134.473 E28.92649
G1 X87.447 Y132.359 E29.07692
G1 X86.012 Y130.261 E29.22909
G1 X84.526 Y128.212 E29.38062
G1 X82.995 Y126.222 E29.53094
G1 X81.233 Y124.068 E29.69755
G1 X80.264 Y122.914 E29.78776
G1 X79.819 Y122.329 E29.83176
G1 X78.334 Y120.171 E29.98859
G1 X76.3 Y117.401 E30.19433
G1 X76.272 Y117.34 E30.19835
G1 X75.845 Y116.752 E30.24186
G1 X75.505 Y116.194 E30.28098
G1 X74.784 Y114.89 E30.37018
G1 X74.4 Y114.071 E30.42434
G1 X74.06 Y113.136 E30.4839
G1 X73.783 Y112.057 E30.55059
G1 X73.631 Y111.07 E30.61038
G1 X73.569 Y109.922 E30.67921
G1 X73.582 Y109.184 E30.7234
G1 X73.641 Y108.238 E30.78014
G1 X73.785 Y107.303 E30.83678
G1 X74.01 Y106.382 E30.89354
G1 X74.301 Y105.525 E30.94773
G1 X74.682 Y104.657 E31.00448
G1 X75.159 Y103.791 E31.06367
G1 X75.689 Y103.006 E31.12037
G1 X76.287 Y102.271 E31.1771
G1 X76.916 Y101.62 E31.23129
G1 X77.356 Y101.224 E31.26673
G1 X77.928 Y100.738 E31.31167
G0 F4800 X78.234 Y101.108
G1 F600 X108.811 Y75.838 E33.68651
G1 X109.456 Y75.319 E33.73607
G1 X110.185 Y74.784 E33.79021
G1 X110.96 Y74.315 E33.84444
G1 X111.772 Y73.917 E33.89858
G1 X112.617 Y73.592 E33.95278
G1 X113.487 Y73.343 E34.00695
G1 X114.375 Y73.172 E34.06109
G1 X115.275 Y73.08 E34.11526
G1 X116.18 Y73.068 E34.16944
G1 X117.083 Y73.135 E34.22365
G1 X117.975 Y73.282 E34.27777
G1 X118.852 Y73.508 E34.33199
G1 X119.297 Y73.655 E34.36005
G1 X119.956 Y73.898 E34.4021
G1 X120.786 Y74.258 E34.45626
G1 X121.581 Y74.691 E34.51046
G1 X122.334 Y75.192 E34.56461
G1 X122.762 Y75.522 E34.59696
G1 X123.405 Y76.046 E34.64662
G1 X124.007 Y76.564 E34.69417
G1 X124.323 Y76.851 E34.71973
G1 X124.679 Y77.204 E34.74974
G1 X126.464 Y79.101 E34.90568
G1 X128.241 Y80.889 E35.0566
G1 X129.442 Y82.046 E35.15644
G1 X129.924 Y82.563 E35.19876
G1 X130.49 Y83.27 E35.25298
G1 X132.231 Y85.803 E35.43699
G1 X133.703 Y87.824 E35.58668
G1 X135.291 Y89.881 E35.74225
G1 X136.394 Y91.242 E35.84713
G1 X146.959 Y104.027 E36.84007
G1 X148.699 Y106.073 E37.00087
G1 X150.384 Y107.945 E37.15165
G1 X152.674 Y110.33 E37.3496
G1 X153.376 Y111.034 E37.40912
G1 X153.993 Y111.712 E37.46401
G1 X154.664 Y112.614 E37.53131
G1 X156.248 Y114.937 E37.69964
G1 X157.687 Y116.921 E37.84637
G1 X158.5 Y118.143 E37.93424
G1 X159.238 Y119.338 E38.01833
G1 X159.601 Y119.958 E38.06134
G1 X160.016 Y120.762 E38.11551
G1 X160.358 Y121.6 E38.1697
G1 X160.651 Y122.568 E38.23024
G1 X160.832 Y123.455 E38.28444
G1 X160.938 Y124.429 E38.3431
G1 X160.954 Y124.791 E38.36479
G1 X160.958 Y125.596 E38.41299
G1 X160.906 Y126.619 E38.47431
G1 X160.776 Y127.514 E38.52845
G1 X160.568 Y128.395 E38.58265
G1 X160.283 Y129.254 E38.63683
G1 X159.923 Y130.084 E38.691
G1 X159.491 Y130.879 E38.74516
G1 X158.991 Y131.633 E38.79933
G1 X158.426 Y132.34 E38.85351
G1 X157.955 Y132.844 E38.89481
G1 X157.484 Y133.286 E38.93348
G1 X156.799 Y133.87 E38.98737
G1 X126.206 Y159.149 E41.36329
G1 X125.528 Y159.694 E41.41536
G1 X124.797 Y160.228 E41.46956
G1 X124.022 Y160.694 E41.5237
G1 X123.209 Y161.091 E41.57787
G1 X122.363 Y161.414 E41.63208
G1 X121.493 Y161.662 E41.68624
G1 X120.604 Y161.831 E41.74042
G1 X119.704 Y161.922 E41.79457
G1 X118.799 Y161.933 E41.84876
G1 X117.897 Y161.863 E41.90292
G1 X117.004 Y161.715 E41.95711
G1 X116.128 Y161.488 E42.01129
G1 X115.47 Y161.265 E42.05288
G1 X114.859 Y161.029 E42.0921
G1 X114.097 Y160.686 E42.14213
G1 X112.987 Y160.041 E42.21898
G1 X112.139 Y159.41 E42.28227
G1 X111.478 Y158.859 E42.33378
G1 X110.993 Y158.435 E42.37235
G1 X108.992 Y156.736 E42.52951
G1 X107.016 Y155.15 E42.6812
G1 X105.003 Y153.627 E42.83232
G1 X102.938 Y152.155 E42.98414
G1 X101.113 Y150.915 E43.11623
G1 X100.389 Y150.372 E43.17042
G1 X99.716 Y149.767 E43.22459
G1 X99.126 Y149.137 E43.27627
G1 X98.299 Y148.172 E43.35235
G1 X95.243 Y144.47 E43.63975
G1 X94.481 Y143.512 E43.71303
G1 X93.971 Y142.765 E43.76718
G1 X93.577 Y142.071 E43.81496
G1 X92.965 Y140.858 E43.8963
G1 X91.78 Y138.617 E44.04807
G1 X90.516 Y136.38 E44.20189
G1 X89.216 Y134.225 E44.35256
G1 X87.851 Y132.1 E44.50377
G1 X86.401 Y129.979 E44.65759
G1 X84.915 Y127.93 E44.80912
G1 X83.367 Y125.918 E44.9611
G1 X81.605 Y123.764 E45.12771
G1 X80.646 Y122.623 E45.21694
G1 X80.201 Y122.038 E45.26095
G1 X78.721 Y119.887 E45.41726
G1 X76.687 Y117.117 E45.623
G1 X76.698 Y117.109 E45.62382
G1 X76.255 Y116.502 E45.6688
G1 X75.925 Y115.961 E45.70674
G1 X75.219 Y114.686 E45.794
G1 X74.835 Y113.867 E45.84815
G1 X74.525 Y113.017 E45.90232
G1 X74.248 Y111.938 E45.96901
G1 X74.11 Y111.044 E46.02317
G1 X74.049 Y109.93 E46.08996
G1 X74.061 Y109.213 E46.13289
G1 X74.116 Y108.31 E46.18705
G1 X74.252 Y107.416 E46.24119
G1 X74.465 Y106.536 E46.2954
G1 X74.756 Y105.679 E46.34958
G1 X75.121 Y104.851 E46.40375
G1 X75.557 Y104.059 E46.45788
G1 X76.062 Y103.308 E46.51206
G1 X76.632 Y102.605 E46.56624
G1 X77.261 Y101.954 E46.62044
G1 X77.667 Y101.59 E46.65308
G1 X78.234 Y101.108 E46.69764
G1 F3600 E42.69764
G0 F4800 X84.549 Y109.483
G1 F3600 E46.69764
G1 F600 X115.885 Y83.587 E49.13137
G1 X116.115 Y83.734 E49.14771
G1 X116.247 Y83.772 E49.15594
G1 X116.298 Y83.753 E49.1592
G1 X117.117 Y84.447 E49.22346
G1 X118.797 Y86.481 E49.3814
G1 X118.772 Y86.559 E49.38631
G1 X118.801 Y86.643 E49.39163
G1 X118.782 Y86.658 E49.39308
G1 X118.741 Y86.788 E49.40124
G1 X118.777 Y86.919 E49.40937
G1 X118.821 Y86.99 E49.41437
G1 X118.841 Y87.157 E49.42444
G1 X119.103 Y87.598 E49.45515
G1 X119.131 Y87.636 E49.45798
G1 X119.396 Y87.93 E49.48167
G1 X119.436 Y87.966 E49.48489
G1 X119.503 Y88.013 E49.48979
G1 X119.263 Y88.071 E49.50458
G1 X119.206 Y88.092 E49.50821
G1 X118.67 Y88.379 E49.54461
G1 X118.63 Y88.406 E49.5475
G1 X89.002 Y112.884 E51.84834
G1 X88.995 Y112.891 E51.84893
G1 X88.658 Y113.194 E51.87606
G1 X88.626 Y113.228 E51.87886
G1 X88.259 Y113.716 E51.91541
G1 X88.233 Y113.76 E51.91847
G1 X88.174 Y113.889 E51.92696
G1 X88.046 Y113.666 E51.94236
G1 X88.017 Y113.625 E51.94536
G1 X87.715 Y113.287 E51.9725
G1 X87.683 Y113.257 E51.97513
G1 X87.447 Y113.075 E51.99297
G1 X87.319 Y113.026 E52.00117
G1 X87.303 Y113.031 E52.00218
G1 X87.194 Y112.902 E52.01229
G1 X87.155 Y112.865 E52.01551
G1 X86.597 Y112.448 E52.05721
G1 X86.468 Y112.4 E52.06545
G1 X86.377 Y112.421 E52.07104
G1 X85.042 Y110.808 E52.19639
G1 X84.72 Y110.218 E52.23663
G1 X84.716 Y110.212 E52.23707
G1 X84.576 Y109.971 E52.25375
G1 X84.599 Y109.937 E52.25621
G1 X84.607 Y109.825 E52.26293
G1 X84.549 Y109.483 E52.2837
G0 F4800 X85.068 Y109.676
G1 F600 X115.932 Y84.171 E54.68074
G1 X116.077 Y84.232 E54.69016
G1 X116.124 Y84.235 E54.69298
G1 X116.774 Y84.786 E54.74399
G1 X118.289 Y86.62 E54.88641
G1 X118.272 Y86.669 E54.88951
G1 X118.27 Y86.908 E54.90382
G1 X118.334 Y87.077 E54.91464
G1 X118.332 Y87.119 E54.91716
G1 X118.428 Y87.402 E54.93505
G1 X118.681 Y87.828 E54.96471
G1 X118.443 Y87.956 E54.98089
G1 X118.324 Y88.036 E54.98948
G1 X88.696 Y112.514 E57.29031
G1 X88.674 Y112.534 E57.29209
G1 X88.337 Y112.837 E57.31922
G1 X88.243 Y112.939 E57.32753
G1 X88.154 Y113.058 E57.33642
G1 X88.073 Y112.967 E57.34372
G1 X87.976 Y112.877 E57.35164
G1 X87.74 Y112.695 E57.36948
G1 X87.572 Y112.605 E57.38089
G1 X87.561 Y112.592 E57.38191
G1 X87.442 Y112.48 E57.39169
G1 X86.884 Y112.063 E57.4334
G1 X86.671 Y111.954 E57.44772
G1 X86.606 Y111.945 E57.45165
G1 X85.44 Y110.535 E57.56119
G1 X85.141 Y109.988 E57.59851
G1 X85.131 Y109.971 E57.59969
G1 X85.077 Y109.877 E57.60618
G1 X85.08 Y109.745 E57.61409
G1 X85.068 Y109.676 E57.61828
G0 F4800 X85.612 Y109.849
G1 F600 X115.987 Y84.748 E59.97735
G1 X116.432 Y85.125 E60.01226
G1 X117.791 Y86.77 E60.14001
G1 X117.789 Y86.934 E60.14983
G1 X117.865 Y87.234 E60.16835
G1 X117.876 Y87.255 E60.16977
G1 X118.015 Y87.647 E60.19467
G1 X118.024 Y87.663 E60.19577
G1 X118.019 Y87.666 E60.19612
G1 X88.391 Y112.144 E62.49696
G1 X88.353 Y112.177 E62.49997
G1 X88.123 Y112.384 E62.5185
G1 X88.033 Y112.315 E62.52528
G1 X87.845 Y112.205 E62.53833
G1 X87.729 Y112.096 E62.54785
G1 X87.171 Y111.679 E62.58956
