;FLAVOR:Marlin
;TIME:7620
;Filament used: 3.92274m
;Layer height: 0.2
;MINX:70.742
;MINY:72.311
;MINZ:0.3
;MAXX:161.405
;MAXY:159.731
;MAXZ:17.78
;TARGET_MACHINE.NAME:BIQU B1
;Generated with Cura_SteamEngine 5.12.0
                                 ; BIQU B1 Start G-code
M117 Getting the bed up to temp!
M140 S60      ; Set Heat Bed temperature
M190 S60      ; Wait for Heat Bed temperature
M117 Getting the extruder up to temp!
M104 S190    ; Set Extruder temperature
G92 E0                           ; Reset Extruder
M117 Homing axes
G28                              ; Home all axes
M109 S190    ; Wait for Extruder temperature
G1 Z2.0 F3000                    ; Move Z Axis up little to prevent scratching of Heat Bed
G1 X4.1 Y20 Z0.3 F5000.0         ; Move to start position
M117 Purging
G1 X4.1 Y200.0 Z0.3 F1500.0 E15  ; Draw the first line
G1 X4.4 Y200.0 Z0.3 F5000.0      ; Move to side a little
G1 X4.4 Y20 Z0.3 F1500.0 E30     ; Draw the second line
G92 E0                           ; Reset Extruder
M117 Lets make
G1 Z2.0 F3000                    ; Move Z Axis up little to prevent scratching of Heat Bed
G1 X5 Y20 Z0.3 F5000.0           ; Move over to prevent blob squish
M82 ;absolute extrusion mode
G92 E0
G92 E0
G1 F3600 E-4
;LAYER_COUNT:88
;LAYER:0
M107
G0 F4800 X76.986 Y97.628 Z0.3
;TYPE:SKIRT
G1 F3600 E0
G1 F600 X77.593 Y97.183 E0.04506
G1 X78.999 Y96.236 E0.14655
G1 X81.059 Y94.789 E0.29726
G1 X83.05 Y93.303 E0.446
G1 X85.061 Y91.713 E0.59948
G1 X86.962 Y90.121 E0.74793
G1 X88.848 Y88.448 E0.89886
G1 X90.647 Y86.76 E1.04655
G1 X92.618 Y84.799 E1.213
G1 X93.183 Y84.223 E1.26131
G1 X93.885 Y83.583 E1.31818
G1 X94.772 Y82.911 E1.3848
G1 X96.979 Y81.445 E1.54343
G1 X99.009 Y80.014 E1.69212
G1 X101.047 Y78.489 E1.84451
G1 X102.995 Y76.944 E1.99336
G1 X104.958 Y75.308 E2.14634
G1 X105.579 Y74.834 E2.19311
G1 X106.485 Y74.26 E2.25732
G1 X107.289 Y73.845 E2.31149
G1 X108.505 Y73.364 E2.38978
G1 X109.506 Y73.061 E2.45239
G1 X110.234 Y72.857 E2.49766
G1 X111.078 Y72.637 E2.54987
G1 X112.049 Y72.442 E2.60917
G1 X113.029 Y72.335 E2.66819
G1 X113.898 Y72.311 E2.72023
G1 X115.272 Y72.393 E2.80264
G1 X115.954 Y72.494 E2.84391
G1 X117.144 Y72.767 E2.91701
G1 X118.176 Y73.055 E2.98115
G1 X119.059 Y73.315 E3.03626
G1 X119.914 Y73.61 E3.09041
G1 X120.895 Y74.049 E3.15475
G1 X121.721 Y74.512 E3.21144
G1 X122.539 Y75.069 E3.27069
G1 X123.331 Y75.718 E3.33199
G1 X123.848 Y76.216 E3.37497
G1 X124.466 Y76.85 E3.42797
G1 X125.406 Y77.856 E3.5104
G1 X125.492 Y77.978 E3.51934
G1 X126.003 Y78.561 E3.56575
G1 X126.619 Y79.354 E3.62587
G1 X127.306 Y80.264 E3.69413
G1 X129.557 Y83.042 E3.90819
G1 X130.155 Y83.755 E3.9639
G1 X152.938 Y111.327 E6.10521
G1 X154.055 Y112.719 E6.21206
G1 X154.592 Y113.406 E6.26426
G1 X156.2 Y115.354 E6.41549
G1 X157.183 Y116.465 E6.5043
G1 X157.339 Y116.658 E6.51915
G1 X158.148 Y117.588 E6.59295
G1 X158.464 Y117.969 E6.62258
G1 X158.998 Y118.7 E6.67678
G1 X159.551 Y119.62 E6.74104
G1 X159.983 Y120.512 E6.80038
G1 X160.312 Y121.375 E6.85567
G1 X160.603 Y122.306 E6.91407
G1 X161.013 Y123.752 E7.00405
G1 X161.18 Y124.454 E7.04725
G1 X161.337 Y125.43 E7.10643
G1 X161.405 Y126.333 E7.16065
G1 X161.391 Y127.396 E7.22429
G1 X161.321 Y128.156 E7.26999
G1 X161.214 Y128.869 E7.31315
G1 X161.05 Y129.629 E7.3597
G1 X160.682 Y131.019 E7.44578
G1 X160.413 Y131.931 E7.50271
G1 X160.119 Y132.787 E7.55689
G1 X159.68 Y133.769 E7.62129
G1 X159.217 Y134.595 E7.67798
G1 X158.625 Y135.462 E7.74083
G1 X157.738 Y136.502 E7.82267
G1 X156.845 Y137.415 E7.89912
G1 X156.229 Y138.014 E7.95056
G1 X155.835 Y138.378 E7.98268
G1 X153.289 Y140.522 E8.18195
G1 X152.816 Y140.931 E8.21938
G1 X152.484 Y141.184 E8.24437
G1 X152.374 Y141.293 E8.25365
G1 X150.688 Y142.601 E8.3814
G1 X148.727 Y144.186 E8.53235
G1 X147.323 Y145.38 E8.64269
G1 X146.436 Y146.148 E8.71294
G1 X146.078 Y146.446 E8.74082
G1 X145.397 Y146.972 E8.79234
G1 X144.176 Y147.889 E8.88376
G1 X142.178 Y149.477 E9.03655
G1 X140.269 Y151.085 E9.18598
G1 X138.39 Y152.761 E9.33672
G1 X136.549 Y154.5 E9.48834
G1 X134.955 Y156.054 E9.62161
G1 X134.331 Y156.621 E9.67209
G1 X133.612 Y157.17 E9.72625
G1 X132.706 Y157.744 E9.79046
G1 X131.902 Y158.159 E9.84463
G1 X130.923 Y158.559 E9.90794
G1 X130.364 Y158.742 E9.94315
G1 X129.028 Y159.131 E10.02646
G1 X128.141 Y159.366 E10.0814
G1 X127.175 Y159.573 E10.14054
G1 X126.195 Y159.696 E10.19967
G1 X125.32 Y159.731 E10.2521
G1 X125.007 Y159.726 E10.27084
G1 X124.303 Y159.69 E10.31304
G1 X123.358 Y159.578 E10.37001
G1 X122.173 Y159.321 E10.44261
G1 X121.221 Y159.056 E10.50177
G1 X117.841 Y158.058 E10.71276
G1 X115.431 Y157.428 E10.86189
G1 X112.942 Y156.848 E11.01489
G1 X110.471 Y156.349 E11.16582
G1 X108.026 Y155.925 E11.31438
G1 X105.542 Y155.566 E11.46464
G1 X103.03 Y155.274 E11.61604
G1 X101.798 Y155.147 E11.69019
G1 X100.832 Y154.995 E11.74873
G1 X100.139 Y154.832 E11.79135
G1 X98.98 Y154.519 E11.86322
G1 X97.89 Y154.189 E11.93141
G1 X96.999 Y153.868 E11.9881
G1 X96.139 Y153.473 E12.04476
G1 X95.204 Y152.937 E12.10928
G1 X94.39 Y152.364 E12.16888
G1 X93.575 Y151.671 E12.23293
G1 X93.221 Y151.336 E12.26211
G1 X92.46 Y150.579 E12.32637
G1 X91.742 Y149.839 E12.3881
G1 X91.106 Y149.096 E12.44665
G1 X90.502 Y148.245 E12.50913
G1 X89.876 Y147.141 E12.58511
G1 X89.48 Y146.246 E12.6437
G1 X88.54 Y143.768 E12.80237
G1 X87.606 Y141.493 E12.9496
G1 X86.567 Y139.153 E13.10288
G1 X85.485 Y136.89 E13.25305
G1 X84.352 Y134.685 E13.40147
G1 X83.122 Y132.448 E13.5543
G1 X81.88 Y130.333 E13.70114
G1 X80.513 Y128.149 E13.8554
G1 X79.153 Y126.107 E14.00228
G1 X77.663 Y124.002 E14.15668
G1 X76.191 Y122.041 E14.30348
G1 X74.533 Y119.959 E14.46282
G1 X73.806 Y119.072 E14.53148
G1 X73.412 Y118.563 E14.57001
G1 X72.846 Y117.707 E14.63145
G1 X72.446 Y116.974 E14.68144
G1 X72.048 Y116.08 E14.74003
G1 X71.823 Y115.461 E14.77946
G1 X71.676 Y115.002 E14.80831
G1 X71.317 Y113.786 E14.88422
G1 X71.152 Y113.188 E14.92136
G1 X71.026 Y112.686 E14.95234
G1 X70.844 Y111.682 E15.01343
G1 X70.755 Y110.714 E15.07163
G1 X70.742 Y110.168 E15.10433
G1 X70.788 Y109.158 E15.16486
G1 X70.865 Y108.521 E15.20327
G1 X71.029 Y107.555 E15.26193
G1 X71.228 Y106.7 E15.31448
G1 X71.629 Y105.278 E15.40294
G1 X71.86 Y104.53 E15.44981
G1 X72.195 Y103.599 E15.50904
G1 X72.611 Y102.703 E15.56818
G1 X73.059 Y101.917 E15.62235
G1 X73.619 Y101.105 E15.6814
G1 X74.134 Y100.472 E15.73025
G1 X74.424 Y100.148 E15.75629
G1 X75.376 Y99.137 E15.83942
G1 X75.914 Y98.587 E15.88549
G1 X76.271 Y98.24 E15.91529
G1 X76.986 Y97.628 E15.97164
G0 F4800 X77.298 Y97.993
G1 F600 X77.861 Y97.581 E16.0134
G1 X79.275 Y96.629 E16.11546
G1 X81.335 Y95.182 E16.26617
G1 X83.348 Y93.68 E16.41653
G1 X85.359 Y92.09 E16.57001
G1 X87.281 Y90.48 E16.72012
G1 X89.167 Y88.807 E16.87105
G1 X90.986 Y87.1 E17.02039
G1 X92.957 Y85.139 E17.18685
G1 X93.506 Y84.578 E17.23384
G1 X94.208 Y83.938 E17.29071
G1 X95.038 Y83.311 E17.35299
G1 X97.245 Y81.844 E17.51164
G1 X99.297 Y80.398 E17.66193
G1 X101.335 Y78.873 E17.81432
G1 X103.302 Y77.313 E17.96462
G1 X105.249 Y75.69 E18.11637
G1 X105.87 Y75.216 E18.16314
G1 X106.705 Y74.687 E18.22232
G1 X107.509 Y74.272 E18.27649
G1 X108.644 Y73.823 E18.34956
G1 X109.636 Y73.523 E18.41161
G1 X110.355 Y73.321 E18.45632
G1 X111.173 Y73.107 E18.50694
G1 X112.102 Y72.919 E18.56369
G1 X113.042 Y72.815 E18.6203
G1 X113.911 Y72.791 E18.67235
G1 X115.203 Y72.868 E18.74984
G1 X115.847 Y72.962 E18.7888
G1 X117.015 Y73.229 E18.86053
G1 X118.04 Y73.515 E18.92424
G1 X118.902 Y73.769 E18.97804
G1 X119.757 Y74.064 E19.03219
G1 X120.66 Y74.468 E19.09141
G1 X121.486 Y74.931 E19.1481
G1 X122.268 Y75.465 E19.20479
G1 X122.998 Y76.064 E19.26133
G1 X123.504 Y76.551 E19.30337
G1 X124.115 Y77.178 E19.35579
G1 X125.055 Y78.184 E19.43821
G1 X125.104 Y78.265 E19.44388
G1 X125.642 Y78.878 E19.49271
G1 X126.236 Y79.643 E19.55069
G1 X126.933 Y80.566 E19.61994
G1 X129.189 Y83.351 E19.83451
G1 X129.785 Y84.061 E19.89001
G1 X152.564 Y111.628 E22.03094
G1 X153.677 Y113.014 E22.13736
G1 X154.222 Y113.712 E22.19037
G1 X155.83 Y115.66 E22.3416
G1 X156.809 Y116.766 E22.43002
G1 X156.967 Y116.962 E22.4451
G1 X157.779 Y117.894 E22.5191
G1 X158.076 Y118.252 E22.54695
G1 X158.61 Y118.983 E22.60115
G1 X159.119 Y119.83 E22.66031
G1 X159.534 Y120.683 E22.7171
G1 X159.863 Y121.546 E22.77239
G1 X160.141 Y122.437 E22.82827
G1 X160.546 Y123.864 E22.91708
G1 X160.706 Y124.531 E22.95814
G1 X160.858 Y125.466 E23.01485
G1 X160.926 Y126.369 E23.06907
G1 X160.913 Y127.352 E23.12792
G1 X160.846 Y128.085 E23.17199
G1 X160.739 Y128.798 E23.21515
G1 X160.586 Y129.506 E23.25852
G1 X160.221 Y130.884 E23.34386
G1 X159.959 Y131.775 E23.39946
G1 X159.665 Y132.631 E23.45365
G1 X159.261 Y133.535 E23.51293
G1 X158.82 Y134.325 E23.56709
G1 X158.259 Y135.151 E23.62687
G1 X157.395 Y136.166 E23.70667
G1 X156.51 Y137.071 E23.78245
G1 X155.903 Y137.661 E23.83313
G1 X155.509 Y138.025 E23.86524
G1 X152.98 Y140.155 E24.0632
G1 X152.525 Y140.549 E24.09923
G1 X152.159 Y140.828 E24.12678
G1 X152.08 Y140.913 E24.13373
G1 X151.05 Y141.71 E24.2117
G1 X150.931 Y141.811 E24.22104
G1 X150.396 Y142.22 E24.26136
G1 X148.416 Y143.82 E24.41377
G1 X147.012 Y145.014 E24.52411
G1 X146.129 Y145.779 E24.59405
G1 X145.784 Y146.066 E24.62092
G1 X145.109 Y146.588 E24.672
G1 X143.877 Y147.513 E24.76423
G1 X141.879 Y149.101 E24.91703
G1 X139.949 Y150.727 E25.06812
G1 X138.07 Y152.403 E25.21886
G1 X136.219 Y154.151 E25.37128
G1 X134.632 Y155.699 E25.504
G1 X134.04 Y156.239 E25.55197
G1 X133.321 Y156.788 E25.60613
G1 X132.486 Y157.317 E25.66531
G1 X131.682 Y157.732 E25.71948
G1 X130.773 Y158.103 E25.77826
G1 X130.23 Y158.281 E25.81247
G1 X128.905 Y158.667 E25.89509
G1 X128.04 Y158.897 E25.94867
G1 X127.115 Y159.097 E26.00533
G1 X126.176 Y159.216 E26.062
G1 X125.301 Y159.251 E26.11443
G1 X125.031 Y159.247 E26.13059
G1 X124.359 Y159.213 E26.17087
G1 X123.414 Y159.101 E26.22785
G1 X122.301 Y158.858 E26.29605
G1 X121.357 Y158.596 E26.3547
G1 X117.963 Y157.594 E26.56656
G1 X115.54 Y156.96 E26.71651
G1 X113.051 Y156.381 E26.8695
G1 X110.553 Y155.876 E27.02207
G1 X108.104 Y155.451 E27.17088
G1 X105.597 Y155.089 E27.32253
G1 X103.085 Y154.798 E27.47392
G1 X101.872 Y154.673 E27.54693
G1 X100.942 Y154.528 E27.60328
G1 X100.264 Y154.369 E27.64497
G1 X99.119 Y154.06 E27.71597
G1 X98.053 Y153.737 E27.78266
G1 X97.162 Y153.416 E27.83936
G1 X96.34 Y153.037 E27.89355
G1 X95.48 Y152.544 E27.95289
G1 X94.666 Y151.971 E28.01249
G1 X93.905 Y151.323 E28.07233
G1 X93.56 Y150.996 E28.10079
G1 X92.804 Y150.244 E28.16463
G1 X92.107 Y149.527 E28.22449
G1 X91.471 Y148.784 E28.28304
G1 X90.919 Y148.007 E28.34011
G1 X90.315 Y146.947 E28.41315
G1 X89.929 Y146.076 E28.47018
G1 X88.989 Y143.598 E28.62885
G1 X88.045 Y141.298 E28.77769
G1 X87.006 Y138.958 E28.93097
G1 X85.918 Y136.683 E29.08195
G1 X84.773 Y134.454 E29.23197
G1 X83.543 Y132.217 E29.38481
G1 X82.287 Y130.078 E29.53331
G1 X80.92 Y127.894 E29.68756
G1 X79.545 Y125.83 E29.83604
G1 X78.055 Y123.725 E29.99044
G1 X76.575 Y121.753 E30.13805
G1 X74.908 Y119.66 E30.29824
G1 X74.177 Y118.768 E30.36729
G1 X74.16 Y118.735 E30.36951
G1 X73.812 Y118.298 E30.40295
G1 X73.267 Y117.476 E30.462
G1 X72.885 Y116.779 E30.50958
G1 X72.487 Y115.885 E30.56817
G1 X72.28 Y115.314 E30.60453
G1 X72.136 Y114.866 E30.6327
G1 X71.78 Y113.659 E30.70804
G1 X71.618 Y113.071 E30.74456
G1 X71.492 Y112.569 E30.77554
G1 X71.322 Y111.637 E30.83226
G1 X71.235 Y110.703 E30.88842
G1 X71.222 Y110.157 E30.92112
G1 X71.265 Y109.216 E30.97751
G1 X71.342 Y108.579 E31.01592
G1 X71.497 Y107.663 E31.07154
G1 X71.69 Y106.83 E31.12273
G1 X72.088 Y105.419 E31.2105
G1 X72.312 Y104.692 E31.25605
G1 X72.631 Y103.8 E31.31276
G1 X73.028 Y102.941 E31.36942
G1 X73.476 Y102.155 E31.42358
G1 X73.991 Y101.408 E31.4779
G1 X74.492 Y100.792 E31.52544
G1 X74.773 Y100.477 E31.55071
G1 X75.719 Y99.473 E31.63329
G1 X76.249 Y98.931 E31.67868
G1 X76.583 Y98.605 E31.70662
G1 X77.298 Y97.993 E31.76296
G0 F4800 X77.582 Y98.38
G1 F600 X78.129 Y97.979 E31.80357
G1 X79.551 Y97.022 E31.90619
G1 X81.611 Y95.575 E32.0569
G1 X83.646 Y94.057 E32.20889
G1 X85.657 Y92.467 E32.36237
G1 X87.6 Y90.839 E32.51413
G1 X89.486 Y89.166 E32.66507
G1 X91.325 Y87.44 E32.81606
G1 X93.296 Y85.479 E32.98252
G1 X93.83 Y84.932 E33.02828
G1 X94.498 Y84.321 E33.08248
G1 X95.304 Y83.711 E33.14299
G1 X97.511 Y82.243 E33.30168
G1 X99.585 Y80.782 E33.45356
G1 X101.623 Y79.257 E33.60595
G1 X103.609 Y77.682 E33.7577
G1 X105.54 Y76.072 E33.90822
G1 X106.161 Y75.598 E33.95499
G1 X106.925 Y75.114 E34.00914
G1 X107.729 Y74.699 E34.0633
G1 X108.783 Y74.282 E34.13116
G1 X109.766 Y73.985 E34.19264
G1 X110.477 Y73.785 E34.23686
G1 X111.269 Y73.577 E34.28588
G1 X112.156 Y73.396 E34.34008
G1 X113.055 Y73.295 E34.39424
G1 X113.924 Y73.271 E34.44629
G1 X115.134 Y73.343 E34.51886
G1 X115.744 Y73.431 E34.55575
G1 X116.886 Y73.691 E34.62587
G1 X117.904 Y73.975 E34.68915
G1 X118.745 Y74.223 E34.74164
G1 X119.6 Y74.518 E34.79579
G1 X120.426 Y74.887 E34.84995
G1 X121.216 Y75.328 E34.90411
G1 X121.964 Y75.837 E34.95828
G1 X122.665 Y76.41 E35.01248
G1 X123.16 Y76.886 E35.0536
G1 X123.764 Y77.506 E35.10542
G1 X124.704 Y78.512 E35.18785
G1 X124.692 Y78.523 E35.18882
G1 X125.263 Y79.172 E35.24057
G1 X125.853 Y79.932 E35.29817
G1 X126.56 Y80.868 E35.3684
G1 X128.821 Y83.66 E35.58349
G1 X129.415 Y84.367 E35.63877
G1 X152.19 Y111.929 E37.77931
G1 X153.299 Y113.309 E37.8853
G1 X153.852 Y114.018 E37.93913
G1 X155.46 Y115.966 E38.09036
G1 X156.436 Y117.068 E38.17849
G1 X156.605 Y117.277 E38.19458
G1 X157.41 Y118.201 E38.26795
G1 X157.688 Y118.535 E38.29396
G1 X158.222 Y119.266 E38.34816
G1 X158.688 Y120.041 E38.4023
G1 X159.085 Y120.854 E38.45646
G1 X159.414 Y121.717 E38.51176
G1 X159.679 Y122.568 E38.56512
G1 X160.079 Y123.977 E38.65281
G1 X160.232 Y124.609 E38.69174
G1 X160.379 Y125.502 E38.74592
G1 X160.447 Y126.405 E38.80013
G1 X160.435 Y127.309 E38.85426
G1 X160.371 Y128.014 E38.89664
G1 X160.264 Y128.727 E38.9398
G1 X160.122 Y129.383 E38.97999
G1 X159.761 Y130.749 E39.06457
G1 X159.505 Y131.619 E39.11887
G1 X159.211 Y132.475 E39.17305
G1 X158.842 Y133.301 E39.22721
G1 X158.401 Y134.091 E39.28138
G1 X157.893 Y134.84 E39.33556
G1 X157.052 Y135.83 E39.41333
G1 X156.175 Y136.727 E39.48843
G1 X155.577 Y137.309 E39.53839
G1 X155.2 Y137.658 E39.56915
G1 X152.671 Y139.788 E39.7671
G1 X152.234 Y140.167 E39.80173
G1 X151.774 Y140.517 E39.83634
G1 X151.786 Y140.533 E39.83753
G1 X150.756 Y141.33 E39.9155
G1 X150.639 Y141.43 E39.92472
G1 X150.104 Y141.839 E39.96504
G1 X148.105 Y143.454 E40.11889
G1 X146.701 Y144.648 E40.22923
G1 X145.822 Y145.41 E40.29887
G1 X145.49 Y145.686 E40.32472
G1 X144.821 Y146.204 E40.37538
G1 X143.578 Y147.137 E40.46842
G1 X141.58 Y148.725 E40.62122
G1 X139.629 Y150.369 E40.77396
G1 X137.75 Y152.045 E40.9247
G1 X135.889 Y153.802 E41.07793
G1 X134.308 Y155.345 E41.21019
G1 X133.749 Y155.857 E41.25557
G1 X133.03 Y156.406 E41.30973
G1 X132.266 Y156.89 E41.36387
G1 X131.462 Y157.305 E41.41804
G1 X130.624 Y157.647 E41.47223
G1 X130.096 Y157.82 E41.50549
G1 X128.781 Y158.203 E41.58749
G1 X127.938 Y158.428 E41.63972
G1 X127.054 Y158.621 E41.69389
G1 X126.156 Y158.736 E41.7481
G1 X125.307 Y158.771 E41.79897
G1 X125.055 Y158.768 E41.81405
G1 X124.414 Y158.736 E41.85248
G1 X123.516 Y158.632 E41.9066
G1 X122.429 Y158.395 E41.9732
G1 X121.493 Y158.136 E42.03135
G1 X118.085 Y157.13 E42.24408
G1 X115.649 Y156.492 E42.39484
G1 X113.16 Y155.914 E42.54782
G1 X110.635 Y155.403 E42.70205
G1 X108.182 Y154.977 E42.8511
G1 X105.652 Y154.612 E43.00414
G1 X103.14 Y154.322 E43.15553
G1 X101.945 Y154.199 E43.22745
G1 X101.051 Y154.061 E43.2816
G1 X100.389 Y153.906 E43.32231
G1 X99.258 Y153.601 E43.39244
G1 X98.215 Y153.285 E43.45768
G1 X97.363 Y152.98 E43.51186
G1 X96.541 Y152.601 E43.56605
G1 X95.756 Y152.151 E43.62022
G1 X94.942 Y151.578 E43.67982
G1 X94.235 Y150.975 E43.73545
G1 X93.899 Y150.656 E43.76319
G1 X93.148 Y149.909 E43.8266
G1 X92.451 Y149.192 E43.88647
G1 X91.862 Y148.505 E43.94064
G1 X91.336 Y147.769 E43.9948
G1 X90.754 Y146.752 E44.06495
G1 X90.378 Y145.906 E44.12038
G1 X89.438 Y143.428 E44.27905
G1 X88.484 Y141.103 E44.4295
G1 X87.445 Y138.763 E44.58278
G1 X86.351 Y136.476 E44.73456
