;FLAVOR:Marlin
;TIME:6401
;Filament used: 3.38229m
;Layer height: 0.2
;MINX:89.66
;MINY:76.874
;MINZ:0.3
;MAXX:161.491
;MAXY:158.086
;MAXZ:17.78
;TARGET_MACHINE.NAME:BIQU B1
;Generated with Cura_SteamEngine 5.12.0
                                 ; BIQU B1 Start G-code
M117 Getting the bed up to temp!
M140 S60      ; Set Heat Bed temperature
M190 S60      ; Wait for Heat Bed temperature
M117 Getting the extruder up to temp!
M104 S190    ; Set Extruder temperature
G92 E0                           ; Reset Extruder
M117 Homing axes
G28                              ; Home all axes
M109 S190    ; Wait for Extruder temperature
G1 Z2.0 F3000                    ; Move Z Axis up little to prevent scratching of Heat Bed
G1 X4.1 Y20 Z0.3 F5000.0         ; Move to start position
M117 Purging
G1 X4.1 Y200.0 Z0.3 F1500.0 E15  ; Draw the first line
G1 X4.4 Y200.0 Z0.3 F5000.0      ; Move to side a little
G1 X4.4 Y20 Z0.3 F1500.0 E30     ; Draw the second line
G92 E0                           ; Reset Extruder
M117 Lets make
G1 Z2.0 F3000                    ; Move Z Axis up little to prevent scratching of Heat Bed
G1 X5 Y20 Z0.3 F5000.0           ; Move over to prevent blob squish
M82 ;absolute extrusion mode
G92 E0
G92 E0
G1 F3600 E-4
;LAYER_COUNT:88
;LAYER:0
M107
G0 F4800 X93.383 Y82.596 Z0.3
;TYPE:SKIRT
G1 F3600 E0
G1 F600 X93.691 Y82.255 E0.02751
G1 X94.611 Y81.279 E0.10781
G1 X95.232 Y80.647 E0.16085
G1 X95.965 Y79.981 E0.22015
G1 X96.684 Y79.432 E0.27431
G1 X97.59 Y78.858 E0.33852
G1 X98.394 Y78.443 E0.39268
G1 X99.374 Y78.043 E0.45605
G1 X99.946 Y77.856 E0.49208
G1 X101.269 Y77.473 E0.57454
G1 X102.162 Y77.237 E0.62984
G1 X103.087 Y77.037 E0.68649
G1 X104.112 Y76.908 E0.74834
G1 X105.016 Y76.874 E0.8025
G1 X105.991 Y76.92 E0.86094
G1 X106.539 Y76.98 E0.89394
G1 X107.344 Y77.091 E0.94259
G1 X108.534 Y77.276 E1.01469
G1 X111.042 Y77.585 E1.16598
G1 X113.545 Y77.823 E1.3165
G1 X116.004 Y77.986 E1.46404
G1 X118.595 Y78.084 E1.61927
G1 X121.053 Y78.108 E1.76644
G1 X123.574 Y78.062 E1.91739
G1 X126.085 Y77.946 E2.06788
G1 X128.605 Y77.757 E2.21917
G1 X131.057 Y77.501 E2.36676
G1 X133.715 Y77.148 E2.52729
G1 X134.495 Y77.033 E2.57449
G1 X135.395 Y76.941 E2.62866
G1 X136.471 Y76.927 E2.69308
G1 X137.456 Y77.004 E2.75223
G1 X138.38 Y77.158 E2.80831
G1 X138.906 Y77.281 E2.84065
G1 X140.177 Y77.618 E2.91937
G1 X141.052 Y77.876 E2.97399
G1 X141.908 Y78.171 E3.02819
G1 X142.874 Y78.6 E3.09147
G1 X143.349 Y78.853 E3.12369
G1 X144.244 Y79.415 E3.18696
G1 X144.999 Y79.988 E3.24371
G1 X145.764 Y80.682 E3.30554
G1 X146.465 Y81.392 E3.36528
G1 X147.575 Y82.581 E3.46266
G1 X148.184 Y83.306 E3.51934
G1 X148.769 Y84.142 E3.58043
G1 X149.119 Y84.733 E3.62155
G1 X149.421 Y85.296 E3.6598
G1 X150.362 Y87.125 E3.78294
G1 X151.547 Y89.276 E3.92997
G1 X152.812 Y91.427 E4.07936
G1 X154.178 Y93.605 E4.23328
G1 X155.553 Y95.664 E4.38151
G1 X157.023 Y97.738 E4.5337
G1 X158.692 Y99.954 E4.69979
G1 X159.236 Y100.729 E4.75647
G1 X159.733 Y101.584 E4.81568
G1 X160.166 Y102.514 E4.8771
G1 X160.445 Y103.269 E4.92528
G1 X160.706 Y104.103 E4.9776
G1 X161.096 Y105.489 E5.0638
G1 X161.281 Y106.282 E5.11255
G1 X161.424 Y107.223 E5.16954
G1 X161.491 Y108.479 E5.24484
G1 X161.451 Y109.383 E5.29901
G1 X161.311 Y110.436 E5.36261
G1 X161.174 Y111.084 E5.40226
G1 X161.058 Y111.548 E5.43089
G1 X160.762 Y112.614 E5.49713
G1 X160.538 Y113.374 E5.54456
G1 X160.229 Y114.268 E5.60119
G1 X159.857 Y115.115 E5.65657
G1 X159.447 Y115.949 E5.71221
G1 X158.341 Y118.282 E5.86678
G1 X157.334 Y120.578 E6.01688
G1 X156.389 Y122.903 E6.16713
G1 X155.511 Y125.252 E6.31727
G1 X154.688 Y127.658 E6.4695
G1 X153.948 Y130.041 E6.61889
G1 X153.282 Y132.426 E6.76714
G1 X152.666 Y134.895 E6.91948
G1 X152.127 Y137.353 E7.07014
G1 X151.841 Y138.774 E7.15692
G1 X151.589 Y139.764 E7.21808
G1 X151.386 Y140.375 E7.25662
G1 X151.07 Y141.219 E7.31058
G1 X150.529 Y142.537 E7.39587
G1 X149.627 Y144.849 E7.54445
G1 X148.751 Y147.293 E7.69988
G1 X148.341 Y148.518 E7.77722
G1 X147.983 Y149.44 E7.83643
G1 X147.545 Y150.327 E7.89565
G1 X147.054 Y151.138 E7.95241
G1 X146.469 Y151.936 E8.01165
G1 X145.774 Y152.726 E8.07464
G1 X144.828 Y153.691 E8.15555
G1 X143.966 Y154.527 E8.22744
G1 X143.415 Y155.011 E8.27134
G1 X142.696 Y155.56 E8.3255
G1 X141.79 Y156.134 E8.38971
G1 X140.986 Y156.549 E8.44388
G1 X140.006 Y156.949 E8.50725
G1 X139.435 Y157.136 E8.54322
G1 X138.242 Y157.484 E8.61762
G1 X137.362 Y157.717 E8.67212
G1 X136.314 Y157.94 E8.73627
G1 X135.416 Y158.049 E8.79042
G1 X134.286 Y158.083 E8.85811
G1 X131.596 Y158.054 E9.01916
G1 X129.288 Y158.086 E9.15735
G1 X128.463 Y158.056 E9.20677
G1 X125.666 Y157.866 E9.37461
G1 X123.567 Y157.769 E9.50041
G1 X121.022 Y157.601 E9.6531
G1 X118.454 Y157.503 E9.80696
G1 X115.936 Y157.478 E9.95771
G1 X113.444 Y157.525 E10.10693
G1 X110.945 Y157.642 E10.25671
G1 X108.424 Y157.831 E10.40806
G1 X107.031 Y157.976 E10.4919
G1 X106.131 Y158.055 E10.54599
G1 X105.227 Y158.084 E10.60014
G1 X104.156 Y158.024 E10.66436
G1 X103.225 Y157.888 E10.72069
G1 X102.534 Y157.734 E10.76307
G1 X102.037 Y157.604 E10.79383
G1 X101.03 Y157.312 E10.8566
G1 X100.125 Y157.032 E10.91332
G1 X99.18 Y156.669 E10.97392
G1 X98.292 Y156.235 E11.03309
G1 X97.409 Y155.7 E11.0949
G1 X96.605 Y155.107 E11.15471
G1 X96.116 Y154.67 E11.19398
G1 X96.007 Y154.589 E11.20211
G1 X95.657 Y154.258 E11.23095
G1 X94.682 Y153.289 E11.31324
G1 X94.062 Y152.647 E11.36668
G1 X93.489 Y152.015 E11.41775
G1 X92.94 Y151.296 E11.47191
G1 X92.366 Y150.389 E11.53617
G1 X91.917 Y149.512 E11.59515
G1 X91.603 Y148.75 E11.64449
G1 X91.327 Y147.93 E11.69629
G1 X91.001 Y146.83 E11.76498
G1 X90.776 Y146.022 E11.81519
G1 X90.559 Y145.065 E11.87394
G1 X90.452 Y144.334 E11.91817
G1 X90.137 Y140.678 E12.13786
G1 X89.745 Y137.347 E12.33866
G1 X89.697 Y136.553 E12.38628
G1 X89.673 Y136.404 E12.39532
G1 X89.66 Y135.936 E12.42334
G1 X89.66 Y99.515 E14.60381
G1 X89.67 Y98.779 E14.64787
G1 X89.696 Y98.176 E14.68401
G1 X89.842 Y96.317 E14.79564
G1 X89.984 Y93.794 E14.94693
G1 X90.027 Y92.184 E15.04335
G1 X90.06 Y91.358 E15.09284
G1 X90.15 Y90.329 E15.15468
G1 X90.32 Y89.371 E15.21293
G1 X90.452 Y88.843 E15.24552
G1 X90.817 Y87.544 E15.3263
G1 X91.081 Y86.689 E15.37987
G1 X91.416 Y85.756 E15.43922
G1 X91.832 Y84.86 E15.49836
G1 X92.28 Y84.074 E15.55252
G1 X92.889 Y83.199 E15.61635
G1 X93.383 Y82.596 E15.66302
G0 F4800 X93.74 Y82.917
G1 F600 X94.04 Y82.584 E15.68985
G1 X94.954 Y81.615 E15.7696
G1 X95.555 Y81.002 E15.82099
G1 X96.256 Y80.363 E15.87778
G1 X96.975 Y79.814 E15.93194
G1 X97.81 Y79.285 E15.99111
G1 X98.614 Y78.87 E16.04528
G1 X99.523 Y78.499 E16.10406
G1 X100.079 Y78.317 E16.13909
G1 X101.392 Y77.937 E16.22092
G1 X102.264 Y77.706 E16.27492
G1 X103.148 Y77.513 E16.32909
G1 X104.13 Y77.388 E16.38836
G1 X105.034 Y77.354 E16.44252
G1 X105.938 Y77.397 E16.4967
G1 X106.473 Y77.456 E16.52892
G1 X107.278 Y77.567 E16.57757
G1 X108.47 Y77.751 E16.64978
G1 X110.997 Y78.063 E16.80222
G1 X113.505 Y78.301 E16.95304
G1 X115.986 Y78.466 E17.1019
G1 X118.577 Y78.564 E17.25713
G1 X121.057 Y78.588 E17.40561
G1 X123.583 Y78.542 E17.55687
G1 X126.121 Y78.424 E17.70898
G1 X128.641 Y78.235 E17.86027
G1 X131.12 Y77.977 E18.00948
G1 X133.778 Y77.624 E18.17001
G1 X134.544 Y77.511 E18.21636
G1 X135.444 Y77.419 E18.27053
G1 X136.434 Y77.406 E18.3298
G1 X137.378 Y77.478 E18.38648
G1 X138.271 Y77.626 E18.44067
G1 X138.783 Y77.745 E18.47214
G1 X140.041 Y78.078 E18.55005
G1 X140.896 Y78.33 E18.60342
G1 X141.752 Y78.625 E18.65762
G1 X142.648 Y79.024 E18.71634
G1 X143.123 Y79.277 E18.74856
G1 X143.954 Y79.798 E18.80728
G1 X144.676 Y80.344 E18.86147
G1 X145.441 Y81.038 E18.92331
G1 X146.114 Y81.72 E18.98067
G1 X147.207 Y82.89 E19.07653
G1 X147.816 Y83.615 E19.13321
G1 X148.356 Y84.387 E19.18962
G1 X148.696 Y84.96 E19.22951
G1 X148.994 Y85.516 E19.26727
G1 X149.935 Y87.345 E19.39041
G1 X151.133 Y89.519 E19.53902
G1 X152.405 Y91.682 E19.68925
G1 X153.779 Y93.872 E19.84403
G1 X155.161 Y95.942 E19.99304
G1 X156.631 Y98.016 E20.14523
G1 X158.299 Y100.23 E20.31118
G1 X158.843 Y101.005 E20.36787
G1 X159.318 Y101.825 E20.4246
G1 X159.716 Y102.681 E20.48112
G1 X159.987 Y103.413 E20.52785
G1 X160.244 Y104.233 E20.5793
G1 X160.629 Y105.598 E20.66421
G1 X160.806 Y106.354 E20.71069
G1 X160.949 Y107.295 E20.76767
G1 X161.011 Y108.458 E20.8374
G1 X160.971 Y109.362 E20.89157
G1 X160.841 Y110.337 E20.95046
G1 X160.708 Y110.968 E20.98907
G1 X160.595 Y111.42 E21.01696
G1 X160.302 Y112.478 E21.08269
G1 X160.084 Y113.217 E21.12881
G1 X159.775 Y114.111 E21.18544
G1 X159.426 Y114.903 E21.23726
G1 X159.016 Y115.737 E21.29289
G1 X157.907 Y118.076 E21.44787
G1 X156.894 Y120.385 E21.59882
G1 X155.944 Y122.722 E21.74985
G1 X155.061 Y125.084 E21.90082
G1 X154.234 Y127.503 E22.05387
G1 X153.49 Y129.899 E22.20407
G1 X152.816 Y132.31 E22.35395
G1 X152.2 Y134.779 E22.50629
G1 X151.658 Y137.25 E22.65774
G1 X151.37 Y138.679 E22.74502
G1 X151.134 Y139.612 E22.80263
G1 X150.936 Y140.207 E22.84018
G1 X150.626 Y141.037 E22.89322
G1 X150.085 Y142.355 E22.97851
G1 X149.18 Y144.674 E23.12755
G1 X148.299 Y147.131 E23.28381
G1 X147.893 Y148.345 E23.36045
G1 X147.552 Y149.228 E23.41712
G1 X147.134 Y150.078 E23.47383
G1 X146.643 Y150.889 E23.53058
G1 X146.108 Y151.619 E23.58477
G1 X145.431 Y152.39 E23.6462
G1 X144.494 Y153.346 E23.72634
G1 X143.632 Y154.182 E23.79823
G1 X143.124 Y154.629 E23.83874
G1 X142.405 Y155.178 E23.8929
G1 X141.57 Y155.707 E23.95207
G1 X140.766 Y156.122 E24.00624
G1 X139.857 Y156.493 E24.06502
G1 X139.301 Y156.675 E24.10005
G1 X138.119 Y157.02 E24.17376
G1 X137.239 Y157.253 E24.22826
G1 X136.256 Y157.463 E24.28844
G1 X135.358 Y157.572 E24.3426
G1 X134.291 Y157.603 E24.4065
G1 X131.594 Y157.574 E24.56798
G1 X129.305 Y157.606 E24.70503
G1 X128.496 Y157.577 E24.75349
G1 X125.685 Y157.386 E24.92217
G1 X124.784 Y157.351 E24.97615
G1 X123.599 Y157.29 E25.04719
G1 X121.04 Y157.121 E25.20073
G1 X118.472 Y157.023 E25.35458
G1 X115.932 Y156.998 E25.50665
G1 X113.435 Y157.045 E25.65617
G1 X110.909 Y157.163 E25.80756
G1 X108.388 Y157.353 E25.95892
G1 X106.989 Y157.498 E26.04312
G1 X106.116 Y157.575 E26.09559
G1 X105.212 Y157.604 E26.14974
G1 X104.225 Y157.549 E26.20892
G1 X103.329 Y157.419 E26.26313
G1 X102.655 Y157.269 E26.30446
G1 X102.171 Y157.143 E26.33441
G1 X101.172 Y156.853 E26.39668
G1 X100.267 Y156.573 E26.4534
G1 X99.353 Y156.221 E26.51204
G1 X98.503 Y155.804 E26.56872
G1 X97.693 Y155.313 E26.62542
G1 X96.925 Y154.749 E26.68247
G1 X96.408 Y154.287 E26.72398
G1 X96.337 Y154.241 E26.72904
G1 X95.995 Y153.917 E26.75725
G1 X95.027 Y152.956 E26.83891
G1 X94.417 Y152.324 E26.8915
G1 X93.871 Y151.724 E26.94006
G1 X93.322 Y151.005 E26.99422
G1 X92.793 Y150.17 E27.0534
G1 X92.361 Y149.329 E27.11
G1 X92.047 Y148.567 E27.15934
G1 X91.787 Y147.794 E27.20817
G1 X91.463 Y146.701 E27.27642
G1 X91.244 Y145.915 E27.32527
G1 X91.034 Y144.995 E27.38176
G1 X90.927 Y144.264 E27.42599
G1 X90.614 Y140.622 E27.64484
G1 X90.222 Y137.291 E27.84564
G1 X90.174 Y136.483 E27.89409
G1 X90.153 Y136.391 E27.89974
G1 X90.14 Y135.923 E27.92777
G1 X90.14 Y99.522 E30.10704
G1 X90.15 Y98.799 E30.15033
G1 X90.175 Y98.213 E30.18544
G1 X90.32 Y96.354 E30.29707
G1 X90.464 Y93.807 E30.4498
G1 X90.507 Y92.203 E30.54587
G1 X90.54 Y91.377 E30.59536
G1 X90.623 Y90.412 E30.65334
G1 X90.786 Y89.487 E30.70957
G1 X90.914 Y88.973 E30.74129
G1 X91.276 Y87.685 E30.82138
G1 X91.533 Y86.85 E30.87369
G1 X91.852 Y85.957 E30.93046
G1 X92.249 Y85.098 E30.98711
G1 X92.697 Y84.312 E31.04128
G1 X93.26 Y83.503 E31.10028
G1 X93.74 Y82.917 E31.14563
G0 F4800 X94.097 Y83.238
G1 F600 X94.389 Y82.913 E31.17179
G1 X95.297 Y81.951 E31.25099
G1 X95.879 Y81.356 E31.30082
G1 X96.547 Y80.745 E31.35501
G1 X97.266 Y80.196 E31.40917
G1 X98.03 Y79.712 E31.46332
G1 X98.834 Y79.297 E31.51749
G1 X99.672 Y78.955 E31.57167
G1 X100.213 Y78.778 E31.60575
G1 X101.515 Y78.401 E31.6869
G1 X102.366 Y78.175 E31.73961
G1 X103.25 Y77.982 E31.79378
G1 X104.148 Y77.868 E31.84798
G1 X105.052 Y77.834 E31.90214
G1 X105.885 Y77.874 E31.95206
G1 X106.407 Y77.932 E31.98351
G1 X107.212 Y78.043 E32.03216
G1 X108.406 Y78.226 E32.10448
G1 X110.952 Y78.541 E32.25806
G1 X113.465 Y78.779 E32.40918
G1 X115.968 Y78.946 E32.55937
G1 X118.559 Y79.044 E32.7146
G1 X121.061 Y79.068 E32.86439
G1 X123.592 Y79.022 E33.01595
G1 X126.157 Y78.902 E33.16968
G1 X128.677 Y78.713 E33.32097
G1 X131.183 Y78.453 E33.4718
G1 X133.841 Y78.1 E33.63233
G1 X134.593 Y77.989 E33.67784
G1 X135.493 Y77.897 E33.732
G1 X136.398 Y77.885 E33.78619
G1 X137.3 Y77.952 E33.84034
G1 X138.193 Y78.1 E33.89453
G1 X138.66 Y78.209 E33.92324
G1 X139.905 Y78.538 E34.00033
G1 X140.74 Y78.784 E34.05245
G1 X141.596 Y79.079 E34.10665
G1 X142.422 Y79.448 E34.16081
G1 X142.897 Y79.701 E34.19303
G1 X143.664 Y80.181 E34.2472
G1 X144.386 Y80.727 E34.3014
G1 X145.099 Y81.375 E34.35908
G1 X145.763 Y82.048 E34.41568
G1 X146.84 Y83.2 E34.51009
G1 X147.423 Y83.891 E34.56422
G1 X147.943 Y84.632 E34.61841
G1 X148.273 Y85.187 E34.65707
G1 X148.567 Y85.736 E34.69435
G1 X149.508 Y87.565 E34.8175
G1 X150.719 Y89.762 E34.96768
G1 X151.998 Y91.937 E35.11874
G1 X153.372 Y94.127 E35.27352
G1 X154.769 Y96.22 E35.42417
G1 X156.239 Y98.294 E35.57637
G1 X157.907 Y100.506 E35.74223
G1 X158.428 Y101.246 E35.79641
G1 X158.883 Y102.028 E35.85057
G1 X159.266 Y102.848 E35.90476
G1 X159.529 Y103.556 E35.94997
G1 X159.782 Y104.364 E36.00066
G1 X160.162 Y105.708 E36.08428
G1 X160.332 Y106.427 E36.12851
G1 X160.47 Y107.321 E36.18267
G1 X160.531 Y108.437 E36.24958
G1 X160.491 Y109.341 E36.30375
G1 X160.371 Y110.238 E36.35793
G1 X160.242 Y110.852 E36.3955
G1 X160.132 Y111.292 E36.42265
G1 X159.841 Y112.343 E36.48794
G1 X159.63 Y113.061 E36.53274
G1 X159.336 Y113.917 E36.58693
G1 X158.995 Y114.691 E36.63756
G1 X158.585 Y115.525 E36.6932
G1 X157.474 Y117.87 E36.84855
G1 X156.449 Y120.204 E37.00116
G1 X155.499 Y122.541 E37.15219
G1 X154.611 Y124.916 E37.30399
G1 X153.78 Y127.348 E37.45786
G1 X153.032 Y129.757 E37.60887
G1 X152.35 Y132.194 E37.76038
G1 X151.734 Y134.663 E37.91272
G1 X151.189 Y137.147 E38.06497
G1 X150.899 Y138.584 E38.15274
G1 X150.678 Y139.461 E38.20688
G1 X150.486 Y140.039 E38.24335
G1 X150.182 Y140.855 E38.29548
G1 X149.641 Y142.173 E38.38078
G1 X148.733 Y144.499 E38.53026
G1 X147.847 Y146.969 E38.68736
G1 X147.445 Y148.173 E38.76336
G1 X147.121 Y149.017 E38.81748
G1 X146.723 Y149.83 E38.87167
G1 X146.256 Y150.605 E38.92584
G1 X145.721 Y151.335 E38.98003
G1 X145.088 Y152.054 E39.03738
G1 X144.16 Y153.002 E39.1168
G1 X143.315 Y153.822 E39.18729
G1 X142.833 Y154.247 E39.22576
G1 X142.114 Y154.796 E39.27992
G1 X141.35 Y155.28 E39.33407
G1 X140.546 Y155.695 E39.38824
G1 X139.708 Y156.037 E39.44242
G1 X139.166 Y156.214 E39.47656
G1 X137.996 Y156.556 E39.54953
G1 X137.138 Y156.784 E39.60268
G1 X136.198 Y156.986 E39.66025
G1 X135.3 Y157.095 E39.7144
G1 X134.296 Y157.123 E39.77453
G1 X131.592 Y157.094 E39.93643
G1 X129.322 Y157.126 E40.07234
G1 X128.529 Y157.098 E40.11985
G1 X125.703 Y156.906 E40.28942
G1 X124.809 Y156.872 E40.34298
G1 X123.631 Y156.811 E40.4136
G1 X121.058 Y156.641 E40.56798
G1 X118.49 Y156.543 E40.72183
G1 X115.928 Y156.518 E40.87522
G1 X113.426 Y156.565 E41.02504
G1 X110.873 Y156.684 E41.17805
G1 X108.352 Y156.875 E41.32941
G1 X106.947 Y157.02 E41.41397
G1 X106.101 Y157.095 E41.46482
G1 X105.197 Y157.124 E41.51897
G1 X104.294 Y157.074 E41.57311
G1 X103.398 Y156.944 E41.62732
G1 X102.776 Y156.805 E41.66547
G1 X102.305 Y156.682 E41.69462
G1 X101.314 Y156.394 E41.7564
G1 X100.409 Y156.114 E41.81311
G1 X99.564 Y155.79 E41.86729
G1 X98.751 Y155.393 E41.92146
G1 X97.976 Y154.925 E41.97566
G1 X97.245 Y154.391 E42.02986
G1 X96.676 Y153.882 E42.07556
G1 X96.667 Y153.892 E42.07637
G1 X96.333 Y153.576 E42.1039
G1 X95.372 Y152.623 E42.18492
G1 X94.771 Y152 E42.23675
G1 X94.253 Y151.433 E42.28273
G1 X93.704 Y150.714 E42.33688
G1 X93.22 Y149.95 E42.39103
G1 X92.805 Y149.146 E42.4452
G1 X92.491 Y148.384 E42.49454
G1 X92.247 Y147.657 E42.54045
G1 X91.925 Y146.572 E42.60821
G1 X91.712 Y145.807 E42.65575
G1 X91.509 Y144.925 E42.70993
G1 X91.402 Y144.194 E42.75416
G1 X91.091 Y140.566 E42.97216
G1 X90.699 Y137.235 E43.17296
G1 X90.648 Y136.377 E43.22442
