;FLAVOR:Marlin
;TIME:19608
;Filament used: 13.7838m
;Layer height: 0.2
;MINX:52.27
;MINY:63.467
;MINZ:0.3
;MAXX:229.689
;MAXY:205.867
;MAXZ:2.94
;TARGET_MACHINE.NAME:BIQU B1
;Generated with Cura_SteamEngine 5.12.0
                                 ; BIQU B1 Start G-code
M117 Getting the bed up to temp!
M140 S60      ; Set Heat Bed temperature
M190 S60      ; Wait for Heat Bed temperature
M117 Getting the extruder up to temp!
M104 S200    ; Set Extruder temperature
G92 E0                           ; Reset Extruder
M117 Homing axes
G28                              ; Home all axes
M109 S200    ; Wait for Extruder temperature
G1 Z2.0 F3000                    ; Move Z Axis up little to prevent scratching of Heat Bed
G1 X4.1 Y20 Z0.3 F5000.0         ; Move to start position
M117 Purging
G1 X4.1 Y200.0 Z0.3 F1500.0 E15  ; Draw the first line
G1 X4.4 Y200.0 Z0.3 F5000.0      ; Move to side a little
G1 X4.4 Y20 Z0.3 F1500.0 E30     ; Draw the second line
G92 E0                           ; Reset Extruder
M117 Lets make
G1 Z2.0 F3000                    ; Move Z Axis up little to prevent scratching of Heat Bed
G1 X5 Y20 Z0.3 F5000.0           ; Move over to prevent blob squish
M82 ;absolute extrusion mode
G92 E0
G92 E0
G1 F3600 E-4
;LAYER_COUNT:12
;LAYER:0
M107
G0 F4800 X56.543 Y65.883 Z0.3
;TYPE:SKIRT
G1 F3600 E0
G1 F600 X57.275 Y65.352 E0.05414
G1 X58.161 Y64.821 E0.11598
G1 X59.091 Y64.373 E0.17778
G1 X60.017 Y64.026 E0.23698
G1 X60.969 Y63.761 E0.29614
G1 X61.859 Y63.594 E0.35036
G1 X63.172 Y63.48 E0.42926
G1 X63.8 Y63.467 E0.46687
G1 X137.964 Y63.468 E4.90693
G1 X138.698 Y63.48 E4.95088
G1 X139.538 Y63.525 E5.00124
G1 X140.435 Y63.645 E5.05542
G1 X141.482 Y63.881 E5.11968
G1 X142.344 Y64.156 E5.17385
G1 X143.335 Y64.573 E5.23822
G1 X144.203 Y65.035 E5.29708
G1 X144.896 Y65.479 E5.34636
G1 X145.645 Y66.018 E5.4016
G1 X224.646 Y125.269 E11.31368
G1 X225.376 Y125.833 E11.3689
G1 X226.129 Y126.475 E11.42815
G1 X226.823 Y127.181 E11.48741
G1 X227.4 Y127.878 E11.54159
G1 X228.009 Y128.761 E11.6058
G1 X228.455 Y129.548 E11.65996
G1 X228.899 Y130.526 E11.72426
G1 X229.2 Y131.38 E11.77847
G1 X229.465 Y132.423 E11.8429
G1 X229.621 Y133.401 E11.90219
G1 X229.689 Y134.386 E11.9613
G1 X229.675 Y135.291 E12.01549
G1 X229.563 Y136.362 E12.07996
G1 X229.37 Y137.331 E12.13911
G1 X229.093 Y138.282 E12.19841
G1 X228.733 Y139.203 E12.25761
G1 X228.334 Y140.014 E12.31172
G1 X227.775 Y140.933 E12.37612
G1 X227.186 Y141.729 E12.4354
G1 X226.587 Y142.408 E12.48961
G1 X225.484 Y143.417 E12.57911
G1 X224.953 Y143.835 E12.61956
G1 X145.662 Y203.302 E18.55329
G1 X144.67 Y204.013 E18.62635
G1 X143.782 Y204.539 E18.68814
G1 X142.85 Y204.983 E18.74995
G1 X141.962 Y205.313 E18.80666
G1 X141.049 Y205.566 E18.86338
G1 X139.998 Y205.758 E18.92735
G1 X139.176 Y205.838 E18.97679
G1 X138.684 Y205.857 E19.00627
G1 X137.981 Y205.867 E19.04836
G1 X64.016 Y205.866 E23.47651
G1 X63.275 Y205.854 E23.52088
G1 X62.288 Y205.793 E23.58008
G1 X61.31 Y205.645 E23.6393
G1 X60.43 Y205.434 E23.69348
G1 X59.41 Y205.092 E23.75789
G1 X58.581 Y204.729 E23.81207
G1 X57.638 Y204.212 E23.87645
G1 X56.819 Y203.66 E23.93558
G1 X56.049 Y203.037 E23.99488
G1 X55.397 Y202.41 E24.04903
G1 X54.746 Y201.667 E24.10817
G1 X54.113 Y200.797 E24.17259
G1 X53.608 Y199.947 E24.23178
G1 X53.179 Y199.056 E24.29098
G1 X52.857 Y198.21 E24.34517
G1 X52.566 Y197.174 E24.4096
G1 X52.386 Y196.201 E24.46884
G1 X52.294 Y195.233 E24.52705
G1 X52.27 Y194.325 E24.58143
G1 X52.271 Y75.172 E31.71491
G1 X52.283 Y74.464 E31.7573
G1 X52.345 Y73.476 E31.81657
G1 X52.494 Y72.5 E31.87568
G1 X52.705 Y71.62 E31.92986
G1 X53.048 Y70.6 E31.99428
G1 X53.411 Y69.771 E32.04846
G1 X53.906 Y68.866 E32.11022
G1 X54.482 Y68.009 E32.17204
G1 X55.104 Y67.241 E32.2312
G1 X55.732 Y66.589 E32.2854
G1 X56.543 Y65.883 E32.34977
G0 F4800 X56.825 Y66.272
G1 F600 X57.557 Y65.741 E32.40391
G1 X58.407 Y65.233 E32.4632
G1 X59.26 Y64.822 E32.51988
G1 X60.146 Y64.488 E32.57657
G1 X61.058 Y64.233 E32.63326
G1 X61.948 Y64.066 E32.68748
G1 X63.182 Y63.96 E32.76163
G1 X63.8 Y63.947 E32.79863
G1 X137.957 Y63.948 E37.23828
G1 X138.673 Y63.959 E37.28115
G1 X139.474 Y64.001 E37.32917
G1 X140.371 Y64.121 E37.38335
G1 X141.336 Y64.338 E37.44257
G1 X142.198 Y64.613 E37.49674
G1 X143.11 Y64.997 E37.55598
G1 X143.944 Y65.439 E37.61249
G1 X144.616 Y65.869 E37.66025
G1 X145.365 Y66.408 E37.7155
G1 X224.353 Y125.649 E43.62659
G1 X225.065 Y126.199 E43.68045
G1 X225.787 Y126.812 E43.73715
G1 X226.453 Y127.487 E43.79392
G1 X227.03 Y128.184 E43.8481
G1 X227.591 Y128.998 E43.90728
G1 X228.037 Y129.785 E43.96144
G1 X228.446 Y130.686 E44.02068
G1 X228.747 Y131.54 E44.07489
G1 X228.991 Y132.5 E44.13419
G1 X229.142 Y133.435 E44.19089
G1 X229.209 Y134.379 E44.24755
G1 X229.195 Y135.284 E44.30173
G1 X229.092 Y136.269 E44.36103
G1 X228.909 Y137.198 E44.41771
G1 X228.646 Y138.108 E44.47442
G1 X228.302 Y138.991 E44.53116
G1 X227.903 Y139.802 E44.58527
G1 X227.389 Y140.648 E44.64453
G1 X226.826 Y141.411 E44.7013
G1 X226.227 Y142.09 E44.75551
G1 X225.187 Y143.04 E44.83984
G1 X224.665 Y143.451 E44.87961
G1 X145.382 Y202.912 E50.81273
G1 X144.39 Y203.623 E50.8858
G1 X143.538 Y204.126 E50.94504
G1 X142.682 Y204.533 E51.00178
G1 X141.834 Y204.85 E51.05598
G1 X140.921 Y205.103 E51.1127
G1 X139.951 Y205.28 E51.17173
G1 X139.157 Y205.358 E51.2195
G1 X138.677 Y205.377 E51.24826
G1 X137.981 Y205.387 E51.28993
G1 X64.023 Y205.386 E55.71766
G1 X63.304 Y205.375 E55.76071
G1 X62.359 Y205.318 E55.81739
G1 X61.422 Y205.178 E55.87411
G1 X60.542 Y204.967 E55.92829
G1 X59.603 Y204.652 E55.98758
G1 X58.774 Y204.289 E56.04176
G1 X57.906 Y203.814 E56.101
G1 X57.12 Y203.286 E56.15769
G1 X56.382 Y202.691 E56.21444
G1 X55.73 Y202.064 E56.2686
G1 X55.107 Y201.351 E56.32528
G1 X54.525 Y200.551 E56.38451
G1 X54.04 Y199.738 E56.44119
G1 X53.628 Y198.885 E56.4979
G1 X53.306 Y198.039 E56.55209
G1 X53.038 Y197.086 E56.61136
G1 X52.864 Y196.155 E56.66806
G1 X52.774 Y195.22 E56.7243
G1 X52.75 Y194.325 E56.7779
G1 X52.751 Y75.18 E63.9109
G1 X52.762 Y74.493 E63.95204
G1 X52.82 Y73.548 E64.00872
G1 X52.961 Y72.612 E64.06539
G1 X53.172 Y71.732 E64.11956
G1 X53.488 Y70.793 E64.17888
G1 X53.851 Y69.964 E64.23306
G1 X54.327 Y69.097 E64.29227
G1 X54.855 Y68.311 E64.34896
G1 X55.45 Y67.574 E64.40567
G1 X56.078 Y66.922 E64.45986
G1 X56.825 Y66.272 E64.51915
G0 F4800 X57.107 Y66.661
G1 F600 X57.839 Y66.13 E64.57329
G1 X58.616 Y65.665 E64.6275
G1 X59.43 Y65.271 E64.68164
G1 X60.276 Y64.95 E64.73581
G1 X61.147 Y64.705 E64.78998
G1 X62.037 Y64.538 E64.84419
G1 X63.192 Y64.44 E64.91359
G1 X63.8 Y64.427 E64.95
G1 X137.95 Y64.428 E69.38923
G1 X138.648 Y64.438 E69.43102
G1 X139.41 Y64.477 E69.4767
G1 X140.307 Y64.597 E69.53088
G1 X141.19 Y64.795 E69.58506
G1 X142.052 Y65.07 E69.63922
G1 X142.886 Y65.421 E69.6934
G1 X143.686 Y65.844 E69.74757
G1 X144.336 Y66.259 E69.79374
G1 X145.077 Y66.792 E69.84839
G1 X224.06 Y126.029 E75.7591
G1 X224.755 Y126.565 E75.81164
G1 X225.446 Y127.15 E75.86585
G1 X226.083 Y127.793 E75.92003
G1 X226.66 Y128.49 E75.9742
G1 X227.173 Y129.235 E76.02836
G1 X227.619 Y130.022 E76.08251
G1 X227.993 Y130.846 E76.13669
G1 X228.294 Y131.7 E76.1909
G1 X228.517 Y132.577 E76.24507
G1 X228.663 Y133.47 E76.29925
G1 X228.729 Y134.372 E76.35339
G1 X228.715 Y135.277 E76.40758
G1 X228.621 Y136.177 E76.46175
G1 X228.448 Y137.065 E76.51592
G1 X228.198 Y137.935 E76.57011
G1 X227.871 Y138.779 E76.6243
G1 X227.472 Y139.59 E76.67841
G1 X227.002 Y140.364 E76.73262
G1 X226.466 Y141.093 E76.78679
G1 X225.867 Y141.772 E76.841
G1 X224.89 Y142.663 E76.92016
G1 X224.377 Y143.067 E76.95926
G1 X145.102 Y202.522 E82.89178
G1 X144.11 Y203.233 E82.96485
G1 X143.331 Y203.693 E83.01901
G1 X142.514 Y204.083 E83.07321
G1 X141.666 Y204.4 E83.12741
G1 X140.794 Y204.64 E83.18155
G1 X139.904 Y204.802 E83.23571
G1 X139.137 Y204.878 E83.28186
G1 X138.664 Y204.898 E83.3102
G1 X137.981 Y204.907 E83.35109
G1 X64.03 Y204.906 E87.77841
G1 X63.332 Y204.896 E87.8202
G1 X62.429 Y204.843 E87.87436
G1 X61.534 Y204.711 E87.92852
G1 X60.654 Y204.5 E87.9827
G1 X59.796 Y204.212 E88.03688
G1 X58.967 Y203.849 E88.09106
G1 X58.173 Y203.415 E88.14523
G1 X57.421 Y202.912 E88.1994
G1 X56.715 Y202.345 E88.25361
G1 X56.063 Y201.718 E88.30776
G1 X55.469 Y201.036 E88.36191
G1 X54.937 Y200.304 E88.41608
G1 X54.472 Y199.528 E88.47024
G1 X54.077 Y198.714 E88.52441
G1 X53.755 Y197.868 E88.5786
G1 X53.51 Y196.997 E88.63277
G1 X53.342 Y196.108 E88.68694
G1 X53.254 Y195.207 E88.74113
G1 X53.23 Y194.325 E88.79396
G1 X53.231 Y75.187 E95.92654
G1 X53.241 Y74.522 E95.96636
G1 X53.295 Y73.619 E96.02051
G1 X53.428 Y72.724 E96.07468
G1 X53.639 Y71.844 E96.12886
G1 X53.928 Y70.986 E96.18306
G1 X54.291 Y70.157 E96.23725
G1 X54.726 Y69.364 E96.29139
G1 X55.229 Y68.612 E96.34556
G1 X55.796 Y67.907 E96.39972
G1 X56.424 Y67.255 E96.45392
G1 X57.107 Y66.661 E96.50811
G1 F3600 E92.50811
;MESH:Bird_House-Front_BackPocket-Back.obj
G0 F4800 X64.908 Y74.002
G0 X64.908 Y76.104
G0 X64.88 Y193.252
G0 X138.108 Y193.464
;TYPE:WALL-INNER
G1 F3600 E96.50811
G1 F600 X216.508 Y134.664 E102.3752
G1 X138.108 Y75.864 E108.24228
G1 X64.668 Y75.864 E112.63901
G1 X64.668 Y193.464 E119.67951
G1 X137.664 Y193.464 E124.04966
G0 F540 X138.108 Y193.464
G0 F4800 X138.268 Y193.944
G1 F600 X217.308 Y134.664 E129.96464
G1 X138.268 Y75.384 E135.87962
G1 X64.188 Y75.384 E140.31466
G1 X64.188 Y193.944 E147.41264
G1 X137.824 Y193.944 E151.8211
G0 F540 X138.268 Y193.944
G0 F4800 X138.428 Y194.424
;TYPE:WALL-OUTER
G1 F600 X218.108 Y134.664 E157.78397
G1 X138.428 Y74.904 E163.74685
G1 X63.708 Y74.904 E168.22021
G1 X63.708 Y194.424 E175.37566
G1 X137.984 Y194.424 E179.82243
G0 F540 X138.428 Y194.424
G0 F4800 X138.209 Y193.763
G0 X137.96 Y193.324
G0 X137.96 Y193.024
;TYPE:SKIN
G1 F600 X65.108 Y193.024 E184.18395
G1 X65.109 Y76.305 E191.17171
G1 X137.959 Y76.305 E195.53312
G1 X215.772 Y134.664 E201.35625
G1 X137.96 Y193.024 E207.17937
G1 F3600 E203.17937
G0 F4800 X137.96 Y193.324
G0 X64.88 Y193.252
G0 X64.808 Y192.288
G0 X65.348 Y192.288
G1 F3600 E207.17937
G1 F600 X65.844 Y192.784 E207.22136
G0 F4800 X66.523 Y192.784
G1 F600 X65.348 Y191.609 E207.32085
G0 F4800 X65.348 Y190.93
G1 F600 X67.202 Y192.784 E207.47782
G0 F4800 X67.881 Y192.784
G1 F600 X65.348 Y190.251 E207.69228
G0 F4800 X65.348 Y189.572
G1 F600 X68.56 Y192.784 E207.96423
G0 F4800 X69.238 Y192.784
G1 F600 X65.348 Y188.894 E208.29358
G0 F4800 X65.348 Y188.215
G1 F600 X69.917 Y192.784 E208.68042
G0 F4800 X70.596 Y192.784
G1 F600 X65.348 Y187.536 E209.12475
G0 F4800 X65.348 Y186.857
G1 F600 X71.275 Y192.784 E209.62657
G0 F4800 X71.954 Y192.784
G1 F600 X65.348 Y186.178 E210.18588
G0 F4800 X65.348 Y185.5
G1 F600 X72.633 Y192.784 E210.80263
G0 F4800 X73.311 Y192.784
G1 F600 X65.348 Y184.821 E211.47683
G0 F4800 X65.348 Y184.142
G1 F600 X73.99 Y192.784 E212.20852
G0 F4800 X74.669 Y192.784
G1 F600 X65.348 Y183.463 E212.99769
G0 F4800 X65.348 Y182.784
G1 F600 X75.348 Y192.784 E213.84436
G0 F4800 X76.027 Y192.784
G1 F600 X65.348 Y182.105 E214.74851
G0 F4800 X65.348 Y181.427
G1 F600 X76.706 Y192.784 E215.71011
G0 F4800 X77.384 Y192.784
G1 F600 X65.348 Y180.748 E216.72916
G0 F4800 X65.348 Y180.069
G1 F600 X78.063 Y192.784 E217.80569
G0 F4800 X78.742 Y192.784
G1 F600 X65.348 Y179.39 E218.93971
G0 F4800 X65.348 Y178.711
G1 F600 X79.421 Y192.784 E220.13122
G0 F4800 X80.1 Y192.784
G1 F600 X65.348 Y178.033 E221.38018
G0 F4800 X65.348 Y177.354
G1 F600 X80.778 Y192.784 E222.68659
G0 F4800 X81.457 Y192.784
G1 F600 X65.348 Y176.675 E224.05048
G0 F4800 X65.348 Y175.996
G1 F600 X82.136 Y192.784 E225.47186
G0 F4800 X82.815 Y192.784
G1 F600 X65.348 Y175.317 E226.95073
G0 F4800 X65.348 Y174.638
G1 F600 X83.494 Y192.784 E228.48709
G0 F4800 X84.173 Y192.784
G1 F600 X65.348 Y173.96 E230.08089
G0 F4800 X65.348 Y173.281
G1 F600 X84.851 Y192.784 E231.73214
G0 F4800 X85.53 Y192.784
G1 F600 X65.348 Y172.602 E233.44088
G0 F4800 X65.348 Y171.923
G1 F600 X86.209 Y192.784 E235.20711
G0 F4800 X86.888 Y192.784
G1 F600 X65.348 Y171.244 E237.03082
G0 F4800 X65.348 Y170.565
G1 F600 X87.567 Y192.784 E238.91203
G0 F4800 X88.246 Y192.784
G1 F600 X65.348 Y169.887 E240.85068
G0 F4800 X65.348 Y169.208
G1 F600 X88.924 Y192.784 E242.84678
G0 F4800 X89.603 Y192.784
G1 F600 X65.348 Y168.529 E244.90036
G0 F4800 X65.348 Y167.85
G1 F600 X90.282 Y192.784 E247.01144
G0 F4800 X90.961 Y192.784
G1 F600 X65.348 Y167.171 E249.18
G0 F4800 X65.348 Y166.493
G1 F600 X91.64 Y192.784 E251.40601
G0 F4800 X92.318 Y192.784
G1 F600 X65.348 Y165.814 E253.68946
G0 F4800 X65.348 Y165.135
G1 F600 X92.997 Y192.784 E256.03041
G0 F4800 X93.676 Y192.784
G1 F600 X65.348 Y164.456 E258.42884
G0 F4800 X65.348 Y163.777
G1 F600 X94.355 Y192.784 E260.88476
G0 F4800 X95.034 Y192.784
G1 F600 X65.348 Y163.098 E263.39817
G0 F4800 X65.348 Y162.42
G1 F600 X95.713 Y192.784 E265.96902
G0 F4800 X96.391 Y192.784
G1 F600 X65.348 Y161.741 E268.59732
G0 F4800 X65.348 Y161.062
G1 F600 X97.07 Y192.784 E271.28311
G0 F4800 X97.749 Y192.784
G1 F600 X65.348 Y160.383 E274.02639
G0 F4800 X65.348 Y159.704
G1 F600 X98.428 Y192.784 E276.82716
G0 F4800 X99.107 Y192.784
G1 F600 X65.348 Y159.025 E279.68542
G0 F4800 X65.348 Y158.347
G1 F600 X99.785 Y192.784 E282.60108
G0 F4800 X100.464 Y192.784
G1 F600 X65.348 Y157.668 E285.57422
G0 F4800 X65.348 Y156.989
G1 F600 X101.143 Y192.784 E288.60486
G0 F4800 X101.822 Y192.784
G1 F600 X65.348 Y156.31 E291.69299
G0 F4800 X65.348 Y155.631
G1 F600 X102.501 Y192.784 E294.8386
G0 F4800 X103.18 Y192.784
G1 F600 X65.348 Y154.953 E298.04166
G0 F4800 X65.348 Y154.274
G1 F600 X103.858 Y192.784 E301.30217
G0 F4800 X104.537 Y192.784
G1 F600 X65.348 Y153.595 E304.62016
G0 F4800 X65.348 Y152.916
G1 F600 X105.216 Y192.784 E307.99564
G0 F4800 X105.895 Y192.784
G1 F600 X65.348 Y152.237 E311.42862
G0 F4800 X65.348 Y151.558
G1 F600 X106.574 Y192.784 E314.91908
G0 F4800 X107.253 Y192.784
G1 F600 X65.348 Y150.88 E318.46698
G0 F4800 X65.348 Y150.201
G1 F600 X107.931 Y192.784 E322.07234
G0 F4800 X108.61 Y192.784
G1 F600 X65.348 Y149.522 E325.73518
G0 F4800 X65.348 Y148.843
G1 F600 X109.289 Y192.784 E329.45551
G0 F4800 X109.968 Y192.784
G1 F600 X65.348 Y148.164 E333.23332
G0 F4800 X65.348 Y147.486
G1 F600 X110.647 Y192.784 E337.06859
G0 F4800 X111.325 Y192.784
G1 F600 X65.348 Y146.807 E340.9613
G0 F4800 X65.348 Y146.128
G1 F600 X112.004 Y192.784 E344.9115
G0 F4800 X112.683 Y192.784
G1 F600 X65.348 Y145.449 E348.91919
G0 F4800 X65.348 Y144.77
G1 F600 X113.362 Y192.784 E352.98436
G0 F4800 X114.041 Y192.784
G1 F600 X65.348 Y144.091 E357.10703
G0 F4800 X65.348 Y143.413
G1 F600 X114.72 Y192.784 E361.28714
G0 F4800 X115.398 Y192.784
G1 F600 X65.348 Y142.734 E365.5247
G0 F4800 X65.348 Y142.055
G1 F600 X116.077 Y192.784 E369.81974
G0 F4800 X116.756 Y192.784
G1 F600 X65.348 Y141.376 E374.17228
G0 F4800 X65.348 Y140.697
G1 F600 X117.435 Y192.784 E378.5823
G0 F4800 X118.114 Y192.784
G1 F600 X65.348 Y140.018 E383.04981
G0 F4800 X65.348 Y139.34
G1 F600 X118.793 Y192.784 E387.57477
G0 F4800 X119.471 Y192.784
G1 F600 X65.348 Y138.661 E392.15717
G0 F4800 X65.348 Y137.982
G1 F600 X120.15 Y192.784 E396.79707
G0 F4800 X120.829 Y192.784
G1 F600 X65.348 Y137.303 E401.49445
G0 F4800 X65.348 Y136.624
G1 F600 X121.508 Y192.784 E406.24932
G0 F4800 X122.187 Y192.784
G1 F600 X65.348 Y135.946 E411.06163
G0 F4800 X65.348 Y135.267
G1 F600 X122.865 Y192.784 E415.93139
G0 F4800 X123.544 Y192.784
G1 F600 X65.348 Y134.588 E420.85865
G0 F4800 X65.348 Y133.909
G1 F600 X124.223 Y192.784 E425.84338
G0 F4800 X124.902 Y192.784
G1 F600 X65.348 Y133.23 E430.88561
G0 F4800 X65.348 Y132.551
G1 F600 X125.581 Y192.784 E435.98533
G0 F4800 X126.26 Y192.784
G1 F600 X65.348 Y131.873 E441.14249
G0 F4800 X65.348 Y131.194
G1 F600 X126.938 Y192.784 E446.3571
G0 F4800 X127.617 Y192.784
G1 F600 X65.348 Y130.515 E451.6292
G0 F4800 X65.348 Y129.836
G1 F600 X128.296 Y192.784 E456.95878
G0 F4800 X128.975 Y192.784
G1 F600 X65.348 Y129.157 E462.34586
G0 F4800 X65.348 Y128.478
G1 F600 X129.654 Y192.784 E467.79042
G0 F4800 X130.333 Y192.784
G1 F600 X65.348 Y127.8 E473.29243
G0 F4800 X65.348 Y127.121
G1 F600 X131.011 Y192.784 E478.85188
G0 F4800 X131.69 Y192.784
G1 F600 X65.348 Y126.442 E484.46883
