;FLAVOR:Marlin
;TIME:6110
;Filament used: 3.72874m
;Layer height: 0.2
;MINX:82.14
;MINY:61.739
;MINZ:0.3
;MAXX:134.706
;MAXY:172.2
;MAXZ:12.78
;TARGET_MACHINE.NAME:BIQU B1
;Generated with Cura_SteamEngine 5.12.0
                                 ; BIQU B1 Start G-code
M117 Getting the bed up to temp!
M140 S60      ; Set Heat Bed temperature
M190 S60      ; Wait for Heat Bed temperature
M117 Getting the extruder up to temp!
M104 S190    ; Set Extruder temperature
G92 E0                           ; Reset Extruder
M117 Homing axes
G28                              ; Home all axes
M109 S190    ; Wait for Extruder temperature
G1 Z2.0 F3000                    ; Move Z Axis up little to prevent scratching of Heat Bed
G1 X4.1 Y20 Z0.3 F5000.0         ; Move to start position
M117 Purging
G1 X4.1 Y200.0 Z0.3 F1500.0 E15  ; Draw the first line
G1 X4.4 Y200.0 Z0.3 F5000.0      ; Move to side a little
G1 X4.4 Y20 Z0.3 F1500.0 E30     ; Draw the second line
G92 E0                           ; Reset Extruder
M117 Lets make
G1 Z2.0 F3000                    ; Move Z Axis up little to prevent scratching of Heat Bed
G1 X5 Y20 Z0.3 F5000.0           ; Move over to prevent blob squish
M82 ;absolute extrusion mode
G92 E0
G92 E0
G1 F3600 E-4
;LAYER_COUNT:62
;LAYER:0
M107
G0 F4800 X85.873 Y66.246 Z0.3
;TYPE:SKIRT
G1 F3600 E0
G1 F600 X86.443 Y65.544 E0.05414
G1 X87.129 Y64.832 E0.11333
G1 X87.91 Y64.156 E0.17517
G1 X88.749 Y63.555 E0.23696
G1 X89.527 Y63.093 E0.29113
G1 X90.497 Y62.628 E0.35553
G1 X91.344 Y62.311 E0.40967
G1 X92.175 Y62.073 E0.46142
G1 X93.114 Y61.884 E0.51876
G1 X94.542 Y61.752 E0.60462
G1 X95.17 Y61.739 E0.64223
G1 X97.07 Y61.74 E0.75598
G1 X98.836 Y61.766 E0.86171
G1 X99.599 Y61.788 E0.90741
G1 X102.092 Y61.79 E1.05666
G1 X104.405 Y61.739 E1.19517
G1 X106.312 Y61.74 E1.30934
G1 X107.371 Y61.762 E1.37276
G1 X108.296 Y61.841 E1.42834
G1 X110.068 Y62.08 E1.53538
G1 X112.602 Y62.37 E1.68808
G1 X115.056 Y62.581 E1.83554
G1 X117.546 Y62.724 E1.98486
G1 X120.254 Y62.801 E2.14704
G1 X120.971 Y62.813 E2.18998
G1 X121.958 Y62.874 E2.24918
G1 X122.936 Y63.022 E2.3084
G1 X123.816 Y63.233 E2.36257
G1 X124.834 Y63.575 E2.42687
G1 X125.663 Y63.937 E2.48102
G1 X126.607 Y64.453 E2.54543
G1 X127.394 Y64.981 E2.60217
G1 X128.166 Y65.602 E2.66148
G1 X128.907 Y66.316 E2.72309
G1 X129.502 Y66.998 E2.77727
G1 X130.134 Y67.868 E2.84165
G1 X130.599 Y68.644 E2.89581
G1 X131.051 Y69.574 E2.95772
G1 X131.415 Y70.538 E3.01941
G1 X131.681 Y71.491 E3.07864
G1 X131.849 Y72.381 E3.13287
G1 X131.964 Y73.702 E3.21225
G1 X131.977 Y74.31 E3.24866
G1 X131.977 Y130.761 E6.62828
G1 X132.014 Y133.327 E6.78192
G1 X132.121 Y135.862 E6.93382
G1 X132.296 Y138.338 E7.08242
G1 X132.548 Y140.878 E7.23524
G1 X132.861 Y143.33 E7.38323
G1 X133.249 Y145.799 E7.53285
G1 X133.72 Y148.334 E7.68722
G1 X134.414 Y151.511 E7.8819
G1 X134.58 Y152.401 E7.93611
G1 X134.69 Y153.67 E8.01236
G1 X134.705 Y154.33 E8.05189
G1 X134.706 Y160.282 E8.40822
G1 X134.693 Y161.178 E8.46187
G1 X134.648 Y162.022 E8.51247
G1 X134.528 Y162.919 E8.56665
G1 X134.292 Y163.966 E8.63091
G1 X134.017 Y164.828 E8.68507
G1 X133.6 Y165.819 E8.74944
G1 X133.156 Y166.656 E8.80617
G1 X132.594 Y167.521 E8.86792
G1 X131.983 Y168.299 E8.92715
G1 X131.365 Y168.96 E8.98132
G1 X130.564 Y169.677 E9.04568
G1 X129.805 Y170.243 E9.10236
G1 X128.927 Y170.785 E9.16414
G1 X128.119 Y171.191 E9.21827
G1 X127.12 Y171.587 E9.28261
G1 X126.252 Y171.845 E9.33682
G1 X125.18 Y172.061 E9.40229
G1 X123.807 Y172.186 E9.48483
G1 X123.269 Y172.199 E9.51705
G1 X121.276 Y172.199 E9.63637
G1 X119.51 Y172.173 E9.74211
G1 X118.747 Y172.151 E9.7878
G1 X116.254 Y172.149 E9.93706
G1 X113.941 Y172.2 E10.07556
G1 X112.034 Y172.199 E10.18973
G1 X110.975 Y172.177 E10.25315
G1 X110.05 Y172.098 E10.30873
G1 X108.28 Y171.859 E10.41566
G1 X105.744 Y171.569 E10.56847
G1 X103.29 Y171.358 E10.71593
G1 X100.8 Y171.215 E10.86525
G1 X98.092 Y171.138 E11.02744
G1 X97.374 Y171.126 E11.07043
G1 X96.387 Y171.065 E11.12963
G1 X95.409 Y170.917 E11.18885
G1 X94.529 Y170.706 E11.24303
G1 X93.511 Y170.364 E11.30732
G1 X92.682 Y170.002 E11.36147
G1 X91.738 Y169.486 E11.42588
G1 X90.951 Y168.958 E11.48262
G1 X90.179 Y168.337 E11.54194
G1 X89.438 Y167.623 E11.60354
G1 X88.843 Y166.941 E11.65773
G1 X88.211 Y166.07 E11.72215
G1 X87.706 Y165.221 E11.78129
G1 X87.311 Y164.407 E11.83546
G1 X86.943 Y163.442 E11.89729
G1 X86.664 Y162.448 E11.9591
G1 X86.496 Y161.559 E12.01326
G1 X86.381 Y160.224 E12.09348
G1 X86.368 Y159.614 E12.13001
G1 X86.368 Y106.759 E15.29435
G1 X86.331 Y104.193 E15.44799
G1 X86.222 Y101.63 E15.60157
G1 X86.047 Y99.156 E15.75005
G1 X85.797 Y96.642 E15.9013
G1 X85.48 Y94.163 E16.05092
G1 X85.094 Y91.708 E16.19971
G1 X84.625 Y89.189 E16.35311
G1 X84.1 Y86.744 E16.50282
G1 X83.509 Y84.342 E16.65091
G1 X82.786 Y81.72 E16.81375
G1 X82.598 Y81.077 E16.85385
G1 X82.355 Y80.072 E16.91575
G1 X82.219 Y79.177 E16.96995
G1 X82.153 Y78.237 E17.02637
G1 X82.14 Y77.609 E17.06397
G1 X82.141 Y75.485 E17.19113
G1 X82.153 Y74.751 E17.23508
G1 X82.198 Y73.91 E17.2855
G1 X82.318 Y73.013 E17.33968
G1 X82.554 Y71.966 E17.40394
G1 X82.829 Y71.104 E17.45811
G1 X83.246 Y70.113 E17.52247
G1 X83.703 Y69.252 E17.58083
G1 X84.046 Y68.707 E17.61938
G1 X84.352 Y68.273 E17.65118
G1 X85.873 Y66.246 E17.80289
G0 F4800 X86.246 Y66.549
G1 F600 X86.816 Y65.847 E17.85703
G1 X87.474 Y65.166 E17.91372
G1 X88.224 Y64.519 E17.97302
G1 X88.994 Y63.968 E18.02971
G1 X89.772 Y63.506 E18.08388
G1 X90.665 Y63.078 E18.14317
G1 X91.512 Y62.761 E18.19731
G1 X92.27 Y62.544 E18.24451
G1 X93.209 Y62.355 E18.30186
G1 X94.552 Y62.232 E18.3826
G1 X95.17 Y62.219 E18.4196
G1 X97.063 Y62.22 E18.53293
G1 X98.822 Y62.246 E18.63825
G1 X99.585 Y62.268 E18.68395
G1 X102.103 Y62.27 E18.8347
G1 X104.405 Y62.219 E18.97255
G1 X106.302 Y62.22 E19.08612
G1 X107.361 Y62.242 E19.14953
G1 X108.232 Y62.317 E19.20187
G1 X110.003 Y62.556 E19.30886
G1 X112.547 Y62.847 E19.46216
G1 X115.024 Y63.06 E19.611
G1 X117.532 Y63.204 E19.7614
G1 X120.24 Y63.281 E19.92358
G1 X120.942 Y63.292 E19.96562
G1 X121.887 Y63.349 E20.0223
G1 X122.824 Y63.489 E20.07901
G1 X123.704 Y63.7 E20.13319
G1 X124.642 Y64.015 E20.19243
G1 X125.471 Y64.377 E20.24659
G1 X126.34 Y64.852 E20.30588
G1 X127.127 Y65.38 E20.36261
G1 X127.864 Y65.975 E20.41932
G1 X128.545 Y66.632 E20.47597
G1 X129.14 Y67.314 E20.53016
G1 X129.722 Y68.115 E20.58943
G1 X130.187 Y68.891 E20.64359
G1 X130.619 Y69.783 E20.70293
G1 X130.953 Y70.668 E20.75956
G1 X131.209 Y71.58 E20.81627
G1 X131.377 Y72.47 E20.87049
G1 X131.484 Y73.712 E20.94513
G1 X131.497 Y74.32 E20.98153
G1 X131.497 Y130.761 E24.36056
G1 X131.534 Y133.347 E24.51539
G1 X131.642 Y135.896 E24.66813
G1 X131.818 Y138.385 E24.81752
G1 X132.07 Y140.925 E24.97033
G1 X132.387 Y143.405 E25.12001
G1 X132.777 Y145.887 E25.27043
G1 X133.248 Y148.422 E25.42479
G1 X133.811 Y151.029 E25.58447
G1 X133.942 Y151.599 E25.61948
G1 X134.108 Y152.489 E25.67368
G1 X134.21 Y153.681 E25.74531
G1 X134.225 Y154.33 E25.78417
G1 X134.226 Y160.275 E26.14009
G1 X134.214 Y161.153 E26.19266
G1 X134.172 Y161.958 E26.24092
G1 X134.052 Y162.855 E26.2951
G1 X133.835 Y163.82 E26.35431
G1 X133.56 Y164.682 E26.40848
G1 X133.176 Y165.594 E26.46772
G1 X132.732 Y166.431 E26.52445
G1 X132.216 Y167.225 E26.58114
G1 X131.632 Y167.971 E26.63786
G1 X131.014 Y168.632 E26.69203
G1 X130.277 Y169.292 E26.75126
G1 X129.518 Y169.858 E26.80795
G1 X128.711 Y170.356 E26.86472
G1 X127.903 Y170.762 E26.91885
G1 X126.983 Y171.127 E26.97811
G1 X126.115 Y171.385 E27.03232
G1 X125.136 Y171.583 E27.09212
G1 X123.795 Y171.706 E27.17274
G1 X123.257 Y171.719 E27.20496
G1 X121.283 Y171.719 E27.32314
G1 X119.524 Y171.693 E27.42846
G1 X118.761 Y171.671 E27.47416
G1 X116.243 Y171.669 E27.62491
G1 X113.941 Y171.72 E27.76276
G1 X112.044 Y171.719 E27.87633
G1 X110.985 Y171.697 E27.93974
G1 X110.114 Y171.622 E27.99208
G1 X108.344 Y171.383 E28.09901
G1 X105.799 Y171.092 E28.25236
G1 X103.322 Y170.879 E28.4012
G1 X100.814 Y170.735 E28.5516
G1 X98.106 Y170.658 E28.71379
G1 X97.403 Y170.647 E28.75588
G1 X96.458 Y170.59 E28.81256
G1 X95.521 Y170.45 E28.86928
G1 X94.641 Y170.239 E28.92346
G1 X93.703 Y169.924 E28.9827
G1 X92.874 Y169.562 E29.03685
G1 X92.005 Y169.087 E29.09614
G1 X91.218 Y168.559 E29.15288
G1 X90.481 Y167.964 E29.20959
G1 X89.8 Y167.307 E29.26624
G1 X89.205 Y166.625 E29.32042
G1 X88.623 Y165.824 E29.3797
G1 X88.138 Y165.011 E29.43638
G1 X87.743 Y164.197 E29.49054
G1 X87.405 Y163.311 E29.54732
G1 X87.136 Y162.359 E29.60654
G1 X86.968 Y161.47 E29.66071
G1 X86.861 Y160.214 E29.73617
G1 X86.848 Y159.604 E29.7727
G1 X86.848 Y106.759 E32.93644
G1 X86.811 Y104.173 E33.09127
G1 X86.702 Y101.61 E33.24485
G1 X86.526 Y99.122 E33.39418
G1 X86.275 Y96.595 E33.54621
G1 X85.956 Y94.102 E33.69668
G1 X85.568 Y91.633 E33.84631
G1 X85.097 Y89.101 E34.00049
G1 X84.569 Y86.643 E34.15101
G1 X83.972 Y84.214 E34.30076
G1 X83.249 Y81.592 E34.46359
G1 X83.059 Y80.942 E34.50413
G1 X82.83 Y80 E34.56217
G1 X82.694 Y79.105 E34.61637
G1 X82.667 Y78.624 E34.64521
G1 X82.633 Y78.227 E34.66906
G1 X82.62 Y77.609 E34.70607
G1 X82.621 Y75.492 E34.83281
G1 X82.632 Y74.776 E34.87568
G1 X82.674 Y73.974 E34.92376
G1 X82.794 Y73.077 E34.97794
G1 X83.011 Y72.112 E35.03716
G1 X83.286 Y71.25 E35.09133
G1 X83.67 Y70.338 E35.15057
G1 X84.11 Y69.507 E35.20686
G1 X84.439 Y68.983 E35.2439
G1 X84.736 Y68.561 E35.2748
G1 X86.246 Y66.549 E35.4254
G0 F4800 X86.619 Y66.852
G1 F600 X87.189 Y66.15 E35.47954
G1 X87.819 Y65.5 E35.53373
G1 X88.504 Y64.909 E35.5879
G1 X89.239 Y64.381 E35.64208
G1 X90.017 Y63.919 E35.69625
G1 X90.833 Y63.528 E35.75042
G1 X91.68 Y63.211 E35.80456
G1 X92.366 Y63.014 E35.84729
G1 X93.253 Y62.833 E35.90149
G1 X94.562 Y62.712 E35.98019
G1 X95.17 Y62.699 E36.0166
G1 X97.056 Y62.7 E36.12951
G1 X98.808 Y62.726 E36.23441
G1 X99.571 Y62.748 E36.28011
G1 X102.114 Y62.75 E36.43236
G1 X104.405 Y62.699 E36.56955
G1 X106.292 Y62.7 E36.68252
G1 X107.351 Y62.722 E36.74593
G1 X108.168 Y62.793 E36.79503
G1 X109.938 Y63.032 E36.90196
G1 X112.492 Y63.324 E37.05586
G1 X114.992 Y63.539 E37.20608
G1 X117.518 Y63.684 E37.35756
G1 X120.226 Y63.761 E37.51975
G1 X120.914 Y63.771 E37.56094
G1 X121.817 Y63.824 E37.61509
G1 X122.712 Y63.956 E37.66926
G1 X123.592 Y64.167 E37.72343
G1 X124.45 Y64.455 E37.77762
G1 X125.279 Y64.817 E37.83177
G1 X126.073 Y65.251 E37.88595
G1 X126.826 Y65.754 E37.94016
G1 X127.531 Y66.321 E37.99432
G1 X128.183 Y66.948 E38.04848
G1 X128.778 Y67.63 E38.10266
G1 X129.31 Y68.362 E38.15684
G1 X129.775 Y69.138 E38.211
G1 X130.17 Y69.953 E38.26522
G1 X130.491 Y70.798 E38.31933
G1 X130.737 Y71.669 E38.37352
G1 X130.905 Y72.559 E38.42774
G1 X131.004 Y73.722 E38.49762
G1 X131.017 Y74.33 E38.53403
G1 X131.017 Y130.761 E41.91246
G1 X131.054 Y133.367 E42.06849
G1 X131.163 Y135.93 E42.22207
G1 X131.34 Y138.432 E42.37223
G1 X131.592 Y140.972 E42.52505
G1 X131.913 Y143.479 E42.67636
G1 X132.305 Y145.975 E42.82762
G1 X132.776 Y148.51 E42.98199
G1 X133.343 Y151.137 E43.14288
G1 X133.47 Y151.687 E43.17668
G1 X133.636 Y152.577 E43.23088
G1 X133.73 Y153.692 E43.29787
G1 X133.745 Y154.33 E43.33607
G1 X133.746 Y160.269 E43.69163
G1 X133.735 Y161.129 E43.74312
G1 X133.696 Y161.894 E43.78898
G1 X133.576 Y162.791 E43.84316
G1 X133.378 Y163.674 E43.89734
G1 X133.103 Y164.536 E43.95151
G1 X132.752 Y165.37 E44.00568
G1 X132.329 Y166.17 E44.05986
G1 X131.837 Y166.93 E44.11406
G1 X131.281 Y167.643 E44.16819
G1 X130.663 Y168.304 E44.22236
G1 X129.989 Y168.908 E44.27655
G1 X129.265 Y169.45 E44.33069
G1 X128.495 Y169.927 E44.38492
G1 X127.687 Y170.333 E44.43906
G1 X126.846 Y170.667 E44.49323
G1 X125.978 Y170.925 E44.54744
G1 X125.092 Y171.105 E44.60157
G1 X123.783 Y171.226 E44.68027
G1 X123.245 Y171.239 E44.71249
G1 X121.29 Y171.239 E44.82953
G1 X119.538 Y171.213 E44.93443
G1 X118.775 Y171.191 E44.98013
G1 X116.232 Y171.189 E45.13238
G1 X113.941 Y171.24 E45.26957
G1 X112.054 Y171.239 E45.38254
G1 X110.995 Y171.217 E45.44595
G1 X110.178 Y171.146 E45.49505
G1 X108.408 Y170.907 E45.60198
G1 X105.854 Y170.615 E45.75588
G1 X103.354 Y170.4 E45.9061
G1 X100.828 Y170.255 E46.05758
G1 X98.12 Y170.178 E46.21977
G1 X97.431 Y170.168 E46.26102
G1 X96.528 Y170.115 E46.31517
G1 X95.633 Y169.983 E46.36934
G1 X94.753 Y169.772 E46.42351
G1 X93.895 Y169.484 E46.4777
G1 X93.066 Y169.122 E46.53185
G1 X92.272 Y168.688 E46.58603
G1 X91.519 Y168.185 E46.64024
G1 X90.814 Y167.618 E46.6944
G1 X90.162 Y166.991 E46.74856
G1 X89.567 Y166.309 E46.80274
G1 X89.035 Y165.577 E46.85692
G1 X88.57 Y164.801 E46.91108
G1 X88.175 Y163.987 E46.96524
G1 X87.854 Y163.141 E47.01942
G1 X87.608 Y162.27 E47.0736
G1 X87.44 Y161.381 E47.12777
G1 X87.341 Y160.204 E47.19848
G1 X87.328 Y159.594 E47.23501
G1 X87.328 Y106.759 E50.39815
G1 X87.291 Y104.153 E50.55418
G1 X87.182 Y101.59 E50.70776
G1 X87.005 Y99.088 E50.85793
G1 X86.753 Y96.548 E51.01074
G1 X86.432 Y94.041 E51.16205
G1 X86.04 Y91.545 E51.31331
G1 X85.569 Y89.013 E51.4675
G1 X85.038 Y86.542 E51.61881
G1 X84.435 Y84.086 E51.77022
G1 X83.712 Y81.464 E51.93305
G1 X83.52 Y80.807 E51.97403
G1 X83.305 Y79.928 E52.0282
G1 X83.169 Y79.033 E52.0824
G1 X83.146 Y78.599 E52.10842
G1 X83.113 Y78.217 E52.13137
G1 X83.1 Y77.609 E52.16778
G1 X83.101 Y75.499 E52.29411
G1 X83.111 Y74.801 E52.3359
G1 X83.15 Y74.038 E52.38164
G1 X83.27 Y73.141 E52.43582
G1 X83.468 Y72.258 E52.48999
G1 X83.743 Y71.396 E52.54416
G1 X84.094 Y70.562 E52.59833
G1 X84.517 Y69.762 E52.65251
G1 X84.832 Y69.259 E52.68804
G1 X85.12 Y68.849 E52.71804
G1 X86.619 Y66.852 E52.86753
G1 F3600 E48.86753
G0 F4800 X95.08 Y72.874
G0 X95.08 Y73.179
G1 F3600 E52.86753
G1 F600 X97.376 Y73.179 E53.00499
G1 X97.376 Y73.299 E53.01217
G1 X95.178 Y73.299 E53.14376
G1 X95.073 Y73.33 E53.15032
G1 X95.08 Y73.273 E53.15376
G1 X95.08 Y73.179 E53.15938
G0 F4800 X94.938 Y73.806
G1 F600 X94.939 Y79.073 E53.47471
G1 X94.824 Y78.806 E53.49211
G1 X94.806 Y78.771 E53.49447
G1 X94.599 Y78.451 E53.51729
G1 X94.571 Y78.415 E53.52002
G1 X94.265 Y78.094 E53.54657
G1 X94.233 Y78.067 E53.54907
G1 X93.797 Y77.746 E53.58149
G1 X93.655 Y77.699 E53.59044
G1 X93.58 Y77.699 E53.59493
G1 X93.58 Y75.179 E53.7458
G1 X93.609 Y75.179 E53.74754
G1 X93.73 Y75.146 E53.75505
G1 X93.998 Y74.989 E53.77364
G1 X94.028 Y74.968 E53.77583
G1 X94.367 Y74.693 E53.80197
G1 X94.402 Y74.658 E53.80493
G1 X94.688 Y74.306 E53.83208
G1 X94.718 Y74.26 E53.83537
G1 X94.938 Y73.806 E53.86557
G1 F3600 E49.86557
G0 F4800 X94.458 Y75.238
G1 F3600 E53.86557
G1 F600 X94.459 Y77.636 E54.00914
G1 X94.082 Y77.359 E54.03715
G1 X94.06 Y77.348 E54.03862
G1 X94.06 Y75.509 E54.14872
G1 X94.241 Y75.403 E54.16127
G1 X94.331 Y75.341 E54.16782
G1 X94.458 Y75.238 E54.17761
G1 F3600 E50.17761
G0 F4800 X94.514 Y79.556
G0 X95.079 Y79.555
G1 F3600 E54.17761
G1 F600 X95.083 Y79.559 E54.17794
G1 X95.179 Y79.579 E54.18382
G1 X97.377 Y79.579 E54.31541
G1 X97.377 Y79.739 E54.32498
G1 X97.416 Y79.87 E54.33317
G1 X97.521 Y79.959 E54.34141
G1 X97.617 Y79.979 E54.34728
G1 X104.076 Y79.979 E54.73397
G1 X104.207 Y79.94 E54.74215
G1 X104.296 Y79.835 E54.75039
G1 X104.316 Y79.739 E54.75626
G1 X104.316 Y79.579 E54.76584
G1 X106.513 Y79.579 E54.89737
G1 X106.612 Y79.55 E54.90355
G1 X106.612 Y79.699 E54.91247
G1 X106.374 Y79.699 E54.92672
G1 X106.357 Y79.7 E54.92774
G1 X105.996 Y79.726 E54.9494
G1 X105.974 Y79.728 E54.95073
G1 X105.71 Y79.772 E54.96675
G1 X105.671 Y79.782 E54.96916
G1 X105.238 Y79.931 E54.99658
G1 X105.194 Y79.951 E54.99947
G1 X104.847 Y80.156 E55.0236
G1 X104.808 Y80.185 E55.02651
G1 X104.514 Y80.451 E55.05024
G1 X104.482 Y80.487 E55.05313
G1 X104.246 Y80.808 E55.07698
G1 X104.222 Y80.848 E55.07977
G1 X104.066 Y81.18 E55.10173
G1 X104.053 Y81.215 E55.10397
G1 X103.955 Y81.55 E55.12487
G1 X103.947 Y81.583 E55.1269
G1 X103.904 Y81.88 E55.14486
G1 X103.902 Y81.899 E55.14601
G1 X103.884 Y82.195 E55.16376
G1 X103.884 Y159.699 E59.80379
G1 X97.808 Y159.699 E60.16755
G1 X97.808 Y82.17 E64.80907
G1 X97.807 Y82.154 E64.81003
G1 X97.787 Y81.856 E64.82792
G1 X97.785 Y81.832 E64.82936
G1 X97.728 Y81.495 E64.84982
G1 X97.718 Y81.457 E64.85217
G1 X97.586 Y81.073 E64.87648
G1 X97.567 Y81.031 E64.87924
G1 X97.368 Y80.687 E64.90303
G1 X97.34 Y80.648 E64.90591
