;FLAVOR:Marlin
;TIME:921
;Filament used: 0.601485m
;Layer height: 0.2
;MINX:95.286
;MINY:98.8
;MINZ:0.3
;MAXX:139.715
;MAXY:136.2
;MAXZ:14.7
;TARGET_MACHINE.NAME:BIQU B1
;Generated with Cura_SteamEngine 5.12.0
                                 ; BIQU B1 Start G-code
M117 Getting the bed up to temp!
M140 S60      ; Set Heat Bed temperature
M190 S60      ; Wait for Heat Bed temperature
M117 Getting the extruder up to temp!
M104 S200    ; Set Extruder temperature
G92 E0                           ; Reset Extruder
M117 Homing axes
G28                              ; Home all axes
M109 S200    ; Wait for Extruder temperature
G1 Z2.0 F3000                    ; Move Z Axis up little to prevent scratching of Heat Bed
G1 X4.1 Y20 Z0.3 F5000.0         ; Move to start position
M117 Purging
G1 X4.1 Y200.0 Z0.3 F1500.0 E15  ; Draw the first line
G1 X4.4 Y200.0 Z0.3 F5000.0      ; Move to side a little
G1 X4.4 Y20 Z0.3 F1500.0 E30     ; Draw the second line
G92 E0                           ; Reset Extruder
M117 Lets make
G1 Z2.0 F3000                    ; Move Z Axis up little to prevent scratching of Heat Bed
G1 X5 Y20 Z0.3 F5000.0           ; Move over to prevent blob squish
M82 ;absolute extrusion mode
G92 E0
G92 E0
G1 F3600 E-4
;LAYER_COUNT:61
;LAYER:0
M107
G0 F4800 X98.748 Y101.922 Z0.3
;TYPE:SKIRT
G1 F3600 E0
G1 F600 X99.559 Y101.216 E0.06437
G1 X100.291 Y100.685 E0.11851
G1 X101.177 Y100.154 E0.18035
G1 X102.107 Y99.706 E0.24215
G1 X103.033 Y99.359 E0.30136
G1 X103.985 Y99.094 E0.36052
G1 X104.875 Y98.927 E0.41473
G1 X106.188 Y98.813 E0.49363
G1 X106.796 Y98.8 E0.53004
G1 X127.82 Y98.8 E1.78871
G1 X128.709 Y98.813 E1.84194
G1 X129.696 Y98.874 E1.90114
G1 X130.674 Y99.022 E1.96036
G1 X131.554 Y99.233 E2.01454
G1 X132.574 Y99.575 E2.07894
G1 X133.403 Y99.938 E2.13312
G1 X134.346 Y100.455 E2.19751
G1 X135.165 Y101.007 E2.25664
G1 X135.935 Y101.63 E2.31594
G1 X136.587 Y102.257 E2.37009
G1 X137.238 Y103 E2.42923
G1 X137.871 Y103.87 E2.49364
G1 X138.376 Y104.72 E2.55284
G1 X138.805 Y105.611 E2.61204
G1 X139.127 Y106.457 E2.66623
G1 X139.418 Y107.492 E2.7306
G1 X139.586 Y108.381 E2.78476
G1 X139.701 Y109.703 E2.86421
G1 X139.714 Y110.33 E2.90175
G1 X139.715 Y124.284 E3.73716
G1 X139.703 Y125.26 E3.79559
G1 X139.645 Y126.163 E3.84976
G1 X139.481 Y127.226 E3.91416
G1 X139.24 Y128.185 E3.97336
G1 X138.932 Y129.081 E4.03008
G1 X138.511 Y130.024 E4.0919
G1 X138.029 Y130.886 E4.15103
G1 X137.522 Y131.636 E4.20523
G1 X136.842 Y132.471 E4.2697
G1 X136.149 Y133.177 E4.32893
G1 X135.398 Y133.818 E4.38804
G1 X134.663 Y134.346 E4.44222
G1 X133.775 Y134.872 E4.50401
G1 X132.843 Y135.316 E4.56581
G1 X131.955 Y135.646 E4.62253
G1 X131.042 Y135.899 E4.67925
G1 X129.975 Y136.091 E4.74415
G1 X128.809 Y136.186 E4.81419
G1 X128.257 Y136.198 E4.84725
G1 X107.18 Y136.2 E6.10909
G1 X106.291 Y136.187 E6.16232
G1 X105.304 Y136.126 E6.22152
G1 X104.326 Y135.978 E6.28074
G1 X103.446 Y135.767 E6.33491
G1 X102.426 Y135.425 E6.39932
G1 X101.597 Y135.062 E6.4535
G1 X100.654 Y134.545 E6.51789
G1 X99.835 Y133.993 E6.57701
G1 X99.065 Y133.37 E6.63631
G1 X98.413 Y132.743 E6.69047
G1 X97.762 Y132 E6.74961
G1 X97.129 Y131.13 E6.81402
G1 X96.624 Y130.28 E6.87321
G1 X96.195 Y129.389 E6.93242
G1 X95.873 Y128.543 E6.98661
G1 X95.582 Y127.508 E7.05098
G1 X95.414 Y126.619 E7.10514
G1 X95.299 Y125.287 E7.18518
G1 X95.286 Y124.658 E7.22285
G1 X95.287 Y110.505 E8.07016
G1 X95.299 Y109.797 E8.11255
G1 X95.361 Y108.809 E8.17182
G1 X95.51 Y107.833 E8.23093
G1 X95.721 Y106.953 E8.28511
G1 X96.064 Y105.933 E8.34953
G1 X96.427 Y105.104 E8.40371
G1 X96.922 Y104.199 E8.46547
G1 X97.498 Y103.342 E8.52729
G1 X98.12 Y102.574 E8.58645
G1 X98.748 Y101.922 E8.64065
G0 F4800 X99.094 Y102.255
G1 F600 X99.841 Y101.605 E8.69993
G1 X100.573 Y101.074 E8.75407
G1 X101.423 Y100.566 E8.81336
G1 X102.276 Y100.155 E8.87004
G1 X103.162 Y99.821 E8.92673
G1 X104.074 Y99.566 E8.98342
G1 X104.964 Y99.399 E9.03764
G1 X106.198 Y99.293 E9.11178
G1 X106.806 Y99.28 E9.14819
G1 X127.813 Y99.28 E10.40585
G1 X128.68 Y99.292 E10.45776
G1 X129.625 Y99.349 E10.51443
G1 X130.562 Y99.489 E10.57115
G1 X131.442 Y99.7 E10.62533
G1 X132.381 Y100.015 E10.68463
G1 X133.21 Y100.378 E10.73881
G1 X134.078 Y100.853 E10.79804
G1 X134.864 Y101.381 E10.85473
G1 X135.602 Y101.976 E10.91149
G1 X136.254 Y102.603 E10.96564
G1 X136.877 Y103.316 E11.02233
G1 X137.459 Y104.116 E11.08155
G1 X137.944 Y104.929 E11.13823
G1 X138.356 Y105.782 E11.19494
G1 X138.678 Y106.628 E11.24914
G1 X138.946 Y107.581 E11.3084
G1 X139.114 Y108.47 E11.36257
G1 X139.221 Y109.713 E11.43726
G1 X139.234 Y110.33 E11.47421
G1 X139.235 Y124.278 E12.30925
G1 X139.224 Y125.229 E12.36619
G1 X139.166 Y126.132 E12.42036
G1 X139.015 Y127.11 E12.4796
G1 X138.786 Y128.029 E12.53631
G1 X138.478 Y128.925 E12.59303
G1 X138.092 Y129.79 E12.64974
G1 X137.631 Y130.617 E12.70642
G1 X137.124 Y131.367 E12.76062
G1 X136.499 Y132.135 E12.8199
G1 X135.837 Y132.812 E12.87659
G1 X135.118 Y133.428 E12.93327
G1 X134.383 Y133.956 E12.98745
G1 X133.531 Y134.459 E13.04668
G1 X132.675 Y134.866 E13.10343
G1 X131.827 Y135.183 E13.15763
G1 X130.914 Y135.436 E13.21435
G1 X129.936 Y135.613 E13.27385
G1 X128.798 Y135.706 E13.34221
G1 X128.257 Y135.718 E13.3746
G1 X107.187 Y135.72 E14.63603
G1 X106.32 Y135.708 E14.68794
G1 X105.375 Y135.651 E14.74462
G1 X104.438 Y135.511 E14.80134
G1 X103.558 Y135.3 E14.85551
G1 X102.619 Y134.985 E14.91481
G1 X101.79 Y134.622 E14.96899
G1 X100.922 Y134.147 E15.02823
G1 X100.136 Y133.619 E15.08491
G1 X99.398 Y133.024 E15.14167
G1 X98.746 Y132.397 E15.19582
G1 X98.123 Y131.684 E15.25251
G1 X97.541 Y130.884 E15.31174
G1 X97.056 Y130.071 E15.36841
G1 X96.644 Y129.218 E15.42512
G1 X96.322 Y128.372 E15.47932
G1 X96.054 Y127.419 E15.53858
G1 X95.886 Y126.53 E15.59275
G1 X95.779 Y125.277 E15.66804
G1 X95.766 Y124.658 E15.7051
G1 X95.767 Y110.513 E16.55194
G1 X95.778 Y109.826 E16.59308
G1 X95.836 Y108.881 E16.64976
G1 X95.977 Y107.945 E16.70643
G1 X96.188 Y107.065 E16.7606
G1 X96.504 Y106.126 E16.81992
G1 X96.867 Y105.297 E16.8741
G1 X97.343 Y104.43 E16.93331
G1 X97.871 Y103.644 E16.99
G1 X98.466 Y102.907 E17.04671
G1 X99.094 Y102.255 E17.1009
G0 F4800 X99.44 Y102.588
G1 F600 X100.123 Y101.994 E17.15509
G1 X100.855 Y101.463 E17.20923
G1 X101.632 Y100.998 E17.26345
G1 X102.446 Y100.604 E17.31759
G1 X103.292 Y100.283 E17.37176
G1 X104.163 Y100.038 E17.42593
G1 X105.053 Y99.871 E17.48014
G1 X106.208 Y99.773 E17.54954
G1 X106.816 Y99.76 E17.58594
G1 X127.807 Y99.76 E18.84264
G1 X128.652 Y99.771 E18.89323
G1 X129.555 Y99.824 E18.94739
G1 X130.45 Y99.956 E19.00155
G1 X131.33 Y100.167 E19.05572
G1 X132.188 Y100.455 E19.10991
G1 X133.017 Y100.818 E19.16409
G1 X133.811 Y101.252 E19.21826
G1 X134.563 Y101.755 E19.27243
G1 X135.269 Y102.322 E19.32664
G1 X135.921 Y102.949 E19.38079
G1 X136.515 Y103.631 E19.43494
G1 X137.047 Y104.363 E19.48911
G1 X137.512 Y105.139 E19.54327
G1 X137.907 Y105.953 E19.59744
G1 X138.229 Y106.799 E19.65163
G1 X138.474 Y107.67 E19.7058
G1 X138.642 Y108.559 E19.75997
G1 X138.741 Y109.723 E19.8299
G1 X138.754 Y110.33 E19.86625
G1 X138.755 Y124.273 E20.70099
G1 X138.745 Y125.198 E20.75638
G1 X138.687 Y126.101 E20.81055
G1 X138.549 Y126.995 E20.8647
G1 X138.332 Y127.874 E20.91891
G1 X138.039 Y128.73 E20.97308
G1 X137.672 Y129.557 E21.02724
G1 X137.233 Y130.348 E21.0814
G1 X136.726 Y131.098 E21.1356
G1 X136.155 Y131.8 E21.18978
G1 X135.524 Y132.448 E21.24392
G1 X134.838 Y133.038 E21.29809
G1 X134.103 Y133.566 E21.35227
G1 X133.324 Y134.026 E21.40644
G1 X132.507 Y134.416 E21.46064
G1 X131.659 Y134.733 E21.51483
G1 X130.787 Y134.973 E21.56898
G1 X129.897 Y135.135 E21.62314
G1 X128.786 Y135.226 E21.68988
G1 X128.25 Y135.239 E21.72197
G1 X107.193 Y135.24 E22.98262
G1 X106.348 Y135.229 E23.03321
G1 X105.445 Y135.176 E23.08737
G1 X104.55 Y135.044 E23.14153
G1 X103.67 Y134.833 E23.19571
G1 X102.812 Y134.545 E23.24989
G1 X101.983 Y134.182 E23.30407
G1 X101.189 Y133.748 E23.35824
G1 X100.437 Y133.245 E23.41241
G1 X99.731 Y132.678 E23.46662
G1 X99.079 Y132.051 E23.52077
G1 X98.485 Y131.369 E23.57492
G1 X97.953 Y130.637 E23.62909
G1 X97.488 Y129.861 E23.68325
G1 X97.093 Y129.047 E23.73742
G1 X96.771 Y128.201 E23.79161
G1 X96.526 Y127.33 E23.84578
G1 X96.358 Y126.441 E23.89995
G1 X96.259 Y125.267 E23.97048
G1 X96.246 Y124.658 E24.00695
G1 X96.247 Y110.52 E24.85337
G1 X96.257 Y109.855 E24.89318
G1 X96.311 Y108.952 E24.94734
G1 X96.444 Y108.057 E25.00151
G1 X96.655 Y107.177 E25.05569
G1 X96.944 Y106.319 E25.10989
G1 X97.307 Y105.49 E25.16407
G1 X97.742 Y104.697 E25.21822
G1 X98.245 Y103.945 E25.27239
G1 X98.812 Y103.24 E25.32655
G1 X99.44 Y102.588 E25.38075
G1 F3600 E21.38075
;MESH:Bird_House-Suporte_TelhadoPad004.obj
G0 F4800 X106.91 Y109.335
G0 X106.91 Y110.424
G0 X127.1 Y111.412
G0 X127.312 Y123.8
;TYPE:WALL-INNER
G1 F3600 E25.38075
G1 F600 X127.312 Y111.2 E26.13508
G1 X107.684 Y111.2 E27.31018
G1 X107.684 Y123.8 E28.06452
G1 X126.868 Y123.8 E29.21303
G0 F540 X127.312 Y123.8
G0 F4800 X127.792 Y124.28
G1 F600 X127.792 Y110.72 E30.02484
G1 X107.204 Y110.72 E31.25741
G1 X107.204 Y124.28 E32.06923
G1 X127.348 Y124.28 E33.27521
G0 F540 X127.792 Y124.28
G0 F4800 X128.272 Y124.76
;TYPE:WALL-OUTER
G1 F600 X128.272 Y110.24 E34.1445
G1 X106.724 Y110.24 E35.43454
G1 X106.724 Y124.76 E36.30383
G1 X127.828 Y124.76 E37.56729
G0 F540 X128.272 Y124.76
G0 F4800 X127.635 Y124.12
G0 X127.172 Y123.36
G0 X126.872 Y123.36
;TYPE:SKIN
G1 F600 X108.124 Y123.36 E38.68969
G1 X108.124 Y111.64 E39.39135
G1 X126.872 Y111.64 E40.51376
G1 X126.872 Y123.36 E41.21542
G0 F4800 X127.172 Y123.36
G0 X127.172 Y112.376
G0 X126.632 Y112.376
G1 F600 X126.135 Y111.88 E41.25745
G0 F4800 X125.456 Y111.88
G1 F600 X126.632 Y113.055 E41.35698
G0 F4800 X126.632 Y113.734
G1 F600 X124.777 Y111.88 E41.51399
G0 F4800 X124.099 Y111.88
G1 F600 X126.632 Y114.413 E41.72845
G0 F4800 X126.632 Y115.092
G1 F600 X123.42 Y111.88 E42.0004
G0 F4800 X122.741 Y111.88
G1 F600 X126.632 Y115.77 E42.3298
G0 F4800 X126.632 Y116.449
G1 F600 X122.062 Y111.88 E42.71668
G0 F4800 X121.383 Y111.88
G1 F600 X126.632 Y117.128 E43.16105
G0 F4800 X126.632 Y117.807
G1 F600 X120.705 Y111.88 E43.66287
G0 F4800 X120.026 Y111.88
G1 F600 X126.632 Y118.486 E44.22218
G0 F4800 X126.632 Y119.164
G1 F600 X119.347 Y111.88 E44.83893
G0 F4800 X118.668 Y111.88
G1 F600 X126.632 Y119.843 E45.51317
G0 F4800 X126.632 Y120.522
G1 F600 X117.989 Y111.88 E46.2449
G0 F4800 X117.31 Y111.88
G1 F600 X126.632 Y121.201 E47.03412
G0 F4800 X126.632 Y121.88
G1 F600 X116.632 Y111.88 E47.88079
G0 F4800 X115.953 Y111.88
G1 F600 X126.632 Y122.559 E48.78494
G0 F4800 X126.514 Y123.12
G1 F600 X115.274 Y111.88 E49.73659
G0 F4800 X114.595 Y111.88
G1 F600 X125.835 Y123.12 E50.68824
G0 F4800 X125.156 Y123.12
G1 F600 X113.916 Y111.88 E51.63989
G0 F4800 X113.237 Y111.88
G1 F600 X124.478 Y123.12 E52.59159
G0 F4800 X123.799 Y123.12
G1 F600 X112.559 Y111.88 E53.54324
G0 F4800 X111.88 Y111.88
G1 F600 X123.12 Y123.12 E54.49489
G0 F4800 X122.441 Y123.12
G1 F600 X111.201 Y111.88 E55.44654
G0 F4800 X110.522 Y111.88
G1 F600 X121.762 Y123.12 E56.39819
G0 F4800 X121.084 Y123.12
G1 F600 X109.843 Y111.88 E57.34988
G0 F4800 X109.165 Y111.88
G1 F600 X120.405 Y123.12 E58.30154
G0 F4800 X119.726 Y123.12
G1 F600 X108.486 Y111.88 E59.25319
G0 F4800 X108.364 Y112.437
G1 F600 X119.047 Y123.12 E60.15768
G0 F4800 X118.368 Y123.12
G1 F600 X108.364 Y113.116 E61.00468
G0 F4800 X108.364 Y113.795
G1 F600 X117.689 Y123.12 E61.7942
G0 F4800 X117.011 Y123.12
G1 F600 X108.364 Y114.474 E62.52627
G0 F4800 X108.364 Y115.152
G1 F600 X116.332 Y123.12 E63.20089
G0 F4800 X115.653 Y123.12
G1 F600 X108.364 Y115.831 E63.81802
G0 F4800 X108.364 Y116.51
G1 F600 X114.974 Y123.12 E64.37767
G0 F4800 X114.295 Y123.12
G1 F600 X108.364 Y117.189 E64.87983
G0 F4800 X108.364 Y117.868
G1 F600 X113.617 Y123.12 E65.32454
G0 F4800 X112.938 Y123.12
G1 F600 X108.364 Y118.546 E65.7118
G0 F4800 X108.364 Y119.225
M104 S190
G1 F600 X112.259 Y123.12 E66.04158
G0 F4800 X111.58 Y123.12
G1 F600 X108.364 Y119.904 E66.31386
G0 F4800 X108.364 Y120.583
G1 F600 X110.901 Y123.12 E66.52866
G0 F4800 X110.222 Y123.12
G1 F600 X108.364 Y121.262 E66.68597
G0 F4800 X108.364 Y121.941
G1 F600 X109.544 Y123.12 E66.78584
G0 F4800 X108.865 Y123.12
G1 F600 X108.364 Y122.619 E66.82825
G0 F4800 X107.776 Y122.619
G1 F3600 E62.82825
;MESH:NONMESH
G0 F300 Z0.54
G0 F4800 X106.91 Y110.424
G0 X106.91 Y109.335
G0 X99.44 Y102.588
;TIME_ELAPSED:121.753566
;LAYER:1
M106 S127.5
;TYPE:SKIRT
G1 F3600 E66.82825
G1 F600 X100.123 Y101.994 E66.86438
G1 X100.855 Y101.463 E66.90048
G1 X101.632 Y100.998 E66.93662
G1 X102.446 Y100.604 E66.97271
G1 X103.292 Y100.283 E67.00882
G1 X104.163 Y100.038 E67.04494
G1 X105.053 Y99.871 E67.08108
G1 X106.208 Y99.773 E67.12734
G1 X106.816 Y99.76 E67.15162
G1 X127.807 Y99.76 E67.98941
G1 X128.652 Y99.771 E68.02314
G1 X129.555 Y99.824 E68.05924
G1 X130.45 Y99.956 E68.09535
G1 X131.33 Y100.167 E68.13147
G1 X132.188 Y100.455 E68.16759
G1 X133.017 Y100.818 E68.20371
G1 X133.811 Y101.252 E68.23983
G1 X134.563 Y101.755 E68.27594
G1 X135.269 Y102.322 E68.31208
G1 X135.921 Y102.949 E68.34818
G1 X136.515 Y103.631 E68.38428
G1 X137.047 Y104.363 E68.42039
G1 X137.512 Y105.139 E68.4565
G1 X137.907 Y105.953 E68.49261
G1 X138.229 Y106.799 E68.52874
G1 X138.474 Y107.67 E68.56485
G1 X138.642 Y108.559 E68.60096
G1 X138.741 Y109.723 E68.64759
G1 X138.754 Y110.33 E68.67182
G1 X138.755 Y124.273 E69.22832
G1 X138.745 Y125.198 E69.26524
G1 X138.687 Y126.101 E69.30135
G1 X138.549 Y126.995 E69.33746
G1 X138.332 Y127.874 E69.37359
G1 X138.039 Y128.73 E69.4097
G1 X137.672 Y129.557 E69.44581
G1 X137.233 Y130.348 E69.48192
G1 X136.726 Y131.098 E69.51805
G1 X136.155 Y131.8 E69.55417
G1 X135.524 Y132.448 E69.59027
G1 X134.838 Y133.038 E69.62638
G1 X134.103 Y133.566 E69.6625
G1 X133.324 Y134.026 E69.69861
G1 X132.507 Y134.416 E69.73474
G1 X131.659 Y134.733 E69.77088
G1 X130.787 Y134.973 E69.80697
G1 X129.897 Y135.135 E69.84308
G1 X128.786 Y135.226 E69.88757
G1 X128.25 Y135.239 E69.90897
G1 X107.193 Y135.24 E70.7494
G1 X106.348 Y135.229 E70.78313
G1 X105.445 Y135.176 E70.81923
G1 X104.55 Y135.044 E70.85534
G1 X103.67 Y134.833 E70.89146
G1 X102.812 Y134.545 E70.92758
G1 X101.983 Y134.182 E70.9637
G1 X101.189 Y133.748 E70.99981
G1 X100.437 Y133.245 E71.03592
G1 X99.731 Y132.678 E71.07206
G1 X99.079 Y132.051 E71.10817
G1 X98.485 Y131.369 E71.14426
G1 X97.953 Y130.637 E71.18038
G1 X97.488 Y129.861 E71.21649
G1 X97.093 Y129.047 E71.2526
G1 X96.771 Y128.201 E71.28873
G1 X96.526 Y127.33 E71.32484
G1 X96.358 Y126.441 E71.36095
G1 X96.259 Y125.267 E71.40797
G1 X96.246 Y124.658 E71.43229
G1 X96.247 Y110.52 E71.99656
G1 X96.257 Y109.855 E72.02311
G1 X96.311 Y108.952 E72.05921
G1 X96.444 Y108.057 E72.09533
G1 X96.655 Y107.177 E72.13145
G1 X96.944 Y106.319 E72.16758
G1 X97.307 Y105.49 E72.2037
G1 X97.742 Y104.697 E72.2398
G1 X98.245 Y103.945 E72.27591
G1 X98.812 Y103.24 E72.31202
G1 X99.44 Y102.588 E72.34815
G1 F3600 E68.34815
;MESH:Bird_House-Suporte_TelhadoPad004.obj
G0 F4800 X107.089 Y109.335
G0 X107.089 Y110.424
G0 X127.16 Y111.172
G0 X127.335 Y124
;TYPE:WALL-INNER
G1 F3600 E72.34815
G1 F975 X127.332 Y111 E72.86701
G1 X107.664 Y111 E73.652
G1 X107.664 Y124 E74.17086
G1 X126.668 Y124 E74.92935
G0 F877.5 X127.335 Y124
G0 F4800 X127.735 Y124.4
G1 F975 X127.732 Y110.6 E75.48014
G1 X107.264 Y110.6 E76.29706
G1 X107.264 Y124.4 E76.84785
G1 X127.068 Y124.4 E77.63827
G0 F877.5 X127.735 Y124.4
G0 F4800 X128.135 Y124.8
;TYPE:WALL-OUTER
G1 F975 X128.132 Y110.2 E78.22098
G1 X106.864 Y110.2 E79.06984
G1 X106.864 Y124.8 E79.65255
G1 X127.468 Y124.8 E80.4749
G0 F877.5 X128.135 Y124.8
G1 F3600 E76.4749
G0 F4800 X127.856 Y124.52
G0 X126.972 Y123.9
G0 X126.972 Y123.64
;TYPE:SKIN
G1 F3600 E80.4749
G1 F975 X108.024 Y123.64 E81.23116
G1 X108.024 Y111.36 E81.72128
G1 X126.972 Y111.36 E82.47754
G1 X126.972 Y123.64 E82.96766
G0 F4800 X126.772 Y123.261
G1 F975 X126.593 Y123.44 E82.97776
G0 F4800 X126.027 Y123.44
G1 F975 X126.772 Y122.695 E83.01981
G0 F4800 X126.772 Y122.129
G1 F975 X125.461 Y123.44 E83.09381
G0 F4800 X124.896 Y123.44
G1 F975 X126.772 Y121.564 E83.1997
G0 F4800 X126.772 Y120.998
