;FLAVOR:Marlin
;TIME:3270
;Filament used: 1.45745m
;Layer height: 0.2
;MINX:100.398
;MINY:112.374
;MINZ:0.3
;MAXX:142.78
;MAXY:154.751
;MAXZ:64.86
;TARGET_MACHINE.NAME:BIQU B1
;Generated with Cura_SteamEngine 5.12.0
                                 ; BIQU B1 Start G-code
M117 Getting the bed up to temp!
M140 S60      ; Set Heat Bed temperature
M190 S60      ; Wait for Heat Bed temperature
M117 Getting the extruder up to temp!
M104 S200    ; Set Extruder temperature
G92 E0                           ; Reset Extruder
M117 Homing axes
G28                              ; Home all axes
M109 S200    ; Wait for Extruder temperature
G1 Z2.0 F3000                    ; Move Z Axis up little to prevent scratching of Heat Bed
G1 X4.1 Y20 Z0.3 F5000.0         ; Move to start position
M117 Purging
G1 X4.1 Y200.0 Z0.3 F1500.0 E15  ; Draw the first line
G1 X4.4 Y200.0 Z0.3 F5000.0      ; Move to side a little
G1 X4.4 Y20 Z0.3 F1500.0 E30     ; Draw the second line
G92 E0                           ; Reset Extruder
M117 Lets make
G1 Z2.0 F3000                    ; Move Z Axis up little to prevent scratching of Heat Bed
G1 X5 Y20 Z0.3 F5000.0           ; Move over to prevent blob squish
M82 ;absolute extrusion mode
G92 E0
G92 E0
G1 F3600 E-4
;LAYER_COUNT:270
;LAYER:0
M107
G0 F4800 X107.241 Y117.965 Z0.3
;TYPE:SKIRT
G1 F3600 E0
G1 F600 X107.988 Y117.311 E0.05944
G1 X108.636 Y116.787 E0.10933
G1 X108.931 Y116.563 E0.13151
G1 X109.639 Y116.062 E0.18343
G1 X110.125 Y115.738 E0.2184
G1 X110.584 Y115.452 E0.25078
G1 X111.297 Y115.035 E0.30023
G1 X111.973 Y114.677 E0.34602
G1 X112.445 Y114.444 E0.37754
G1 X112.911 Y114.228 E0.40829
G1 X113.394 Y114.018 E0.43982
G1 X113.881 Y113.821 E0.47127
G1 X114.387 Y113.631 E0.50363
G1 X115.423 Y113.286 E0.569
G1 X116.4 Y113.014 E0.62972
G1 X117.192 Y112.828 E0.67842
G1 X118.001 Y112.675 E0.72771
G1 X118.517 Y112.593 E0.75899
G1 X119.265 Y112.496 E0.80415
G1 X120.048 Y112.425 E0.85122
G1 X120.58 Y112.392 E0.88313
G1 X121.126 Y112.374 E0.91584
G1 X122.169 Y112.376 E0.97828
G1 X122.729 Y112.399 E1.01183
G1 X123.76 Y112.479 E1.07374
G1 X124.224 Y112.533 E1.10171
G1 X124.834 Y112.618 E1.13858
G1 X125.316 Y112.699 E1.16784
G1 X126.309 Y112.901 E1.22851
G1 X126.783 Y113.013 E1.25767
G1 X127.345 Y113.164 E1.29251
G1 X128.37 Y113.483 E1.35678
G1 X128.876 Y113.66 E1.38887
G1 X129.376 Y113.851 E1.42091
G1 X129.914 Y114.071 E1.45571
G1 X130.816 Y114.482 E1.51505
G1 X131.282 Y114.715 E1.54625
G1 X131.77 Y114.974 E1.57932
G1 X132.668 Y115.495 E1.64148
G1 X133.297 Y115.894 E1.68607
G1 X134.004 Y116.385 E1.7376
G1 X134.441 Y116.709 E1.77017
G1 X134.953 Y117.112 E1.80918
G1 X135.645 Y117.701 E1.86359
G1 X136.035 Y118.055 E1.89512
G1 X136.438 Y118.441 E1.92853
G1 X137.139 Y119.162 E1.98873
G1 X137.523 Y119.589 E2.02311
G1 X138.178 Y120.374 E2.08432
G1 X138.496 Y120.785 E2.11543
G1 X138.823 Y121.228 E2.14839
G1 X139.408 Y122.09 E2.21076
G1 X139.701 Y122.559 E2.24387
G1 X139.978 Y123.028 E2.27648
G1 X140.277 Y123.565 E2.31328
G1 X140.709 Y124.422 E2.37073
G1 X141.133 Y125.368 E2.4328
G1 X141.346 Y125.894 E2.46677
G1 X141.527 Y126.382 E2.49793
G1 X141.846 Y127.336 E2.55816
G1 X142.003 Y127.874 E2.59171
G1 X142.143 Y128.406 E2.62464
G1 X142.366 Y129.389 E2.68499
G1 X142.466 Y129.925 E2.71763
G1 X142.551 Y130.451 E2.74953
G1 X142.62 Y130.965 E2.78058
G1 X142.679 Y131.498 E2.81268
G1 X142.727 Y132.061 E2.84651
G1 X142.77 Y132.853 E2.894
G1 X142.78 Y133.421 E2.92801
G1 X142.777 Y133.932 E2.9586
G1 X142.751 Y134.666 E3.00257
G1 X142.715 Y135.221 E3.03587
G1 X142.669 Y135.731 E3.06652
G1 X142.529 Y136.813 E3.13184
G1 X142.435 Y137.374 E3.1659
G1 X142.233 Y138.336 E3.22475
G1 X142.113 Y138.829 E3.25512
G1 X141.976 Y139.337 E3.28662
G1 X141.822 Y139.86 E3.31926
G1 X141.658 Y140.365 E3.35105
G1 X141.486 Y140.854 E3.38208
G1 X141.117 Y141.793 E3.44249
G1 X140.895 Y142.298 E3.47551
G1 X140.668 Y142.784 E3.50762
G1 X140.428 Y143.264 E3.53975
G1 X140.178 Y143.735 E3.57168
G1 X139.908 Y144.214 E3.6046
G1 X139.625 Y144.685 E3.63749
G1 X139.009 Y145.629 E3.70498
G1 X138.461 Y146.382 E3.76073
G1 X138.116 Y146.825 E3.79435
G1 X137.461 Y147.601 E3.85514
G1 X136.729 Y148.387 E3.91944
G1 X136.346 Y148.769 E3.95183
G1 X135.952 Y149.141 E3.98427
G1 X135.581 Y149.475 E4.01416
G1 X135.168 Y149.828 E4.04668
G1 X134.353 Y150.478 E4.10909
G1 X133.559 Y151.044 E4.16747
G1 X133.028 Y151.398 E4.20568
G1 X132.156 Y151.928 E4.26677
G1 X131.652 Y152.21 E4.30134
G1 X130.746 Y152.67 E4.36218
G1 X130.082 Y152.976 E4.40595
G1 X129.293 Y153.301 E4.45703
G1 X128.3 Y153.66 E4.52025
G1 X127.312 Y153.964 E4.58213
G1 X126.794 Y154.102 E4.61423
G1 X126.232 Y154.237 E4.64883
G1 X125.263 Y154.431 E4.70799
G1 X124.724 Y154.518 E4.74068
G1 X124.135 Y154.597 E4.77626
G1 X123.15 Y154.694 E4.83551
G1 X122.083 Y154.745 E4.89947
G1 X121.54 Y154.751 E4.93198
G1 X121.009 Y154.744 E4.96377
G1 X120.456 Y154.721 E4.99691
G1 X119.945 Y154.687 E5.02757
G1 X119.403 Y154.637 E5.06015
G1 X118.405 Y154.51 E5.12038
G1 X117.878 Y154.423 E5.15236
G1 X117.302 Y154.313 E5.18747
G1 X116.312 Y154.083 E5.24832
G1 X115.313 Y153.799 E5.31049
G1 X114.696 Y153.596 E5.34938
G1 X113.789 Y153.262 E5.40725
G1 X113.293 Y153.059 E5.43933
G1 X112.623 Y152.761 E5.48323
G1 X111.836 Y152.371 E5.53582
G1 X110.99 Y151.909 E5.59352
G1 X110.509 Y151.623 E5.62703
G1 X110.021 Y151.313 E5.66164
G1 X109.193 Y150.747 E5.72168
G1 X108.749 Y150.418 E5.75477
G1 X107.999 Y149.82 E5.8122
G1 X107.547 Y149.43 E5.84794
G1 X107.13 Y149.05 E5.88171
G1 X106.392 Y148.33 E5.94344
G1 X105.964 Y147.874 E5.98088
G1 X105.331 Y147.151 E6.03841
G1 X104.971 Y146.708 E6.07259
G1 X104.364 Y145.902 E6.13299
G1 X104.037 Y145.432 E6.16727
G1 X103.738 Y144.98 E6.19972
G1 X103.367 Y144.38 E6.24195
G1 X102.962 Y143.663 E6.29125
G1 X102.718 Y143.198 E6.32269
G1 X102.473 Y142.701 E6.35586
G1 X102.246 Y142.212 E6.38814
G1 X102.04 Y141.738 E6.41908
G1 X101.845 Y141.254 E6.45032
G1 X101.572 Y140.516 E6.49743
G1 X101.326 Y139.759 E6.54508
G1 X101.04 Y138.731 E6.60896
G1 X100.813 Y137.73 E6.67041
G1 X100.713 Y137.194 E6.70306
G1 X100.628 Y136.668 E6.73495
G1 X100.559 Y136.154 E6.766
G1 X100.5 Y135.621 E6.79811
G1 X100.452 Y135.061 E6.83176
G1 X100.421 Y134.546 E6.86264
G1 X100.404 Y134.028 E6.89367
G1 X100.398 Y133.384 E6.93223
G1 X100.431 Y132.388 E6.99189
G1 X100.508 Y131.408 E7.05074
G1 X100.571 Y130.87 E7.08317
G1 X100.645 Y130.348 E7.11474
G1 X100.737 Y129.799 E7.14806
G1 X100.946 Y128.777 E7.21051
G1 X101.062 Y128.299 E7.23996
G1 X101.204 Y127.773 E7.27258
G1 X101.523 Y126.747 E7.3369
G1 X101.794 Y125.997 E7.38465
G1 X102.086 Y125.275 E7.43127
G1 X102.516 Y124.327 E7.49359
G1 X102.761 Y123.839 E7.52628
G1 X103.119 Y123.169 E7.57176
G1 X103.511 Y122.508 E7.61777
G1 X103.814 Y122.021 E7.65211
G1 X104.315 Y121.283 E7.70551
G1 X104.721 Y120.733 E7.74644
G1 X105.053 Y120.308 E7.77873
G1 X105.402 Y119.884 E7.8116
G1 X106.074 Y119.125 E7.87229
G1 X106.44 Y118.743 E7.90397
G1 X107.241 Y117.965 E7.97082
G0 F4800 X107.558 Y118.326
G1 F600 X108.29 Y117.684 E8.02911
G1 X108.926 Y117.169 E8.0781
G1 X109.208 Y116.955 E8.0993
G1 X109.906 Y116.461 E8.15049
G1 X110.379 Y116.145 E8.18455
G1 X110.826 Y115.866 E8.21609
G1 X111.522 Y115.459 E8.26436
G1 X112.185 Y115.107 E8.3093
G1 X112.647 Y114.879 E8.34015
G1 X113.102 Y114.668 E8.37017
G1 X113.574 Y114.463 E8.40098
G1 X114.05 Y114.27 E8.43173
G1 X114.539 Y114.086 E8.46301
G1 X115.552 Y113.748 E8.52694
G1 X116.51 Y113.481 E8.58648
G1 X117.281 Y113.3 E8.6339
G1 X118.077 Y113.149 E8.6824
G1 X118.579 Y113.069 E8.71284
G1 X119.308 Y112.974 E8.75685
G1 X120.078 Y112.904 E8.80314
G1 X120.596 Y112.872 E8.83421
G1 X121.125 Y112.854 E8.8659
G1 X122.15 Y112.856 E8.92726
G1 X122.692 Y112.878 E8.95974
G1 X123.705 Y112.956 E9.02056
G1 X124.158 Y113.008 E9.04786
G1 X124.755 Y113.091 E9.08395
G1 X125.22 Y113.169 E9.11217
G1 X126.198 Y113.368 E9.17193
G1 X126.658 Y113.477 E9.20023
G1 X127.22 Y113.628 E9.23507
G1 X128.211 Y113.936 E9.2972
G1 X128.705 Y114.109 E9.32853
G1 X129.194 Y114.295 E9.35985
G1 X129.715 Y114.508 E9.39355
G1 X130.602 Y114.912 E9.4519
G1 X131.057 Y115.139 E9.48234
G1 X131.529 Y115.389 E9.51432
G1 X132.411 Y115.9 E9.57535
G1 X133.024 Y116.289 E9.61881
G1 X133.718 Y116.77 E9.66936
G1 X134.145 Y117.087 E9.7012
G1 X134.642 Y117.477 E9.73902
G1 X135.322 Y118.056 E9.79249
G1 X135.703 Y118.402 E9.82331
G1 X136.094 Y118.776 E9.8557
G1 X136.782 Y119.483 E9.91476
G1 X137.154 Y119.897 E9.94808
G1 X137.809 Y120.682 E10.00929
G1 X138.11 Y121.07 E10.03869
G1 X138.426 Y121.498 E10.07054
G1 X139.001 Y122.345 E10.13183
G1 X139.288 Y122.803 E10.16419
G1 X139.559 Y123.262 E10.1961
G1 X139.848 Y123.781 E10.23166
G1 X140.271 Y124.619 E10.28786
G1 X140.688 Y125.548 E10.34882
G1 X140.896 Y126.061 E10.38196
G1 X141.072 Y126.534 E10.41218
G1 X141.385 Y127.471 E10.47132
G1 X141.539 Y127.997 E10.50414
G1 X141.675 Y128.512 E10.53602
G1 X141.894 Y129.477 E10.59527
G1 X141.992 Y130.002 E10.62724
G1 X142.075 Y130.515 E10.65835
G1 X142.143 Y131.018 E10.68874
G1 X142.201 Y131.539 E10.72012
G1 X142.248 Y132.087 E10.75305
G1 X142.29 Y132.862 E10.79952
G1 X142.3 Y133.418 E10.83281
G1 X142.297 Y133.915 E10.86256
G1 X142.272 Y134.635 E10.9057
G1 X142.237 Y135.178 E10.93827
G1 X142.192 Y135.675 E10.96815
G1 X142.132 Y136.189 E10.99913
G1 X142.055 Y136.734 E11.03208
G1 X141.965 Y137.276 E11.06497
G1 X141.767 Y138.223 E11.1229
G1 X141.65 Y138.704 E11.15253
G1 X141.516 Y139.201 E11.18335
G1 X141.365 Y139.712 E11.21525
G1 X141.205 Y140.206 E11.24634
G1 X141.039 Y140.678 E11.27629
G1 X140.67 Y141.617 E11.33669
G1 X140.46 Y142.095 E11.36795
G1 X140.238 Y142.57 E11.39934
G1 X140.004 Y143.039 E11.43072
G1 X139.76 Y143.499 E11.46189
G1 X139.496 Y143.967 E11.49406
G1 X139.223 Y144.423 E11.52588
G1 X138.621 Y145.347 E11.5919
G1 X138.083 Y146.087 E11.64668
G1 X137.749 Y146.515 E11.67918
G1 X137.094 Y147.291 E11.73997
G1 X136.39 Y148.047 E11.80182
G1 X136.016 Y148.42 E11.83344
G1 X135.631 Y148.784 E11.86516
G1 X135.269 Y149.11 E11.89433
G1 X134.868 Y149.453 E11.92592
G1 X134.074 Y150.087 E11.98675
G1 X133.28 Y150.653 E12.04513
G1 X132.778 Y150.988 E12.08126
G1 X131.922 Y151.509 E12.14125
G1 X131.434 Y151.782 E12.17473
G1 X130.545 Y152.234 E12.23443
G1 X129.899 Y152.532 E12.27703
G1 X129.11 Y152.857 E12.32811
G1 X128.159 Y153.201 E12.38866
G1 X127.188 Y153.5 E12.44948
G1 X126.682 Y153.635 E12.48084
G1 X126.137 Y153.766 E12.51439
G1 X125.187 Y153.957 E12.57241
G1 X124.66 Y154.042 E12.60436
G1 X124.088 Y154.119 E12.63892
G1 X123.103 Y154.216 E12.69817
G1 X122.078 Y154.265 E12.75961
G1 X121.546 Y154.271 E12.79146
G1 X121.029 Y154.264 E12.82242
G1 X120.488 Y154.242 E12.85483
G1 X119.989 Y154.209 E12.88477
G1 X119.464 Y154.161 E12.91633
G1 X118.483 Y154.036 E12.97554
G1 X117.968 Y153.951 E13.00679
G1 X117.41 Y153.845 E13.04079
G1 X116.443 Y153.621 E13.10022
G1 X115.463 Y153.343 E13.1612
G1 X114.862 Y153.146 E13.19907
G1 X113.971 Y152.818 E13.25591
G1 X113.488 Y152.62 E13.28716
G1 X112.836 Y152.331 E13.32986
G1 X112.066 Y151.95 E13.38129
G1 X111.236 Y151.497 E13.4379
G1 X110.766 Y151.217 E13.47065
G1 X110.292 Y150.917 E13.50424
G1 X109.479 Y150.362 E13.56317
G1 X109.048 Y150.042 E13.59531
G1 X108.312 Y149.456 E13.65163
G1 X107.87 Y149.075 E13.68657
G1 X107.465 Y148.707 E13.71933
G1 X106.742 Y148.001 E13.77983
G1 X106.325 Y147.558 E13.81625
G1 X105.703 Y146.848 E13.87276
G1 X105.354 Y146.419 E13.90587
G1 X104.758 Y145.628 E13.96516
G1 X104.437 Y145.167 E13.99879
G1 X104.146 Y144.727 E14.03038
G1 X103.785 Y144.144 E14.07143
G1 X103.387 Y143.44 E14.11984
G1 X103.148 Y142.985 E14.15061
G1 X102.908 Y142.499 E14.18306
G1 X102.686 Y142.021 E14.21462
G1 X102.485 Y141.558 E14.24484
G1 X102.295 Y141.087 E14.27524
G1 X102.029 Y140.368 E14.32114
G1 X101.783 Y139.611 E14.36879
G1 X101.508 Y138.625 E14.43007
G1 X101.285 Y137.642 E14.49042
G1 X101.187 Y137.117 E14.52239
G1 X101.104 Y136.604 E14.55351
G1 X101.036 Y136.101 E14.58389
G1 X100.978 Y135.58 E14.61528
G1 X100.931 Y135.032 E14.64821
G1 X100.901 Y134.53 E14.67831
G1 X100.884 Y134.023 E14.70868
G1 X100.878 Y133.4 E14.74598
G1 X100.91 Y132.425 E14.80439
G1 X100.985 Y131.463 E14.86215
G1 X101.046 Y130.937 E14.89386
G1 X101.118 Y130.427 E14.92469
G1 X101.207 Y129.895 E14.95698
G1 X101.413 Y128.889 E15.01846
G1 X101.525 Y128.424 E15.0471
G1 X101.664 Y127.91 E15.07897
G1 X101.819 Y127.39 E15.11146
G1 X101.975 Y126.91 E15.14167
G1 X102.239 Y126.177 E15.18832
G1 X102.523 Y125.473 E15.23377
G1 X102.945 Y124.542 E15.29496
G1 X103.184 Y124.065 E15.3269
G1 X103.532 Y123.414 E15.3711
G1 X103.919 Y122.762 E15.41649
G1 X104.222 Y122.275 E15.45083
G1 X104.701 Y121.568 E15.50195
G1 X105.1 Y121.028 E15.54215
G1 X105.423 Y120.613 E15.57363
G1 X105.762 Y120.202 E15.60553
G1 X106.421 Y119.457 E15.66508
G1 X106.779 Y119.083 E15.69607
G1 X107.165 Y118.699 E15.72867
G1 X107.558 Y118.326 E15.76111
G0 F4800 X107.875 Y118.687
G1 F600 X108.592 Y118.057 E15.81825
G1 X109.217 Y117.551 E15.86639
G1 X109.485 Y117.347 E15.88656
G1 X110.173 Y116.86 E15.93702
G1 X110.634 Y116.552 E15.97021
G1 X111.068 Y116.28 E16.00088
G1 X111.747 Y115.883 E16.04797
G1 X112.398 Y115.537 E16.0921
G1 X112.849 Y115.314 E16.12222
G1 X113.293 Y115.108 E16.15153
G1 X113.754 Y114.908 E16.18161
G1 X114.22 Y114.719 E16.21172
G1 X114.691 Y114.541 E16.24186
G1 X115.681 Y114.21 E16.30436
G1 X116.619 Y113.948 E16.36266
G1 X117.371 Y113.772 E16.4089
G1 X118.153 Y113.623 E16.45656
G1 X118.641 Y113.545 E16.48615
G1 X119.352 Y113.452 E16.52907
G1 X120.107 Y113.383 E16.57446
G1 X120.613 Y113.352 E16.60481
G1 X121.124 Y113.334 E16.63542
G1 X122.131 Y113.336 E16.69571
G1 X122.655 Y113.357 E16.72711
G1 X123.651 Y113.433 E16.78691
G1 X124.091 Y113.483 E16.81342
G1 X124.677 Y113.565 E16.84885
G1 X125.124 Y113.639 E16.87597
G1 X126.087 Y113.835 E16.93481
G1 X126.533 Y113.941 E16.96225
G1 X127.095 Y114.092 E16.99709
G1 X128.052 Y114.389 E17.05708
G1 X128.535 Y114.558 E17.08772
G1 X129.012 Y114.739 E17.11826
G1 X129.516 Y114.945 E17.15086
G1 X130.388 Y115.342 E17.20822
G1 X130.832 Y115.563 E17.23791
G1 X131.293 Y115.807 E17.26914
G1 X131.721 Y116.048 E17.29854
G1 X132.154 Y116.306 E17.32872
G1 X132.751 Y116.684 E17.37102
G1 X133.432 Y117.156 E17.42063
G1 X133.849 Y117.465 E17.4517
G1 X134.331 Y117.843 E17.48837
G1 X134.999 Y118.411 E17.54087
G1 X135.371 Y118.749 E17.57096
G1 X135.75 Y119.111 E17.60234
G1 X136.425 Y119.804 E17.66025
G1 X136.786 Y120.205 E17.69255
G1 X137.43 Y120.976 E17.7527
G1 X137.724 Y121.355 E17.78141
G1 X138.032 Y121.773 E17.8125
G1 X138.318 Y122.183 E17.84243
G1 X138.594 Y122.6 E17.87236
G1 X138.875 Y123.048 E17.90402
G1 X139.14 Y123.495 E17.93513
G1 X139.42 Y123.998 E17.9696
G1 X139.833 Y124.815 E18.02441
G1 X140.243 Y125.729 E18.08438
G1 X140.446 Y126.229 E18.11669
G1 X140.617 Y126.686 E18.1459
G1 X140.924 Y127.606 E18.20396
G1 X141.075 Y128.12 E18.23604
G1 X141.207 Y128.618 E18.26688
G1 X141.422 Y129.565 E18.32502
G1 X141.518 Y130.078 E18.35626
G1 X141.599 Y130.58 E18.38671
G1 X141.666 Y131.071 E18.41637
G1 X141.723 Y131.58 E18.44704
G1 X141.769 Y132.113 E18.47907
G1 X141.81 Y132.871 E18.52451
G1 X141.82 Y133.415 E18.55709
G1 X141.817 Y133.899 E18.58606
G1 X141.793 Y134.604 E18.62829
G1 X141.759 Y135.135 E18.66015
G1 X141.715 Y135.62 E18.6893
G1 X141.657 Y136.122 E18.71956
G1 X141.582 Y136.655 E18.75178
G1 X141.495 Y137.178 E18.78352
G1 X141.301 Y138.11 E18.84052
G1 X141.187 Y138.579 E18.86941
G1 X141.056 Y139.065 E18.89955
G1 X140.908 Y139.564 E18.93071
G1 X140.752 Y140.047 E18.9611
G1 X140.59 Y140.508 E18.99035
G1 X140.41 Y140.983 E19.02076
G1 X140.23 Y141.424 E19.04928
G1 X140.025 Y141.892 E19.07986
G1 X139.808 Y142.356 E19.11053
G1 X139.58 Y142.814 E19.14116
G1 X139.342 Y143.263 E19.17158
G1 X139.084 Y143.721 E19.20306
G1 X138.821 Y144.161 E19.23374
G1 X138.233 Y145.065 E19.29831
G1 X137.704 Y145.792 E19.35213
G1 X137.382 Y146.205 E19.38349
G1 X136.727 Y146.981 E19.44428
G1 X136.051 Y147.707 E19.50367
G1 X135.686 Y148.071 E19.53453
G1 X135.31 Y148.427 E19.56553
G1 X134.956 Y148.746 E19.59406
G1 X134.569 Y149.078 E19.62459
G1 X133.795 Y149.696 E19.68388
G1 X133.013 Y150.254 E19.7414
G1 X132.528 Y150.578 E19.77632
G1 X131.688 Y151.09 E19.83521
