;FLAVOR:Marlin
;TIME:19536
;Filament used: 13.7918m
;Layer height: 0.2
;MINX:46.3
;MINY:34.348
;MINZ:0.3
;MAXX:188.7
;MAXY:211.77
;MAXZ:2.94
;TARGET_MACHINE.NAME:BIQU B1
;Generated with Cura_SteamEngine 5.12.0
                                 ; BIQU B1 Start G-code
M117 Getting the bed up to temp!
M140 S60      ; Set Heat Bed temperature
M190 S60      ; Wait for Heat Bed temperature
M117 Getting the extruder up to temp!
M104 S190    ; Set Extruder temperature
G92 E0                           ; Reset Extruder
M117 Homing axes
G28                              ; Home all axes
M109 S190    ; Wait for Extruder temperature
G1 Z2.0 F3000                    ; Move Z Axis up little to prevent scratching of Heat Bed
G1 X4.1 Y20 Z0.3 F5000.0         ; Move to start position
M117 Purging
G1 X4.1 Y200.0 Z0.3 F1500.0 E15  ; Draw the first line
G1 X4.4 Y200.0 Z0.3 F5000.0      ; Move to side a little
G1 X4.4 Y20 Z0.3 F1500.0 E30     ; Draw the second line
G92 E0                           ; Reset Extruder
M117 Lets make
G1 Z2.0 F3000                    ; Move Z Axis up little to prevent scratching of Heat Bed
G1 X5 Y20 Z0.3 F5000.0           ; Move over to prevent blob squish
M82 ;absolute extrusion mode
G92 E0
G92 E0
G1 F3600 E-4
;LAYER_COUNT:12
;LAYER:0
M107
G0 F4800 X48.512 Y38.89 Z0.3
;TYPE:SKIRT
G1 F3600 E0
G1 F600 X49.134 Y38.122 E0.05917
G1 X49.762 Y37.47 E0.11336
G1 X50.573 Y36.764 E0.17774
G1 X51.305 Y36.233 E0.23188
G1 X52.191 Y35.702 E0.29372
G1 X53.121 Y35.254 E0.35552
G1 X54.047 Y34.907 E0.41472
G1 X54.999 Y34.642 E0.47388
G1 X55.889 Y34.475 E0.52809
G1 X57.202 Y34.361 E0.607
G1 X57.81 Y34.348 E0.6434
G1 X176.806 Y34.348 E7.76749
G1 X177.695 Y34.361 E7.82071
G1 X178.682 Y34.422 E7.87992
G1 X179.66 Y34.57 E7.93913
G1 X180.54 Y34.781 E7.99331
G1 X181.56 Y35.123 E8.05772
G1 X182.389 Y35.486 E8.1119
G1 X183.332 Y36.003 E8.17628
G1 X184.151 Y36.555 E8.23541
G1 X184.921 Y37.178 E8.29471
G1 X185.573 Y37.805 E8.34886
G1 X186.224 Y38.548 E8.40801
G1 X186.857 Y39.418 E8.47242
G1 X187.362 Y40.268 E8.53161
G1 X187.791 Y41.159 E8.59081
G1 X188.113 Y42.005 E8.64501
G1 X188.404 Y43.04 E8.70937
G1 X188.572 Y43.929 E8.76354
G1 X188.687 Y45.25 E8.84292
G1 X188.7 Y45.878 E8.88053
G1 X188.699 Y120.042 E13.3206
G1 X188.687 Y120.776 E13.36455
G1 X188.642 Y121.616 E13.41491
G1 X188.522 Y122.513 E13.46909
G1 X188.286 Y123.56 E13.53334
G1 X188.011 Y124.422 E13.58751
G1 X187.594 Y125.413 E13.65188
G1 X187.132 Y126.281 E13.71075
G1 X186.69 Y126.971 E13.75981
G1 X186.143 Y127.731 E13.81586
G1 X126.843 Y206.796 E19.73276
G1 X126.218 Y207.601 E19.79378
G1 X125.593 Y208.313 E19.8505
G1 X124.846 Y209.024 E19.91224
G1 X124.072 Y209.64 E19.97146
G1 X123.318 Y210.141 E20.02566
G1 X122.412 Y210.635 E20.08744
G1 X121.465 Y211.045 E20.14922
G1 X120.565 Y211.343 E20.20597
G1 X119.56 Y211.579 E20.26778
G1 X118.58 Y211.717 E20.32703
G1 X117.593 Y211.77 E20.3862
G1 X116.645 Y211.738 E20.44299
G1 X115.622 Y211.611 E20.50471
G1 X114.654 Y211.403 E20.56398
G1 X113.709 Y211.11 E20.62321
G1 X112.87 Y210.769 E20.67743
G1 X111.914 Y210.278 E20.74178
G1 X111.114 Y209.772 E20.79845
G1 X110.295 Y209.144 E20.86023
G1 X109.558 Y208.467 E20.92015
G1 X108.771 Y207.588 E20.99078
G1 X108.312 Y207.004 E21.03525
G1 X48.943 Y127.845 E26.95913
G1 X48.317 Y126.982 E27.02296
G1 X47.834 Y126.231 E27.07641
G1 X47.506 Y125.619 E27.11798
G1 X47.467 Y125.522 E27.12424
G1 X47.34 Y125.274 E27.14092
G1 X46.95 Y124.317 E27.20279
G1 X46.683 Y123.452 E27.25699
G1 X46.46 Y122.401 E27.32131
G1 X46.419 Y122.069 E27.34134
G1 X46.393 Y121.952 E27.34851
G1 X46.345 Y121.483 E27.37674
G1 X46.314 Y120.916 E27.41074
G1 X46.3 Y120.059 E27.46205
G1 X46.301 Y46.053 E31.89266
G1 X46.313 Y45.345 E31.93505
G1 X46.375 Y44.357 E31.99432
G1 X46.524 Y43.381 E32.05343
G1 X46.735 Y42.501 E32.1076
G1 X47.078 Y41.481 E32.17203
G1 X47.441 Y40.652 E32.22621
G1 X47.936 Y39.747 E32.28797
G1 X48.512 Y38.89 E32.34978
G0 F4800 X48.885 Y39.192
G1 F600 X49.48 Y38.455 E32.40649
G1 X50.108 Y37.803 E32.46069
G1 X50.855 Y37.153 E32.51997
G1 X51.587 Y36.622 E32.57411
G1 X52.437 Y36.114 E32.63339
G1 X53.29 Y35.703 E32.69008
G1 X54.176 Y35.369 E32.74677
G1 X55.088 Y35.114 E32.80346
G1 X55.978 Y34.947 E32.85767
G1 X57.212 Y34.841 E32.93182
G1 X57.82 Y34.828 E32.96823
G1 X176.799 Y34.828 E40.09129
G1 X177.666 Y34.84 E40.14321
G1 X178.611 Y34.897 E40.19988
G1 X179.548 Y35.037 E40.2566
G1 X180.428 Y35.248 E40.31078
G1 X181.367 Y35.563 E40.37008
G1 X182.196 Y35.926 E40.42426
G1 X183.064 Y36.401 E40.48349
G1 X183.85 Y36.929 E40.54018
G1 X184.588 Y37.524 E40.59694
G1 X185.24 Y38.151 E40.65109
G1 X185.863 Y38.864 E40.70778
G1 X186.445 Y39.664 E40.767
G1 X186.93 Y40.477 E40.82368
G1 X187.342 Y41.33 E40.88039
G1 X187.664 Y42.176 E40.93458
G1 X187.932 Y43.129 E40.99385
G1 X188.1 Y44.018 E41.04802
G1 X188.207 Y45.26 E41.12265
G1 X188.22 Y45.878 E41.15966
G1 X188.219 Y120.035 E45.5993
G1 X188.208 Y120.751 E45.64218
G1 X188.166 Y121.552 E45.6902
G1 X188.046 Y122.449 E45.74438
G1 X187.829 Y123.414 E45.80359
G1 X187.554 Y124.276 E45.85776
G1 X187.17 Y125.188 E45.917
G1 X186.728 Y126.022 E45.97351
G1 X186.3 Y126.691 E46.02106
G1 X185.759 Y127.443 E46.07652
G1 X126.464 Y206.502 E51.99295
G1 X125.857 Y207.284 E52.05222
G1 X125.232 Y207.996 E52.10894
G1 X124.546 Y208.649 E52.16564
G1 X123.806 Y209.24 E52.22233
G1 X123.052 Y209.741 E52.27653
G1 X122.221 Y210.195 E52.33322
G1 X121.314 Y210.589 E52.39243
G1 X120.414 Y210.887 E52.44918
G1 X119.492 Y211.104 E52.50589
G1 X118.554 Y211.238 E52.56262
G1 X117.609 Y211.29 E52.61928
G1 X116.661 Y211.258 E52.67607
G1 X115.722 Y211.142 E52.73271
G1 X114.795 Y210.944 E52.78946
G1 X113.89 Y210.665 E52.84616
G1 X113.051 Y210.324 E52.90038
G1 X112.171 Y209.872 E52.9596
G1 X111.371 Y209.366 E53.01627
G1 X110.619 Y208.79 E53.07298
G1 X109.916 Y208.147 E53.13002
G1 X109.129 Y207.268 E53.20066
G1 X108.696 Y206.716 E53.24266
G1 X49.332 Y127.563 E59.16607
G1 X48.706 Y126.7 E59.2299
G1 X48.257 Y126.004 E59.27948
G1 X47.929 Y125.392 E59.32105
G1 X47.916 Y125.346 E59.32391
G1 X47.784 Y125.092 E59.34105
G1 X47.409 Y124.175 E59.40036
G1 X47.142 Y123.31 E59.45456
G1 X46.936 Y122.342 E59.51381
G1 X46.89 Y121.972 E59.53613
G1 X46.871 Y121.903 E59.54042
G1 X46.823 Y121.434 E59.56864
G1 X46.794 Y120.908 E59.60018
G1 X46.78 Y120.059 E59.65102
G1 X46.781 Y46.061 E64.08115
G1 X46.792 Y45.374 E64.12228
G1 X46.85 Y44.429 E64.17896
G1 X46.991 Y43.493 E64.23563
G1 X47.202 Y42.613 E64.28981
G1 X47.518 Y41.674 E64.34912
G1 X47.881 Y40.845 E64.4033
G1 X48.357 Y39.978 E64.46252
G1 X48.885 Y39.192 E64.51921
G0 F4800 X49.259 Y39.493
G1 F600 X49.826 Y38.788 E64.57337
G1 X50.454 Y38.136 E64.62757
G1 X51.137 Y37.542 E64.68176
G1 X51.869 Y37.011 E64.7359
G1 X52.646 Y36.546 E64.79011
G1 X53.46 Y36.152 E64.84425
G1 X54.306 Y35.831 E64.89842
G1 X55.177 Y35.586 E64.95259
G1 X56.067 Y35.419 E65.0068
G1 X57.222 Y35.321 E65.0762
G1 X57.83 Y35.308 E65.11261
G1 X176.793 Y35.308 E72.23471
G1 X177.638 Y35.319 E72.28531
G1 X178.541 Y35.372 E72.33946
G1 X179.436 Y35.504 E72.39362
G1 X180.316 Y35.715 E72.4478
G1 X181.174 Y36.003 E72.50198
G1 X182.003 Y36.366 E72.55616
G1 X182.797 Y36.8 E72.61034
G1 X183.549 Y37.303 E72.6645
G1 X184.255 Y37.87 E72.71871
G1 X184.907 Y38.497 E72.77286
G1 X185.501 Y39.179 E72.82701
G1 X186.033 Y39.911 E72.88118
G1 X186.498 Y40.687 E72.93534
G1 X186.893 Y41.501 E72.98951
G1 X187.215 Y42.347 E73.04371
G1 X187.46 Y43.218 E73.09787
G1 X187.628 Y44.107 E73.15204
G1 X187.727 Y45.27 E73.22192
G1 X187.74 Y45.878 E73.25833
G1 X187.739 Y120.028 E77.69756
G1 X187.729 Y120.726 E77.73935
G1 X187.69 Y121.488 E77.78503
G1 X187.57 Y122.385 E77.83921
G1 X187.372 Y123.268 E77.89338
G1 X187.097 Y124.13 E77.94755
G1 X186.746 Y124.964 E78.00173
G1 X186.323 Y125.764 E78.0559
G1 X185.91 Y126.411 E78.10186
G1 X185.375 Y127.155 E78.15672
G1 X126.085 Y206.208 E84.07268
G1 X125.496 Y206.968 E84.13025
G1 X124.9 Y207.649 E84.18443
G1 X124.246 Y208.274 E84.23859
G1 X123.54 Y208.84 E84.29276
G1 X122.786 Y209.341 E84.34696
G1 X121.992 Y209.773 E84.40107
G1 X121.162 Y210.134 E84.45526
G1 X120.303 Y210.42 E84.50946
G1 X119.423 Y210.629 E84.56361
G1 X118.527 Y210.759 E84.61781
G1 X117.624 Y210.81 E84.67196
G1 X116.719 Y210.781 E84.72617
G1 X115.821 Y210.672 E84.78033
G1 X114.936 Y210.485 E84.83448
G1 X114.071 Y210.22 E84.88864
G1 X113.232 Y209.879 E84.94286
G1 X112.427 Y209.466 E84.99703
G1 X111.662 Y208.984 E85.05116
G1 X110.942 Y208.435 E85.10537
G1 X110.273 Y207.826 E85.15953
G1 X109.507 Y206.972 E85.22821
G1 X109.08 Y206.428 E85.26961
G1 X49.72 Y127.281 E91.19259
G1 X49.109 Y126.439 E91.25487
G1 X48.68 Y125.777 E91.3021
G1 X48.352 Y125.165 E91.34367
G1 X48.36 Y125.161 E91.34421
G1 X48.21 Y124.871 E91.36375
G1 X47.868 Y124.033 E91.41794
G1 X47.601 Y123.168 E91.47214
G1 X47.412 Y122.283 E91.52631
G1 X47.359 Y121.853 E91.55225
G1 X47.349 Y121.854 E91.55285
G1 X47.301 Y121.385 E91.58108
G1 X47.274 Y120.9 E91.61016
G1 X47.26 Y120.059 E91.66052
G1 X47.261 Y46.068 E96.09023
G1 X47.271 Y45.403 E96.13004
G1 X47.325 Y44.5 E96.1842
G1 X47.458 Y43.605 E96.23837
G1 X47.669 Y42.725 E96.29255
G1 X47.958 Y41.867 E96.34675
G1 X48.321 Y41.038 E96.40093
G1 X48.756 Y40.245 E96.45508
G1 X49.259 Y39.493 E96.50925
G1 F3600 E92.50925
;MESH:Bird_House-Front_BackPocket-Back.obj
G0 F4800 X58.94 Y44.883
G0 X58.94 Y46.988
G0 X176.088 Y46.96
G0 X176.3 Y120.188
;TYPE:WALL-INNER
G1 F3600 E96.50925
G1 F600 X176.3 Y46.748 E100.90597
G1 X58.7 Y46.748 E107.94648
G1 X58.7 Y120.188 E112.3432
G1 X117.5 Y198.588 E118.21029
G1 X176.033 Y120.544 E124.05073
G0 F540 X176.3 Y120.188
G0 F4800 X176.78 Y120.348
G1 F600 X176.78 Y46.268 E128.48577
G1 X58.22 Y46.268 E135.58375
G1 X58.22 Y120.348 E140.01879
G1 X117.5 Y199.388 E145.93377
G1 X176.513 Y120.704 E151.82211
G0 F540 X176.78 Y120.348
G0 F4800 X177.26 Y120.508
;TYPE:WALL-OUTER
G1 F600 X177.26 Y45.788 E156.29547
G1 X57.74 Y45.788 E163.45092
G1 X57.74 Y120.508 E167.92428
G1 X117.5 Y200.188 E173.88715
G1 X176.993 Y120.864 E179.82339
G0 F540 X177.26 Y120.508
G0 F4800 X176.596 Y120.287
G0 X176.16 Y120.04
G0 X175.86 Y120.04
;TYPE:SKIN
G1 F600 X117.5 Y197.852 E185.64651
G1 X59.14 Y120.04 E191.46963
G1 X59.14 Y47.188 E195.83115
G1 X175.86 Y47.188 E202.81897
G1 X175.86 Y120.04 E207.1805
G1 F3600 E203.1805
G0 F4800 X176.16 Y120.04
G0 X176.088 Y46.96
G0 X175.047 Y46.888
G0 X175.047 Y47.428
G1 F3600 E207.1805
G1 F600 X175.621 Y48.002 E207.22909
G0 F4800 X175.621 Y48.681
G1 F600 X174.368 Y47.428 E207.33518
G0 F4800 X173.689 Y47.428
G1 F600 X175.621 Y49.36 E207.49876
G0 F4800 X175.621 Y50.038
G1 F600 X173.011 Y47.428 E207.71974
G0 F4800 X172.332 Y47.428
G1 F600 X175.621 Y50.717 E207.9982
G0 F4800 X175.621 Y51.396
G1 F600 X171.653 Y47.428 E208.33416
G0 F4800 X170.974 Y47.428
G1 F600 X175.621 Y52.075 E208.72761
G0 F4800 X175.621 Y52.754
G1 F600 X170.295 Y47.428 E209.17854
G0 F4800 X169.617 Y47.428
G1 F600 X175.621 Y53.433 E209.68692
G0 F4800 X175.621 Y54.111
G1 F600 X168.938 Y47.428 E210.25275
G0 F4800 X168.259 Y47.428
G1 F600 X175.621 Y54.79 E210.87606
G0 F4800 X175.621 Y55.469
G1 F600 X167.58 Y47.428 E211.55686
G0 F4800 X166.901 Y47.428
G1 F600 X175.621 Y56.148 E212.29515
G0 F4800 X175.621 Y56.827
G1 F600 X166.222 Y47.428 E213.09094
G0 F4800 X165.544 Y47.428
G1 F600 X175.621 Y57.505 E213.94412
G0 F4800 X175.621 Y58.184
G1 F600 X164.865 Y47.428 E214.85479
G0 F4800 X164.186 Y47.428
G1 F600 X175.621 Y58.863 E215.82295
G0 F4800 X175.621 Y59.542
G1 F600 X163.507 Y47.428 E216.8486
G0 F4800 X162.828 Y47.428
G1 F600 X175.621 Y60.221 E217.93174
G0 F4800 X175.621 Y60.9
G1 F600 X162.149 Y47.428 E219.07237
G0 F4800 X161.471 Y47.428
G1 F600 X175.621 Y61.578 E220.2704
G0 F4800 X175.621 Y62.257
G1 F600 X160.792 Y47.428 E221.52592
G0 F4800 X160.113 Y47.428
G1 F600 X175.621 Y62.936 E222.83893
G0 F4800 X175.621 Y63.615
G1 F600 X159.434 Y47.428 E224.20942
G0 F4800 X158.755 Y47.428
G1 F600 X175.621 Y64.294 E225.63741
G0 F4800 X175.621 Y64.973
G1 F600 X158.077 Y47.428 E227.12284
G0 F4800 X157.398 Y47.428
G1 F600 X175.621 Y65.651 E228.66572
G0 F4800 X175.621 Y66.33
G1 F600 X156.719 Y47.428 E230.26608
G0 F4800 X156.04 Y47.428
G1 F600 X175.621 Y67.009 E231.92394
G0 F4800 X175.621 Y67.688
G1 F600 X155.361 Y47.428 E233.63928
G0 F4800 X154.682 Y47.428
G1 F600 X175.621 Y68.367 E235.41211
G0 F4800 X175.621 Y69.045
G1 F600 X154.004 Y47.428 E237.24235
G0 F4800 X153.325 Y47.428
G1 F600 X175.621 Y69.724 E239.13007
G0 F4800 X175.621 Y70.403
G1 F600 X152.646 Y47.428 E241.07528
G0 F4800 X151.967 Y47.428
G1 F600 X175.621 Y71.082 E243.07798
G0 F4800 X175.621 Y71.761
G1 F600 X151.288 Y47.428 E245.13817
G0 F4800 X150.61 Y47.428
G1 F600 X175.621 Y72.44 E247.25581
G0 F4800 X175.621 Y73.118
G1 F600 X149.931 Y47.428 E249.43089
G0 F4800 X149.252 Y47.428
G1 F600 X175.621 Y73.797 E251.66346
G0 F4800 X175.621 Y74.476
G1 F600 X148.573 Y47.428 E253.95352
G0 F4800 X147.894 Y47.428
G1 F600 X175.621 Y75.155 E256.30107
G0 F4800 X175.621 Y75.834
G1 F600 X147.215 Y47.428 E258.7061
G0 F4800 X146.537 Y47.428
G1 F600 X175.621 Y76.512 E261.16854
G0 F4800 X175.621 Y77.191
G1 F600 X145.858 Y47.428 E263.68847
G0 F4800 X145.179 Y47.428
G1 F600 X175.621 Y77.87 E266.26589
G0 F4800 X175.621 Y78.549
G1 F600 X144.5 Y47.428 E268.90079
G0 F4800 X143.821 Y47.428
G1 F600 X175.621 Y79.228 E271.59319
G0 F4800 X175.621 Y79.907
G1 F600 X143.142 Y47.428 E274.34307
G0 F4800 X142.464 Y47.428
G1 F600 X175.621 Y80.585 E277.15036
G0 F4800 X175.621 Y81.264
G1 F600 X141.785 Y47.428 E280.01513
G0 F4800 X141.106 Y47.428
G1 F600 X175.621 Y81.943 E282.9374
G0 F4800 X175.621 Y82.622
G1 F600 X140.427 Y47.428 E285.91715
G0 F4800 X139.748 Y47.428
G1 F600 X175.621 Y83.301 E288.95439
G0 F4800 X175.621 Y83.98
G1 F600 X139.07 Y47.428 E292.04908
G0 F4800 X138.391 Y47.428
G1 F600 X175.621 Y84.658 E295.20121
G0 F4800 X175.621 Y85.337
G1 F600 X137.712 Y47.428 E298.41083
G0 F4800 X137.033 Y47.428
G1 F600 X175.621 Y86.016 E301.67794
G0 F4800 X175.621 Y86.695
G1 F600 X136.354 Y47.428 E305.00254
G0 F4800 X135.675 Y47.428
G1 F600 X175.621 Y87.374 E308.38463
G0 F4800 X175.621 Y88.052
G1 F600 X134.997 Y47.428 E311.82412
G0 F4800 X134.318 Y47.428
G1 F600 X175.621 Y88.731 E315.3211
G0 F4800 X175.621 Y89.41
G1 F600 X133.639 Y47.428 E318.87557
G0 F4800 X132.96 Y47.428
G1 F600 X175.621 Y90.089 E322.48752
G0 F4800 X175.621 Y90.768
G1 F600 X132.281 Y47.428 E326.15697
G0 F4800 X131.602 Y47.428
G1 F600 X175.621 Y91.447 E329.8839
G0 F4800 X175.621 Y92.125
G1 F600 X130.924 Y47.428 E333.66824
G0 F4800 X130.245 Y47.428
G1 F600 X175.621 Y92.804 E337.51007
G0 F4800 X175.621 Y93.483
G1 F600 X129.566 Y47.428 E341.40938
G0 F4800 X128.887 Y47.428
G1 F600 X175.621 Y94.162 E345.36618
G0 F4800 X175.621 Y94.841
G1 F600 X128.208 Y47.428 E349.38048
G0 F4800 X127.53 Y47.428
G1 F600 X175.621 Y95.52 E353.45221
G0 F4800 X175.621 Y96.198
G1 F600 X126.851 Y47.428 E357.5814
G0 F4800 X126.172 Y47.428
G1 F600 X175.621 Y96.877 E361.76807
G0 F4800 X175.621 Y97.556
G1 F600 X125.493 Y47.428 E366.01223
G0 F4800 X124.814 Y47.428
G1 F600 X175.621 Y98.235 E370.31388
G0 F4800 X175.621 Y98.914
G1 F600 X124.135 Y47.428 E374.67302
G0 F4800 X123.457 Y47.428
G1 F600 X175.621 Y99.592 E379.08956
G0 F4800 X175.621 Y100.271
G1 F600 X122.778 Y47.428 E383.56359
G0 F4800 X122.099 Y47.428
G1 F600 X175.621 Y100.95 E388.09511
G0 F4800 X175.621 Y101.629
G1 F600 X121.42 Y47.428 E392.68412
G0 F4800 X120.741 Y47.428
G1 F600 X175.621 Y102.308 E397.33062
G0 F4800 X175.621 Y102.987
G1 F600 X120.062 Y47.428 E402.0346
G0 F4800 X119.384 Y47.428
G1 F600 X175.621 Y103.665 E406.79599
G0 F4800 X175.621 Y104.344
G1 F600 X118.705 Y47.428 E411.61487
G0 F4800 X118.026 Y47.428
G1 F600 X175.621 Y105.023 E416.49123
G0 F4800 X175.621 Y105.702
G1 F600 X117.347 Y47.428 E421.42509
G0 F4800 X116.668 Y47.428
G1 F600 X175.621 Y106.381 E426.41643
G0 F4800 X175.621 Y107.06
G1 F600 X115.99 Y47.428 E431.46522
G0 F4800 X115.311 Y47.428
G1 F600 X175.621 Y107.738 E436.57146
G0 F4800 X175.621 Y108.417
G1 F600 X114.632 Y47.428 E441.73518
G0 F4800 X113.953 Y47.428
G1 F600 X175.621 Y109.096 E446.95639
G0 F4800 X175.621 Y109.775
G1 F600 X113.274 Y47.428 E452.23509
G0 F4800 X112.595 Y47.428
G1 F600 X175.621 Y110.454 E457.57128
