;FLAVOR:Marlin
;TIME:17070
;Filament used: 11.841m
;Layer height: 0.2
;MINX:46.3
;MINY:34.348
;MINZ:0.3
;MAXX:188.7
;MAXY:211.77
;MAXZ:2.94
;TARGET_MACHINE.NAME:BIQU B1
;Generated with Cura_SteamEngine 5.12.0
                                 ; BIQU B1 Start G-code
M117 Getting the bed up to temp!
M140 S60      ; Set Heat Bed temperature
M190 S60      ; Wait for Heat Bed temperature
M117 Getting the extruder up to temp!
M104 S190    ; Set Extruder temperature
G92 E0                           ; Reset Extruder
M117 Homing axes
G28                              ; Home all axes
M109 S190    ; Wait for Extruder temperature
G1 Z2.0 F3000                    ; Move Z Axis up little to prevent scratching of Heat Bed
G1 X4.1 Y20 Z0.3 F5000.0         ; Move to start position
M117 Purging
G1 X4.1 Y200.0 Z0.3 F1500.0 E15  ; Draw the first line
G1 X4.4 Y200.0 Z0.3 F5000.0      ; Move to side a little
G1 X4.4 Y20 Z0.3 F1500.0 E30     ; Draw the second line
G92 E0                           ; Reset Extruder
M117 Lets make
G1 Z2.0 F3000                    ; Move Z Axis up little to prevent scratching of Heat Bed
G1 X5 Y20 Z0.3 F5000.0           ; Move over to prevent blob squish
M82 ;absolute extrusion mode
G92 E0
G92 E0
G1 F3600 E-4
;LAYER_COUNT:12
;LAYER:0
M107
G0 F4800 X48.512 Y38.89 Z0.3
;TYPE:SKIRT
G1 F3600 E0
G1 F600 X49.134 Y38.122 E0.05917
G1 X49.762 Y37.47 E0.11336
G1 X50.573 Y36.764 E0.17774
G1 X51.305 Y36.233 E0.23188
G1 X52.191 Y35.702 E0.29372
G1 X53.121 Y35.254 E0.35552
G1 X54.047 Y34.907 E0.41472
G1 X54.999 Y34.642 E0.47388
G1 X55.889 Y34.475 E0.52809
G1 X57.202 Y34.361 E0.607
G1 X57.81 Y34.348 E0.6434
G1 X176.806 Y34.348 E7.76749
G1 X177.695 Y34.361 E7.82071
G1 X178.682 Y34.422 E7.87992
G1 X179.66 Y34.57 E7.93913
G1 X180.54 Y34.781 E7.99331
G1 X181.56 Y35.123 E8.05772
G1 X182.389 Y35.486 E8.1119
G1 X183.332 Y36.003 E8.17628
G1 X184.151 Y36.555 E8.23541
G1 X184.921 Y37.178 E8.29471
G1 X185.573 Y37.805 E8.34886
G1 X186.224 Y38.548 E8.40801
G1 X186.857 Y39.418 E8.47242
G1 X187.362 Y40.268 E8.53161
G1 X187.791 Y41.159 E8.59081
G1 X188.113 Y42.005 E8.64501
G1 X188.404 Y43.04 E8.70937
G1 X188.572 Y43.929 E8.76354
G1 X188.687 Y45.25 E8.84292
G1 X188.7 Y45.878 E8.88053
G1 X188.699 Y120.042 E13.3206
G1 X188.687 Y120.776 E13.36455
G1 X188.642 Y121.616 E13.41491
G1 X188.522 Y122.513 E13.46909
G1 X188.286 Y123.56 E13.53334
G1 X188.011 Y124.422 E13.58751
G1 X187.594 Y125.413 E13.65188
G1 X187.132 Y126.281 E13.71075
G1 X186.69 Y126.971 E13.75981
G1 X186.143 Y127.731 E13.81586
G1 X126.843 Y206.796 E19.73276
G1 X126.218 Y207.601 E19.79378
G1 X125.593 Y208.313 E19.8505
G1 X124.846 Y209.024 E19.91224
G1 X124.072 Y209.64 E19.97146
G1 X123.318 Y210.141 E20.02566
G1 X122.412 Y210.635 E20.08744
G1 X121.465 Y211.045 E20.14922
G1 X120.565 Y211.343 E20.20597
G1 X119.56 Y211.579 E20.26778
G1 X118.58 Y211.717 E20.32703
G1 X117.593 Y211.77 E20.3862
G1 X116.645 Y211.738 E20.44299
G1 X115.622 Y211.611 E20.50471
G1 X114.654 Y211.403 E20.56398
G1 X113.709 Y211.11 E20.62321
G1 X112.87 Y210.769 E20.67743
G1 X111.914 Y210.278 E20.74178
G1 X111.114 Y209.772 E20.79845
G1 X110.295 Y209.144 E20.86023
G1 X109.558 Y208.467 E20.92015
G1 X108.771 Y207.588 E20.99078
G1 X108.312 Y207.004 E21.03525
G1 X48.943 Y127.845 E26.95913
G1 X48.317 Y126.982 E27.02296
G1 X47.834 Y126.231 E27.07641
G1 X47.506 Y125.619 E27.11798
G1 X47.467 Y125.522 E27.12424
G1 X47.34 Y125.274 E27.14092
G1 X46.95 Y124.317 E27.20279
G1 X46.683 Y123.452 E27.25699
G1 X46.46 Y122.401 E27.32131
G1 X46.419 Y122.069 E27.34134
G1 X46.393 Y121.952 E27.34851
G1 X46.345 Y121.483 E27.37674
G1 X46.314 Y120.916 E27.41074
G1 X46.3 Y120.059 E27.46205
G1 X46.301 Y46.053 E31.89266
G1 X46.313 Y45.345 E31.93505
G1 X46.375 Y44.357 E31.99432
G1 X46.524 Y43.381 E32.05343
G1 X46.735 Y42.501 E32.1076
G1 X47.078 Y41.481 E32.17203
G1 X47.441 Y40.652 E32.22621
G1 X47.936 Y39.747 E32.28797
G1 X48.512 Y38.89 E32.34978
G0 F4800 X48.885 Y39.192
G1 F600 X49.48 Y38.455 E32.40649
G1 X50.108 Y37.803 E32.46069
G1 X50.855 Y37.153 E32.51997
G1 X51.587 Y36.622 E32.57411
G1 X52.437 Y36.114 E32.63339
G1 X53.29 Y35.703 E32.69008
G1 X54.176 Y35.369 E32.74677
G1 X55.088 Y35.114 E32.80346
G1 X55.978 Y34.947 E32.85767
G1 X57.212 Y34.841 E32.93182
G1 X57.82 Y34.828 E32.96823
G1 X176.799 Y34.828 E40.09129
G1 X177.666 Y34.84 E40.14321
G1 X178.611 Y34.897 E40.19988
G1 X179.548 Y35.037 E40.2566
G1 X180.428 Y35.248 E40.31078
G1 X181.367 Y35.563 E40.37008
G1 X182.196 Y35.926 E40.42426
G1 X183.064 Y36.401 E40.48349
G1 X183.85 Y36.929 E40.54018
G1 X184.588 Y37.524 E40.59694
G1 X185.24 Y38.151 E40.65109
G1 X185.863 Y38.864 E40.70778
G1 X186.445 Y39.664 E40.767
G1 X186.93 Y40.477 E40.82368
G1 X187.342 Y41.33 E40.88039
G1 X187.664 Y42.176 E40.93458
G1 X187.932 Y43.129 E40.99385
G1 X188.1 Y44.018 E41.04802
G1 X188.207 Y45.26 E41.12265
G1 X188.22 Y45.878 E41.15966
G1 X188.219 Y120.035 E45.5993
G1 X188.208 Y120.751 E45.64218
G1 X188.166 Y121.552 E45.6902
G1 X188.046 Y122.449 E45.74438
G1 X187.829 Y123.414 E45.80359
G1 X187.554 Y124.276 E45.85776
G1 X187.17 Y125.188 E45.917
G1 X186.728 Y126.022 E45.97351
G1 X186.3 Y126.691 E46.02106
G1 X185.759 Y127.443 E46.07652
G1 X126.464 Y206.502 E51.99295
G1 X125.857 Y207.284 E52.05222
G1 X125.232 Y207.996 E52.10894
G1 X124.546 Y208.649 E52.16564
G1 X123.806 Y209.24 E52.22233
G1 X123.052 Y209.741 E52.27653
G1 X122.221 Y210.195 E52.33322
G1 X121.314 Y210.589 E52.39243
G1 X120.414 Y210.887 E52.44918
G1 X119.492 Y211.104 E52.50589
G1 X118.554 Y211.238 E52.56262
G1 X117.609 Y211.29 E52.61928
G1 X116.661 Y211.258 E52.67607
G1 X115.722 Y211.142 E52.73271
G1 X114.795 Y210.944 E52.78946
G1 X113.89 Y210.665 E52.84616
G1 X113.051 Y210.324 E52.90038
G1 X112.171 Y209.872 E52.9596
G1 X111.371 Y209.366 E53.01627
G1 X110.619 Y208.79 E53.07298
G1 X109.916 Y208.147 E53.13002
G1 X109.129 Y207.268 E53.20066
G1 X108.696 Y206.716 E53.24266
G1 X49.332 Y127.563 E59.16607
G1 X48.706 Y126.7 E59.2299
G1 X48.257 Y126.004 E59.27948
G1 X47.929 Y125.392 E59.32105
G1 X47.916 Y125.346 E59.32391
G1 X47.784 Y125.092 E59.34105
G1 X47.409 Y124.175 E59.40036
G1 X47.142 Y123.31 E59.45456
G1 X46.936 Y122.342 E59.51381
G1 X46.89 Y121.972 E59.53613
G1 X46.871 Y121.903 E59.54042
G1 X46.823 Y121.434 E59.56864
G1 X46.794 Y120.908 E59.60018
G1 X46.78 Y120.059 E59.65102
G1 X46.781 Y46.061 E64.08115
G1 X46.792 Y45.374 E64.12228
G1 X46.85 Y44.429 E64.17896
G1 X46.991 Y43.493 E64.23563
G1 X47.202 Y42.613 E64.28981
G1 X47.518 Y41.674 E64.34912
G1 X47.881 Y40.845 E64.4033
G1 X48.357 Y39.978 E64.46252
G1 X48.885 Y39.192 E64.51921
G0 F4800 X49.259 Y39.493
G1 F600 X49.826 Y38.788 E64.57337
G1 X50.454 Y38.136 E64.62757
G1 X51.137 Y37.542 E64.68176
G1 X51.869 Y37.011 E64.7359
G1 X52.646 Y36.546 E64.79011
G1 X53.46 Y36.152 E64.84425
G1 X54.306 Y35.831 E64.89842
G1 X55.177 Y35.586 E64.95259
G1 X56.067 Y35.419 E65.0068
G1 X57.222 Y35.321 E65.0762
G1 X57.83 Y35.308 E65.11261
G1 X176.793 Y35.308 E72.23471
G1 X177.638 Y35.319 E72.28531
G1 X178.541 Y35.372 E72.33946
G1 X179.436 Y35.504 E72.39362
G1 X180.316 Y35.715 E72.4478
G1 X181.174 Y36.003 E72.50198
G1 X182.003 Y36.366 E72.55616
G1 X182.797 Y36.8 E72.61034
G1 X183.549 Y37.303 E72.6645
G1 X184.255 Y37.87 E72.71871
G1 X184.907 Y38.497 E72.77286
G1 X185.501 Y39.179 E72.82701
G1 X186.033 Y39.911 E72.88118
G1 X186.498 Y40.687 E72.93534
G1 X186.893 Y41.501 E72.98951
G1 X187.215 Y42.347 E73.04371
G1 X187.46 Y43.218 E73.09787
G1 X187.628 Y44.107 E73.15204
G1 X187.727 Y45.27 E73.22192
G1 X187.74 Y45.878 E73.25833
G1 X187.739 Y120.028 E77.69756
G1 X187.729 Y120.726 E77.73935
G1 X187.69 Y121.488 E77.78503
G1 X187.57 Y122.385 E77.83921
G1 X187.372 Y123.268 E77.89338
G1 X187.097 Y124.13 E77.94755
G1 X186.746 Y124.964 E78.00173
G1 X186.323 Y125.764 E78.0559
G1 X185.91 Y126.411 E78.10186
G1 X185.375 Y127.155 E78.15672
G1 X126.085 Y206.208 E84.07268
G1 X125.496 Y206.968 E84.13025
G1 X124.9 Y207.649 E84.18443
G1 X124.246 Y208.274 E84.23859
G1 X123.54 Y208.84 E84.29276
G1 X122.786 Y209.341 E84.34696
G1 X121.992 Y209.773 E84.40107
G1 X121.162 Y210.134 E84.45526
G1 X120.303 Y210.42 E84.50946
G1 X119.423 Y210.629 E84.56361
G1 X118.527 Y210.759 E84.61781
G1 X117.624 Y210.81 E84.67196
G1 X116.719 Y210.781 E84.72617
G1 X115.821 Y210.672 E84.78033
G1 X114.936 Y210.485 E84.83448
G1 X114.071 Y210.22 E84.88864
G1 X113.232 Y209.879 E84.94286
G1 X112.427 Y209.466 E84.99703
G1 X111.662 Y208.984 E85.05116
G1 X110.942 Y208.435 E85.10537
G1 X110.273 Y207.826 E85.15953
G1 X109.507 Y206.972 E85.22821
G1 X109.08 Y206.428 E85.26961
G1 X49.72 Y127.281 E91.19259
G1 X49.109 Y126.439 E91.25487
G1 X48.68 Y125.777 E91.3021
G1 X48.352 Y125.165 E91.34367
G1 X48.36 Y125.161 E91.34421
G1 X48.21 Y124.871 E91.36375
G1 X47.868 Y124.033 E91.41794
G1 X47.601 Y123.168 E91.47214
G1 X47.412 Y122.283 E91.52631
G1 X47.359 Y121.853 E91.55225
G1 X47.349 Y121.854 E91.55285
G1 X47.301 Y121.385 E91.58108
G1 X47.274 Y120.9 E91.61016
G1 X47.26 Y120.059 E91.66052
G1 X47.261 Y46.068 E96.09023
G1 X47.271 Y45.403 E96.13004
G1 X47.325 Y44.5 E96.1842
G1 X47.458 Y43.605 E96.23837
G1 X47.669 Y42.725 E96.29255
G1 X47.958 Y41.867 E96.34675
G1 X48.321 Y41.038 E96.40093
G1 X48.756 Y40.245 E96.45508
G1 X49.259 Y39.493 E96.50925
G1 F3600 E92.50925
;MESH:Bird_House-Front_BackHole-Front.obj
G0 F4800 X111.39 Y67.579
G0 X113.267 Y69.8
G0 X114.704 Y70.738
G0 X115.492 Y71.093
G0 X116.53 Y71.335
G0 X118.848 Y71.64
;TYPE:WALL-INNER
G1 F3600 E96.50925
G1 F600 X118.271 Y71.739 E96.5443
G1 X117.5 Y71.796 E96.59058
G1 X116.783 Y71.745 E96.63361
G1 X116.156 Y71.641 E96.67166
G1 X115.392 Y71.424 E96.71921
G1 X114.534 Y71.043 E96.77542
G1 X113.875 Y70.617 E96.82239
G1 X113.667 Y70.461 E96.83796
G1 X113.076 Y69.942 E96.88505
G1 X112.721 Y69.54 E96.91716
G1 X112.294 Y68.98 E96.95932
G1 X111.865 Y68.194 E97.01293
G1 X111.613 Y67.551 E97.05427
G1 X111.398 Y66.734 E97.10485
G1 X111.328 Y66.204 E97.13686
G1 X111.3 Y65.627 E97.17144
G1 X111.314 Y65.068 E97.20492
G1 X111.419 Y64.364 E97.24753
G1 X111.573 Y63.757 E97.28502
G1 X111.842 Y63.029 E97.33149
G1 X112.244 Y62.299 E97.38138
G1 X112.64 Y61.718 E97.42347
G1 X113.224 Y61.098 E97.47447
G1 X113.665 Y60.717 E97.50936
G1 X114.19 Y60.34 E97.54805
G1 X114.724 Y60.042 E97.58466
G1 X115.259 Y59.807 E97.61965
G1 X115.827 Y59.615 E97.65554
G1 X116.428 Y59.477 E97.69246
G1 X117.022 Y59.405 E97.72828
G1 X117.314 Y59.389 E97.74579
G1 X117.906 Y59.4 E97.78124
G1 X118.575 Y59.477 E97.82155
G1 X119.236 Y59.637 E97.86227
G1 X119.821 Y59.839 E97.89932
G1 X120.471 Y60.135 E97.94208
G1 X121.122 Y60.556 E97.98849
G1 X121.561 Y60.899 E98.02185
G1 X121.989 Y61.311 E98.05741
G1 X122.37 Y61.737 E98.09163
G1 X122.801 Y62.369 E98.13743
G1 X123.037 Y62.791 E98.16637
G1 X123.231 Y63.226 E98.19489
G1 X123.423 Y63.753 E98.22847
G1 X123.6 Y64.448 E98.2714
G1 X123.671 Y65.007 E98.30514
G1 X123.699 Y65.499 E98.33464
G1 X123.681 Y66.113 E98.37142
G1 X123.579 Y66.796 E98.41276
G1 X123.422 Y67.421 E98.45134
G1 X123.211 Y68.003 E98.4884
G1 X122.915 Y68.601 E98.52835
G1 X122.552 Y69.189 E98.56972
G1 X122.017 Y69.833 E98.61984
G1 X121.564 Y70.268 E98.65744
G1 X120.979 Y70.73 E98.70207
G1 X120.302 Y71.118 E98.74879
G1 X119.757 Y71.364 E98.78458
G1 X119.497 Y71.456 E98.8011
G1 X119.275 Y71.519 E98.81491
G0 F540 X118.848 Y71.64
G0 F4800 X118.807 Y71.157
G1 F600 X118.211 Y71.263 E98.85115
G1 X117.5 Y71.316 E98.89384
G1 X116.752 Y71.258 E98.93875
G1 X116.25 Y71.17 E98.96927
G1 X115.547 Y70.97 E99.01302
G1 X114.8 Y70.636 E99.06201
G1 X114.163 Y70.233 E99.10714
G1 X113.955 Y70.077 E99.1227
G1 X113.47 Y69.655 E99.16119
G1 X113.103 Y69.249 E99.19396
G1 X112.693 Y68.707 E99.23465
G1 X112.301 Y67.993 E99.28341
G1 X112.059 Y67.373 E99.32326
G1 X111.869 Y66.64 E99.36859
G1 X111.806 Y66.161 E99.39751
G1 X111.78 Y65.644 E99.4285
G1 X111.791 Y65.117 E99.46006
G1 X111.889 Y64.458 E99.49995
G1 X112.044 Y63.863 E99.53676
G1 X112.279 Y63.227 E99.57735
G1 X112.641 Y62.57 E99.62226
G1 X113.016 Y62.024 E99.66192
G1 X113.541 Y61.458 E99.70813
G1 X113.949 Y61.103 E99.74051
G1 X114.427 Y60.758 E99.7758
G1 X114.922 Y60.48 E99.80979
G1 X115.413 Y60.261 E99.84198
G1 X115.981 Y60.069 E99.87787
G1 X116.511 Y59.95 E99.91039
G1 X117.048 Y59.885 E99.94278
G1 X117.398 Y59.868 E99.96376
G1 X117.965 Y59.885 E99.99772
G1 X118.525 Y59.958 E100.03153
G1 X119.084 Y60.092 E100.06594
G1 X119.622 Y60.276 E100.09998
G1 X120.285 Y60.585 E100.14377
G1 X120.785 Y60.905 E100.17931
G1 X121.228 Y61.245 E100.21275
G1 X121.656 Y61.657 E100.24831
G1 X121.992 Y62.032 E100.27846
G1 X122.355 Y62.561 E100.31687
G1 X122.569 Y62.929 E100.34235
G1 X122.78 Y63.391 E100.37276
G1 X122.974 Y63.929 E100.407
G1 X123.128 Y64.537 E100.44455
G1 X123.187 Y64.984 E100.47154
G1 X123.22 Y65.558 E100.50596
G1 X123.207 Y66.031 E100.53429
G1 X123.11 Y66.692 E100.57429
G1 X122.964 Y67.277 E100.61039
G1 X122.768 Y67.817 E100.64478
G1 X122.538 Y68.292 E100.67637
G1 X122.156 Y68.918 E100.72028
G1 X121.664 Y69.508 E100.76627
G1 X121.263 Y69.894 E100.79959
G1 X120.702 Y70.338 E100.84242
G1 X120.09 Y70.687 E100.8846
G1 X119.597 Y70.911 E100.91702
G1 X119.295 Y71.017 E100.93618
G1 X119.234 Y71.035 E100.93999
G0 F540 X118.807 Y71.157
G1 F3600 E96.93999
G0 F4800 X118.856 Y71.339
G0 X118.299 Y71.958
G0 X118.181 Y84.177
G0 X124.594 Y85.691
G0 X126.917 Y86.514
G0 X129.277 Y87.577
G0 X131.577 Y88.909
G0 X133.665 Y90.417
G0 X135.5 Y92.037
G0 X137.257 Y93.921
G0 X138.891 Y96.073
G0 X140.229 Y98.275
G0 X141.34 Y100.598
G0 X142.224 Y103.046
G0 X142.842 Y105.487
G0 X143.223 Y108.025
G0 X143.35 Y110.588
G0 X143.222 Y113.145
G0 X143.058 Y114.668
G0 X142.559 Y116.93
G0 X141.807 Y119.38
G0 X140.775 Y121.832
G0 X139.54 Y124.095
G0 X138.084 Y126.223
G0 X136.426 Y128.196
G0 X134.579 Y129.993
G0 X132.562 Y131.597
G0 X130.395 Y132.992
G0 X128.101 Y134.165
G0 X126.913 Y134.664
G0 X124.819 Y135.407
G0 X120.757 Y136.584
G1 F3600 E100.93999
G1 F600 X119.414 Y136.719 E101.0208
G1 X118.166 Y136.779 E101.0956
G1 X116.857 Y136.78 E101.17397
G1 X115.522 Y136.711 E101.254
G1 X114.239 Y136.584 E101.33119
G1 X112.966 Y136.393 E101.40825
G1 X111.738 Y136.145 E101.48325
G1 X110.399 Y135.808 E101.56592
G1 X109.215 Y135.444 E101.64008
G1 X107.937 Y134.98 E101.72147
G1 X106.717 Y134.469 E101.80066
G1 X105.55 Y133.903 E101.87831
G1 X104.462 Y133.311 E101.95247
G1 X103.282 Y132.594 E102.03513
G1 X102.2 Y131.858 E102.11347
G1 X101.169 Y131.076 E102.19094
G1 X100.161 Y130.23 E102.26973
G1 X99.25 Y129.388 E102.344
G1 X98.288 Y128.403 E102.42642
G1 X97.424 Y127.423 E102.50464
G1 X96.615 Y126.404 E102.58254
G1 X95.849 Y125.342 E102.66093
G1 X95.136 Y124.24 E102.73951
G1 X94.489 Y123.115 E102.8172
G1 X93.89 Y121.951 E102.89558
G1 X93.358 Y120.77 E102.97312
G1 X92.854 Y119.478 E103.05615
G1 X92.436 Y118.228 E103.13506
G1 X92.089 Y116.982 E103.21249
G1 X91.801 Y115.705 E103.29086
G1 X91.589 Y114.481 E103.36523
G1 X91.423 Y113.142 E103.44601
G1 X91.328 Y111.852 E103.52345
G1 X91.3 Y110.561 E103.60076
G1 X91.331 Y109.239 E103.67993
G1 X91.427 Y108.003 E103.75415
G1 X91.593 Y106.674 E103.83433
G1 X91.817 Y105.394 E103.91213
G1 X92.104 Y104.136 E103.98938
G1 X92.45 Y102.906 E104.06587
G1 X92.868 Y101.663 E104.14438
G1 X93.349 Y100.423 E104.22401
G1 X93.878 Y99.251 E104.30099
G1 X94.48 Y98.072 E104.38024
G1 X95.124 Y96.957 E104.45733
G1 X95.841 Y95.839 E104.53685
G1 X96.591 Y94.798 E104.61366
G1 X97.395 Y93.785 E104.69109
G1 X98.333 Y92.722 E104.77596
G1 X99.151 Y91.887 E104.84594
G1 X100.104 Y90.993 E104.92417
G1 X101.121 Y90.135 E105.00383
G1 X102.162 Y89.343 E105.08214
G1 X103.247 Y88.601 E105.16083
G1 X104.349 Y87.924 E105.23826
G1 X105.566 Y87.26 E105.32126
G1 X106.656 Y86.734 E105.39372
G1 X107.991 Y86.171 E105.48046
G1 X109.178 Y85.742 E105.55602
G1 X110.446 Y85.352 E105.63544
G1 X111.722 Y85.031 E105.71422
G1 X112.986 Y84.777 E105.7914
G1 X114.247 Y84.585 E105.86777
G1 X115.542 Y84.458 E105.94567
G1 X116.826 Y84.397 E106.02263
G1 X118.17 Y84.397 E106.10309
G1 X119.453 Y84.458 E106.17999
G1 X120.773 Y84.593 E106.25942
G1 X122.07 Y84.787 E106.33794
G1 X123.338 Y85.045 E106.41541
G1 X124.612 Y85.372 E106.49415
G1 X125.843 Y85.75 E106.57124
G1 X127.045 Y86.183 E106.64773
G1 X128.253 Y86.694 E106.72626
