;FLAVOR:Marlin
;TIME:11618
;Filament used: 7.13833m
;Layer height: 0.2
;MINX:56.8
;MINY:66.3
;MINZ:0.3
;MAXX:178.2
;MAXY:168.7
;MAXZ:2.94
;TARGET_MACHINE.NAME:BIQU B1
;Generated with Cura_SteamEngine 5.12.0
                                 ; BIQU B1 Start G-code
M117 Getting the bed up to temp!
M140 S60      ; Set Heat Bed temperature
M190 S60      ; Wait for Heat Bed temperature
M117 Getting the extruder up to temp!
M104 S200    ; Set Extruder temperature
G92 E0                           ; Reset Extruder
M117 Homing axes
G28                              ; Home all axes
M109 S200    ; Wait for Extruder temperature
G1 Z2.0 F3000                    ; Move Z Axis up little to prevent scratching of Heat Bed
G1 X4.1 Y20 Z0.3 F5000.0         ; Move to start position
M117 Purging
G1 X4.1 Y200.0 Z0.3 F1500.0 E15  ; Draw the first line
G1 X4.4 Y200.0 Z0.3 F5000.0      ; Move to side a little
G1 X4.4 Y20 Z0.3 F1500.0 E30     ; Draw the second line
G92 E0                           ; Reset Extruder
M117 Lets make
G1 Z2.0 F3000                    ; Move Z Axis up little to prevent scratching of Heat Bed
G1 X5 Y20 Z0.3 F5000.0           ; Move over to prevent blob squish
M82 ;absolute extrusion mode
G92 E0
G92 E0
G1 F3600 E-4
;LAYER_COUNT:14
;LAYER:0
M107
G0 F4800 X60.262 Y69.422 Z0.3
;TYPE:SKIRT
G1 F3600 E0
G1 F600 X61.073 Y68.716 E0.06437
G1 X61.805 Y68.185 E0.11851
G1 X62.691 Y67.654 E0.18035
G1 X63.621 Y67.206 E0.24215
G1 X64.547 Y66.859 E0.30136
G1 X65.499 Y66.594 E0.36052
G1 X66.389 Y66.427 E0.41473
G1 X67.702 Y66.313 E0.49363
G1 X68.31 Y66.3 E0.53004
G1 X166.306 Y66.3 E6.39689
G1 X167.195 Y66.313 E6.45012
G1 X168.182 Y66.374 E6.50932
G1 X169.16 Y66.522 E6.56854
G1 X170.04 Y66.733 E6.62272
G1 X171.06 Y67.075 E6.68712
G1 X171.889 Y67.438 E6.7413
G1 X172.832 Y67.955 E6.80569
G1 X173.651 Y68.507 E6.86482
G1 X174.421 Y69.13 E6.92411
G1 X175.073 Y69.757 E6.97827
G1 X175.724 Y70.5 E7.03741
G1 X176.357 Y71.37 E7.10182
G1 X176.862 Y72.22 E7.16101
G1 X177.291 Y73.111 E7.22022
G1 X177.613 Y73.957 E7.27441
G1 X177.904 Y74.992 E7.33878
G1 X178.072 Y75.881 E7.39294
G1 X178.187 Y77.202 E7.47233
G1 X178.2 Y77.83 E7.50993
G1 X178.199 Y150.681 E11.87139
G1 X178.187 Y151.433 E11.91642
G1 X178.142 Y152.278 E11.96708
G1 X178.022 Y153.175 E12.02126
G1 X177.843 Y154.009 E12.07233
G1 X177.555 Y154.962 E12.13193
G1 X177.141 Y155.982 E12.19783
G1 X176.667 Y156.992 E12.26463
G1 X175.634 Y159.282 E12.41503
G1 X174.467 Y162.064 E12.59564
G1 X174.011 Y162.969 E12.65631
G1 X173.488 Y163.81 E12.71561
G1 X172.867 Y164.635 E12.77743
G1 X172.233 Y165.338 E12.8341
G1 X171.541 Y165.984 E12.89078
G1 X170.729 Y166.621 E12.95256
G1 X169.86 Y167.179 E13.01439
G1 X169.015 Y167.622 E13.07151
G1 X167.74 Y168.13 E13.15368
G1 X166.87 Y168.377 E13.20782
G1 X165.801 Y168.58 E13.27296
G1 X164.548 Y168.687 E13.34825
G1 X163.92 Y168.7 E13.38586
G1 X71.297 Y168.699 E18.93103
G1 X70.554 Y168.687 E18.97552
G1 X69.566 Y168.626 E19.03478
G1 X68.588 Y168.478 E19.094
G1 X67.708 Y168.267 E19.14818
G1 X66.689 Y167.925 E19.21253
G1 X65.821 Y167.544 E19.26928
G1 X64.917 Y167.046 E19.33107
G1 X64.097 Y166.494 E19.39025
G1 X63.36 Y165.899 E19.44696
G1 X62.646 Y165.213 E19.50623
G1 X61.97 Y164.433 E19.56803
G1 X61.391 Y163.631 E19.62725
G1 X60.908 Y162.821 E19.68371
G1 X60.524 Y162.042 E19.7357
G1 X59.727 Y160.129 E19.85977
G1 X58.708 Y157.799 E20.01202
G1 X57.82 Y155.895 E20.1378
G1 X57.432 Y154.924 E20.2004
G1 X57.136 Y153.925 E20.26278
G1 X56.954 Y153.039 E20.31693
G1 X56.845 Y152.141 E20.37109
G1 X56.813 Y151.548 E20.40664
G1 X56.8 Y150.92 E20.44425
G1 X56.801 Y78.005 E24.80954
G1 X56.813 Y77.297 E24.85193
G1 X56.875 Y76.309 E24.9112
G1 X57.024 Y75.333 E24.97031
G1 X57.235 Y74.453 E25.02448
G1 X57.578 Y73.433 E25.08891
G1 X57.941 Y72.604 E25.14309
G1 X58.436 Y71.699 E25.20485
G1 X59.012 Y70.842 E25.26666
G1 X59.634 Y70.074 E25.32583
G1 X60.262 Y69.422 E25.38003
G0 F4800 X60.608 Y69.755
G1 F600 X61.355 Y69.105 E25.43931
G1 X62.087 Y68.574 E25.49345
G1 X62.937 Y68.066 E25.55273
G1 X63.79 Y67.655 E25.60942
G1 X64.676 Y67.321 E25.66611
G1 X65.588 Y67.066 E25.7228
G1 X66.478 Y66.899 E25.77701
G1 X67.712 Y66.793 E25.85116
G1 X68.32 Y66.78 E25.88757
G1 X166.299 Y66.78 E31.7534
G1 X167.166 Y66.792 E31.80531
G1 X168.111 Y66.849 E31.86199
G1 X169.048 Y66.989 E31.91871
G1 X169.928 Y67.2 E31.97289
G1 X170.867 Y67.515 E32.03218
G1 X171.696 Y67.878 E32.08636
G1 X172.564 Y68.353 E32.1456
G1 X173.35 Y68.881 E32.20229
G1 X174.088 Y69.476 E32.25904
G1 X174.74 Y70.103 E32.3132
G1 X175.363 Y70.816 E32.36988
G1 X175.945 Y71.616 E32.42911
G1 X176.43 Y72.429 E32.48579
G1 X176.842 Y73.282 E32.5425
G1 X177.164 Y74.128 E32.59669
G1 X177.432 Y75.081 E32.65596
G1 X177.6 Y75.97 E32.71012
G1 X177.707 Y77.212 E32.78476
G1 X177.72 Y77.83 E32.82176
G1 X177.719 Y150.674 E37.1828
G1 X177.708 Y151.408 E37.22675
G1 X177.666 Y152.214 E37.27507
G1 X177.546 Y153.111 E37.32925
G1 X177.383 Y153.871 E37.37579
G1 X177.11 Y154.781 E37.43267
G1 X176.696 Y155.801 E37.49857
G1 X176.229 Y156.795 E37.56432
G1 X175.196 Y159.085 E37.71472
G1 X174.024 Y161.878 E37.89606
G1 X173.603 Y162.716 E37.9522
G1 X173.08 Y163.557 E38.01149
G1 X172.51 Y164.314 E38.06823
G1 X171.905 Y164.987 E38.1224
G1 X171.213 Y165.633 E38.17908
G1 X170.433 Y166.243 E38.23836
G1 X169.636 Y166.754 E38.29504
G1 X168.836 Y167.176 E38.34919
G1 X167.609 Y167.668 E38.42833
G1 X166.739 Y167.915 E38.48248
G1 X165.76 Y168.102 E38.54215
G1 X164.538 Y168.207 E38.61558
G1 X163.92 Y168.22 E38.65258
G1 X71.304 Y168.219 E44.19734
G1 X70.583 Y168.208 E44.24051
G1 X69.637 Y168.151 E44.29725
G1 X68.7 Y168.011 E44.35397
G1 X67.82 Y167.8 E44.40815
G1 X66.882 Y167.485 E44.46738
G1 X66.014 Y167.104 E44.52414
G1 X65.184 Y166.647 E44.58086
G1 X64.398 Y166.12 E44.63751
G1 X63.693 Y165.553 E44.69168
G1 X62.979 Y164.867 E44.75096
G1 X62.359 Y164.151 E44.80766
G1 X61.803 Y163.384 E44.86437
G1 X61.338 Y162.608 E44.91853
G1 X60.967 Y161.857 E44.96868
G1 X60.17 Y159.944 E45.09275
G1 X59.148 Y157.607 E45.24546
G1 X58.255 Y155.692 E45.37196
G1 X57.892 Y154.787 E45.43034
G1 X57.606 Y153.828 E45.49025
G1 X57.431 Y152.981 E45.54203
G1 X57.322 Y152.083 E45.59618
G1 X57.293 Y151.538 E45.62886
G1 X57.28 Y150.92 E45.66587
G1 X57.281 Y78.013 E50.03068
G1 X57.292 Y77.326 E50.07181
G1 X57.35 Y76.381 E50.1285
G1 X57.491 Y75.445 E50.18516
G1 X57.702 Y74.565 E50.23934
G1 X58.018 Y73.626 E50.29866
G1 X58.381 Y72.797 E50.35284
G1 X58.857 Y71.93 E50.41205
G1 X59.385 Y71.144 E50.46874
G1 X59.98 Y70.407 E50.52545
G1 X60.608 Y69.755 E50.57964
G0 F4800 X60.954 Y70.088
G1 F600 X61.637 Y69.494 E50.63383
G1 X62.369 Y68.963 E50.68797
G1 X63.146 Y68.498 E50.74218
G1 X63.96 Y68.104 E50.79633
G1 X64.806 Y67.783 E50.8505
G1 X65.677 Y67.538 E50.90467
G1 X66.567 Y67.371 E50.95888
G1 X67.722 Y67.273 E51.02827
G1 X68.33 Y67.26 E51.06468
G1 X166.293 Y67.26 E56.92956
G1 X167.138 Y67.271 E56.98015
G1 X168.041 Y67.324 E57.0343
G1 X168.936 Y67.456 E57.08846
G1 X169.816 Y67.667 E57.14264
G1 X170.674 Y67.955 E57.19683
G1 X171.503 Y68.318 E57.25101
G1 X172.297 Y68.752 E57.30518
G1 X173.049 Y69.255 E57.35934
G1 X173.755 Y69.822 E57.41355
G1 X174.407 Y70.449 E57.46771
G1 X175.001 Y71.131 E57.52185
G1 X175.533 Y71.863 E57.57603
G1 X175.998 Y72.639 E57.63019
G1 X176.393 Y73.453 E57.68436
G1 X176.715 Y74.299 E57.73855
G1 X176.96 Y75.17 E57.79272
G1 X177.128 Y76.059 E57.84688
G1 X177.227 Y77.222 E57.91676
G1 X177.24 Y77.83 E57.95317
G1 X177.239 Y150.667 E62.31379
G1 X177.229 Y151.384 E62.35672
G1 X177.19 Y152.15 E62.40264
G1 X177.07 Y153.047 E62.45682
G1 X176.923 Y153.734 E62.49888
G1 X176.665 Y154.601 E62.55304
G1 X176.261 Y155.597 E62.61738
G1 X175.795 Y156.591 E62.68311
G1 X174.753 Y158.899 E62.83471
G1 X173.581 Y161.692 E63.01605
G1 X173.174 Y162.5 E63.07021
G1 X172.696 Y163.269 E63.12442
G1 X172.153 Y163.993 E63.1786
G1 X171.548 Y164.666 E63.23278
G1 X170.886 Y165.282 E63.28692
G1 X170.173 Y165.839 E63.34109
G1 X169.412 Y166.329 E63.39527
G1 X168.612 Y166.751 E63.44942
G1 X167.478 Y167.206 E63.52257
G1 X166.608 Y167.453 E63.57672
G1 X165.719 Y167.624 E63.63092
G1 X164.528 Y167.727 E63.70249
G1 X163.92 Y167.74 E63.73889
G1 X71.311 Y167.739 E69.28323
G1 X70.611 Y167.729 E69.32514
G1 X69.707 Y167.676 E69.37936
G1 X68.812 Y167.544 E69.43352
G1 X67.932 Y167.333 E69.4877
G1 X67.074 Y167.045 E69.54188
G1 X66.245 Y166.683 E69.59604
G1 X65.451 Y166.248 E69.65024
G1 X64.699 Y165.746 E69.70437
G1 X63.994 Y165.179 E69.75853
G1 X63.341 Y164.552 E69.81273
G1 X62.747 Y163.869 E69.86692
G1 X62.215 Y163.137 E69.9211
G1 X61.75 Y162.361 E69.97526
G1 X61.41 Y161.672 E70.02125
G1 X60.613 Y159.759 E70.14532
G1 X59.588 Y157.415 E70.29849
G1 X58.69 Y155.489 E70.42571
G1 X58.352 Y154.649 E70.47992
G1 X58.076 Y153.73 E70.53736
G1 X57.908 Y152.923 E70.58671
G1 X57.799 Y152.025 E70.64087
G1 X57.773 Y151.528 E70.67066
G1 X57.76 Y150.92 E70.70707
G1 X57.761 Y78.02 E75.07147
G1 X57.771 Y77.355 E75.11128
G1 X57.825 Y76.452 E75.16544
G1 X57.958 Y75.557 E75.21961
G1 X58.169 Y74.677 E75.27379
G1 X58.458 Y73.819 E75.32799
G1 X58.821 Y72.99 E75.38217
G1 X59.256 Y72.197 E75.43632
G1 X59.759 Y71.445 E75.49049
G1 X60.326 Y70.74 E75.54465
G1 X60.954 Y70.088 E75.59885
G1 F3600 E71.59885
;MESH:Bird_House-LateralChamfer.obj
G0 F4800 X68.424 Y76.835
G0 X68.424 Y77.924
G0 X69.412 Y149.836
G0 X71.948 Y151.136
;TYPE:WALL-INNER
G1 F3600 E75.59885
G1 F600 X71.948 Y156.3 E75.90801
G1 X163.048 Y156.3 E81.362
G1 X163.048 Y151.147 E81.6705
G1 X163.15 Y150.762 E81.69435
G1 X163.314 Y150.493 E81.71321
G1 X163.453 Y150.348 E81.72524
G1 X163.716 Y150.171 E81.74421
G1 X163.936 Y150.089 E81.75827
G1 X164.248 Y150.048 E81.77711
G1 X165.8 Y150.048 E81.87003
G1 X165.8 Y78.7 E86.1415
G1 X69.2 Y78.7 E91.92478
G1 X69.2 Y150.048 E96.19626
G1 X70.748 Y150.048 E96.28893
G1 X71.06 Y150.089 E96.30777
G1 X71.434 Y150.263 E96.33247
G1 X71.623 Y150.426 E96.34741
G1 X71.828 Y150.712 E96.36848
G0 F540 X71.859 Y150.755
G0 X71.948 Y151.136
G1 F3600 E92.36848
G0 F4800 X72.16 Y156.088
G0 X162.836 Y156.088
G0 X163.164 Y150.346
G0 X163.836 Y150.34
G0 X163.836 Y150.656
G1 F3600 E96.36848
G1 F600 X164.113 Y150.528 E96.38674
G1 X166.28 Y150.528 E96.51648
G1 X166.28 Y78.22 E100.84543
G1 X68.72 Y78.22 E106.68618
G1 X68.72 Y150.528 E111.01513
G1 X70.885 Y150.528 E111.14475
G1 X71.16 Y150.657 E111.16293
G1 X71.407 Y150.956 E111.18615
G1 X71.463 Y151.157 E111.19864
G1 X71.468 Y156.78 E111.53528
G1 X163.528 Y156.78 E117.04675
G1 X163.533 Y151.157 E117.38339
G1 X163.574 Y151.009 E117.39258
G0 F540 X163.589 Y150.956
G0 X163.836 Y150.656
G0 F4800 X164.203 Y151.008
;TYPE:WALL-OUTER
G1 F600 X166.76 Y151.008 E117.54567
G1 X166.76 Y77.74 E121.93209
G1 X68.24 Y77.74 E127.83031
G1 X68.24 Y151.008 E132.21674
G1 X70.748 Y151.008 E132.36689
G1 X70.923 Y151.083 E132.37829
G1 X70.987 Y151.217 E132.38718
G1 X70.988 Y157.26 E132.74896
G1 X164.008 Y157.26 E138.31791
G1 X164.009 Y151.356 E138.67137
G0 F540 X164.009 Y151.173
G0 X164.11 Y151.05
G0 X164.203 Y151.008
G0 F4800 X164.203 Y150.34
G0 X163.412 Y150.412
G0 X162.907 Y151.253
G0 X162.609 Y151.226
;TYPE:SKIN
G1 F600 X162.608 Y155.86 E138.9488
G1 X72.388 Y155.86 E144.35011
G1 X72.387 Y151.223 E144.62772
G1 X72.347 Y150.887 E144.64798
G1 X72.242 Y150.569 E144.66803
G1 X72.027 Y150.216 E144.69277
G1 X71.828 Y150.013 E144.70979
G1 X71.448 Y149.762 E144.73705
G1 X71.2 Y149.67 E144.75289
G1 X70.775 Y149.61 E144.77859
G1 X69.64 Y149.608 E144.84654
G1 X69.64 Y79.14 E149.06533
G1 X165.36 Y79.14 E154.79592
G1 X165.36 Y149.608 E159.01472
G1 X164.248 Y149.608 E159.08129
G1 X163.797 Y149.67 E159.10854
G1 X163.494 Y149.788 E159.12801
G1 X163.167 Y150.01 E159.15167
G1 X162.959 Y150.23 E159.1698
G1 X162.751 Y150.575 E159.19392
G1 X162.65 Y150.86 E159.21202
G1 X162.609 Y151.226 E159.23407
G1 F3600 E155.23407
G0 F4800 X162.907 Y151.253
G0 X163.628 Y149.991
G0 X165.588 Y149.836
G0 X165.66 Y79.588
G0 X165.12 Y79.588
G1 F3600 E159.23407
G1 F600 X164.912 Y79.381 E159.25164
G0 F4800 X164.233 Y79.381
G1 F600 X165.12 Y80.267 E159.32669
G0 F4800 X165.12 Y80.946
G1 F600 X163.555 Y79.381 E159.4592
G0 F4800 X162.876 Y79.381
G1 F600 X165.12 Y81.625 E159.64919
G0 F4800 X165.12 Y82.304
G1 F600 X162.197 Y79.381 E159.89667
G0 F4800 X161.518 Y79.381
G1 F600 X165.12 Y82.983 E160.20164
G0 F4800 X165.12 Y83.661
G1 F600 X160.839 Y79.381 E160.56405
G0 F4800 X160.16 Y79.381
G1 F600 X165.12 Y84.34 E160.98395
G0 F4800 X165.12 Y85.019
G1 F600 X159.482 Y79.381 E161.4613
G0 F4800 X158.803 Y79.381
G1 F600 X165.12 Y85.698 E161.99614
G0 F4800 X165.12 Y86.377
G1 F600 X158.124 Y79.381 E162.58847
G0 F4800 X157.445 Y79.381
G1 F600 X165.12 Y87.055 E163.23824
G0 F4800 X165.12 Y87.734
G1 F600 X156.766 Y79.381 E163.9455
G0 F4800 X156.087 Y79.381
G1 F600 X165.12 Y88.413 E164.71025
G0 F4800 X165.12 Y89.092
G1 F600 X155.409 Y79.381 E165.53245
G0 F4800 X154.73 Y79.381
G1 F600 X165.12 Y89.771 E166.41213
G0 F4800 X165.12 Y90.45
G1 F600 X154.051 Y79.381 E167.34931
G0 F4800 X153.372 Y79.381
G1 F600 X165.12 Y91.128 E168.34393
G0 F4800 X165.12 Y91.807
G1 F600 X152.693 Y79.381 E169.39604
G0 F4800 X152.015 Y79.381
G1 F600 X165.12 Y92.486 E170.50559
G0 F4800 X165.12 Y93.165
G1 F600 X151.336 Y79.381 E171.67263
G0 F4800 X150.657 Y79.381
G1 F600 X165.12 Y93.844 E172.89716
G0 F4800 X165.12 Y94.522
G1 F600 X149.978 Y79.381 E174.17914
G0 F4800 X149.299 Y79.381
G1 F600 X165.12 Y95.201 E175.51861
G0 F4800 X165.12 Y95.88
G1 F600 X148.62 Y79.381 E176.91556
G0 F4800 X147.942 Y79.381
G1 F600 X165.12 Y96.559 E178.36996
G0 F4800 X165.12 Y97.238
G1 F600 X147.263 Y79.381 E179.88185
G0 F4800 X146.584 Y79.381
G1 F600 X165.12 Y97.917 E181.45123
G0 F4800 X165.12 Y98.595
G1 F600 X145.905 Y79.381 E183.07805
G0 F4800 X145.226 Y79.381
G1 F600 X165.12 Y99.274 E184.76237
G0 F4800 X165.12 Y99.953
G1 F600 X144.547 Y79.381 E186.50417
G0 F4800 X143.869 Y79.381
G1 F600 X165.12 Y100.632 E188.30342
G0 F4800 X165.12 Y101.311
G1 F600 X143.19 Y79.381 E190.16015
G0 F4800 X142.511 Y79.381
G1 F600 X165.12 Y101.99 E192.07438
G0 F4800 X165.12 Y102.668
G1 F600 X141.832 Y79.381 E194.04605
G0 F4800 X141.153 Y79.381
G1 F600 X165.12 Y103.347 E196.07521
G0 F4800 X165.12 Y104.026
G1 F600 X140.475 Y79.381 E198.16181
G0 F4800 X139.796 Y79.381
G1 F600 X165.12 Y104.705 E200.30591
G0 F4800 X165.12 Y105.384
G1 F600 X139.117 Y79.381 E202.50749
G0 F4800 X138.438 Y79.381
G1 F600 X165.12 Y106.062 E204.76652
G0 F4800 X165.12 Y106.741
G1 F600 X137.759 Y79.381 E207.08303
G0 F4800 X137.08 Y79.381
G1 F600 X165.12 Y107.42 E209.45704
G0 F4800 X165.12 Y108.099
G1 F600 X136.402 Y79.381 E211.88849
G0 F4800 X135.723 Y79.381
G1 F600 X165.12 Y108.778 E214.37743
G0 F4800 X165.12 Y109.457
G1 F600 X135.044 Y79.381 E216.92386
G0 F4800 X134.365 Y79.381
G1 F600 X165.12 Y110.135 E219.52774
G0 F4800 X165.12 Y110.814
G1 F600 X133.686 Y79.381 E222.1891
G0 F4800 X133.007 Y79.381
G1 F600 X165.12 Y111.493 E224.90795
G0 F4800 X165.12 Y112.172
G1 F600 X132.329 Y79.381 E227.68425
G0 F4800 X131.65 Y79.381
G1 F600 X165.12 Y112.851 E230.51804
G0 F4800 X165.12 Y113.53
G1 F600 X130.971 Y79.381 E233.40931
G0 F4800 X130.292 Y79.381
G1 F600 X165.12 Y114.208 E236.35804
G0 F4800 X165.12 Y114.887
G1 F600 X129.613 Y79.381 E239.36425
G0 F4800 X128.935 Y79.381
G1 F600 X165.12 Y115.566 E242.4279
G0 F4800 X165.12 Y116.245
G1 F600 X128.256 Y79.381 E245.54905
G0 F4800 X127.577 Y79.381
G1 F600 X165.12 Y116.924 E248.72768
G0 F4800 X165.12 Y117.602
G1 F600 X126.898 Y79.381 E251.96376
G0 F4800 X126.219 Y79.381
G1 F600 X165.12 Y118.281 E255.25733
G0 F4800 X165.12 Y118.96
G1 F600 X125.54 Y79.381 E258.60839
G0 F4800 X124.862 Y79.381
G1 F600 X165.12 Y119.639 E262.01689
G0 F4800 X165.12 Y120.318
G1 F600 X124.183 Y79.381 E265.48288
G0 F4800 X123.504 Y79.381
G1 F600 X165.12 Y120.997 E269.00636
G0 F4800 X165.12 Y121.675
G1 F600 X122.825 Y79.381 E272.58729
G0 F4800 X122.146 Y79.381
G1 F600 X165.12 Y122.354 E276.2257
G0 F4800 X165.12 Y123.033
G1 F600 X121.468 Y79.381 E279.92157
G0 F4800 X120.789 Y79.381
G1 F600 X165.12 Y123.712 E283.67491
G0 F4800 X165.12 Y124.391
G1 F600 X120.11 Y79.381 E287.48575
G0 F4800 X119.431 Y79.381
G1 F600 X165.12 Y125.07 E291.35408
G0 F4800 X165.12 Y125.748
G1 F600 X118.752 Y79.381 E295.27985
G0 F4800 X118.073 Y79.381
