;FLAVOR:Marlin
;TIME:17079
;Filament used: 11.8407m
;Layer height: 0.2
;MINX:46.366
;MINY:37.423
;MINZ:0.3
;MAXX:188.766
;MAXY:214.846
;MAXZ:2.94
;TARGET_MACHINE.NAME:BIQU B1
;Generated with Cura_SteamEngine 5.12.0
                                 ; BIQU B1 Start G-code
M117 Getting the bed up to temp!
M140 S60      ; Set Heat Bed temperature
M190 S60      ; Wait for Heat Bed temperature
M117 Getting the extruder up to temp!
M104 S200    ; Set Extruder temperature
G92 E0                           ; Reset Extruder
M117 Homing axes
G28                              ; Home all axes
M109 S200    ; Wait for Extruder temperature
G1 Z2.0 F3000                    ; Move Z Axis up little to prevent scratching of Heat Bed
G1 X4.1 Y20 Z0.3 F5000.0         ; Move to start position
M117 Purging
G1 X4.1 Y200.0 Z0.3 F1500.0 E15  ; Draw the first line
G1 X4.4 Y200.0 Z0.3 F5000.0      ; Move to side a little
G1 X4.4 Y20 Z0.3 F1500.0 E30     ; Draw the second line
G92 E0                           ; Reset Extruder
M117 Lets make
G1 Z2.0 F3000                    ; Move Z Axis up little to prevent scratching of Heat Bed
G1 X5 Y20 Z0.3 F5000.0           ; Move over to prevent blob squish
M82 ;absolute extrusion mode
G92 E0
G92 E0
G1 F3600 E-4
;LAYER_COUNT:12
;LAYER:0
M107
G0 F4800 X49.2 Y41.197 Z0.3
;TYPE:SKIRT
G1 F3600 E0
G1 F600 X49.828 Y40.545 E0.0542
G1 X50.639 Y39.839 E0.11857
G1 X51.371 Y39.308 E0.17271
G1 X52.257 Y38.777 E0.23455
G1 X53.187 Y38.329 E0.29635
G1 X54.113 Y37.982 E0.35555
G1 X55.065 Y37.717 E0.41471
G1 X55.955 Y37.55 E0.46893
G1 X57.268 Y37.436 E0.54783
G1 X57.876 Y37.423 E0.58424
G1 X176.872 Y37.423 E7.70832
G1 X177.761 Y37.436 E7.76155
G1 X178.748 Y37.497 E7.82075
G1 X179.726 Y37.645 E7.87997
G1 X180.606 Y37.856 E7.93415
G1 X181.626 Y38.198 E7.99855
G1 X182.455 Y38.561 E8.05273
G1 X183.398 Y39.078 E8.11712
G1 X184.217 Y39.63 E8.17625
G1 X184.987 Y40.253 E8.23554
G1 X185.639 Y40.88 E8.2897
G1 X186.29 Y41.623 E8.34884
G1 X186.923 Y42.493 E8.41325
G1 X187.428 Y43.343 E8.47244
G1 X187.857 Y44.234 E8.53165
G1 X188.179 Y45.08 E8.58584
G1 X188.47 Y46.115 E8.65021
G1 X188.638 Y47.004 E8.70437
G1 X188.753 Y48.325 E8.78376
G1 X188.766 Y48.953 E8.82136
G1 X188.765 Y123.118 E13.26149
G1 X188.753 Y123.852 E13.30544
G1 X188.708 Y124.692 E13.3558
G1 X188.588 Y125.589 E13.40998
G1 X188.352 Y126.636 E13.47424
G1 X188.077 Y127.498 E13.5284
G1 X187.66 Y128.489 E13.59277
G1 X187.198 Y129.357 E13.65164
G1 X186.756 Y130.047 E13.7007
G1 X186.209 Y130.807 E13.75676
G1 X126.909 Y209.872 E19.67366
G1 X126.284 Y210.677 E19.73467
G1 X125.659 Y211.389 E19.79139
G1 X124.912 Y212.1 E19.85313
G1 X124.138 Y212.716 E19.91235
G1 X123.384 Y213.217 E19.96655
G1 X122.478 Y213.711 E20.02833
G1 X121.531 Y214.121 E20.09011
G1 X120.631 Y214.419 E20.14687
G1 X119.626 Y214.655 E20.20867
G1 X118.646 Y214.793 E20.26792
G1 X117.659 Y214.846 E20.3271
G1 X116.711 Y214.814 E20.38388
G1 X115.688 Y214.687 E20.4456
G1 X114.72 Y214.479 E20.50487
G1 X113.775 Y214.186 E20.56411
G1 X112.936 Y213.845 E20.61833
G1 X111.98 Y213.354 E20.68267
G1 X111.18 Y212.848 E20.73934
G1 X110.361 Y212.22 E20.80113
G1 X109.624 Y211.543 E20.86104
G1 X108.837 Y210.664 E20.93167
G1 X108.378 Y210.08 E20.97614
G1 X49.009 Y130.921 E26.90002
G1 X48.383 Y130.058 E26.96385
G1 X47.9 Y129.307 E27.01731
G1 X47.572 Y128.695 E27.05888
G1 X47.533 Y128.598 E27.06514
G1 X47.406 Y128.35 E27.08182
G1 X47.016 Y127.393 E27.14369
G1 X46.749 Y126.528 E27.19788
G1 X46.526 Y125.477 E27.26221
G1 X46.485 Y125.145 E27.28223
G1 X46.459 Y125.028 E27.28941
G1 X46.411 Y124.559 E27.31763
G1 X46.38 Y123.992 E27.35163
G1 X46.366 Y123.135 E27.40294
G1 X46.367 Y49.128 E31.83361
G1 X46.379 Y48.42 E31.876
G1 X46.441 Y47.432 E31.93527
G1 X46.59 Y46.456 E31.99438
G1 X46.801 Y45.576 E32.04856
G1 X47.144 Y44.556 E32.11298
G1 X47.507 Y43.727 E32.16716
G1 X48.002 Y42.822 E32.22892
G1 X48.578 Y41.965 E32.29074
G1 X49.2 Y41.197 E32.3499
G0 F4800 X49.546 Y41.53
G1 F600 X50.174 Y40.878 E32.4041
G1 X50.921 Y40.228 E32.46338
G1 X51.653 Y39.697 E32.51752
G1 X52.503 Y39.189 E32.57681
G1 X53.356 Y38.778 E32.63349
G1 X54.242 Y38.444 E32.69018
G1 X55.154 Y38.189 E32.74687
G1 X56.044 Y38.022 E32.80109
G1 X57.278 Y37.916 E32.87523
G1 X57.886 Y37.903 E32.91164
G1 X176.865 Y37.903 E40.03471
G1 X177.732 Y37.915 E40.08662
G1 X178.677 Y37.972 E40.1433
G1 X179.614 Y38.112 E40.20002
G1 X180.494 Y38.323 E40.25419
G1 X181.433 Y38.638 E40.31349
G1 X182.262 Y39.001 E40.36767
G1 X183.13 Y39.476 E40.42691
G1 X183.916 Y40.004 E40.48359
G1 X184.654 Y40.599 E40.54035
G1 X185.306 Y41.226 E40.5945
G1 X185.929 Y41.939 E40.65119
G1 X186.511 Y42.739 E40.71042
G1 X186.996 Y43.552 E40.76709
G1 X187.408 Y44.405 E40.8238
G1 X187.73 Y45.251 E40.878
G1 X187.998 Y46.204 E40.93726
G1 X188.166 Y47.093 E40.99143
G1 X188.273 Y48.335 E41.06606
G1 X188.286 Y48.953 E41.10307
G1 X188.285 Y123.111 E45.54278
G1 X188.274 Y123.827 E45.58565
G1 X188.232 Y124.628 E45.63367
G1 X188.112 Y125.525 E45.68785
G1 X187.895 Y126.49 E45.74706
G1 X187.62 Y127.352 E45.80123
G1 X187.236 Y128.264 E45.86048
G1 X186.794 Y129.098 E45.91698
G1 X186.366 Y129.767 E45.96453
G1 X185.825 Y130.519 E46.01999
G1 X126.53 Y209.578 E51.93642
G1 X125.923 Y210.36 E51.99569
G1 X125.298 Y211.072 E52.05241
G1 X124.612 Y211.725 E52.10911
G1 X123.872 Y212.316 E52.16581
G1 X123.118 Y212.817 E52.22
G1 X122.287 Y213.271 E52.27669
G1 X121.38 Y213.665 E52.3359
G1 X120.48 Y213.963 E52.39266
G1 X119.558 Y214.18 E52.44936
G1 X118.62 Y214.314 E52.50609
G1 X117.675 Y214.366 E52.56275
G1 X116.727 Y214.334 E52.61954
G1 X115.788 Y214.218 E52.67618
G1 X114.861 Y214.02 E52.73293
G1 X113.956 Y213.741 E52.78963
G1 X113.117 Y213.4 E52.84385
G1 X112.237 Y212.948 E52.90307
G1 X111.437 Y212.442 E52.95975
G1 X110.685 Y211.866 E53.01646
G1 X109.982 Y211.223 E53.07349
G1 X109.195 Y210.344 E53.14413
G1 X108.762 Y209.792 E53.18613
G1 X49.398 Y130.639 E59.10954
G1 X48.772 Y129.776 E59.17337
G1 X48.323 Y129.08 E59.22296
G1 X47.995 Y128.468 E59.26452
G1 X47.982 Y128.422 E59.26739
G1 X47.85 Y128.168 E59.28452
G1 X47.475 Y127.251 E59.34384
G1 X47.208 Y126.386 E59.39803
G1 X47.002 Y125.418 E59.45728
G1 X46.956 Y125.048 E59.47961
G1 X46.937 Y124.979 E59.48389
G1 X46.889 Y124.51 E59.51211
G1 X46.86 Y123.984 E59.54365
G1 X46.846 Y123.135 E59.59449
G1 X46.847 Y49.136 E64.02468
G1 X46.858 Y48.449 E64.06581
G1 X46.916 Y47.504 E64.1225
G1 X47.057 Y46.568 E64.17916
G1 X47.268 Y45.688 E64.23334
G1 X47.584 Y44.749 E64.29266
G1 X47.947 Y43.92 E64.34684
G1 X48.423 Y43.053 E64.40605
G1 X48.951 Y42.267 E64.46274
G1 X49.546 Y41.53 E64.51945
G0 F4800 X49.892 Y41.863
G1 F600 X50.52 Y41.211 E64.57364
G1 X51.203 Y40.617 E64.62783
G1 X51.935 Y40.086 E64.68197
G1 X52.712 Y39.621 E64.73618
G1 X53.526 Y39.227 E64.79032
G1 X54.372 Y38.906 E64.8445
G1 X55.243 Y38.661 E64.89867
G1 X56.133 Y38.494 E64.95288
G1 X57.288 Y38.396 E65.02227
G1 X57.896 Y38.383 E65.05868
G1 X176.859 Y38.383 E72.18079
G1 X177.704 Y38.394 E72.23138
G1 X178.607 Y38.447 E72.28554
G1 X179.502 Y38.579 E72.3397
G1 X180.382 Y38.79 E72.39387
G1 X181.24 Y39.078 E72.44806
G1 X182.069 Y39.441 E72.50224
G1 X182.863 Y39.875 E72.55641
G1 X183.615 Y40.378 E72.61057
G1 X184.321 Y40.945 E72.66479
G1 X184.973 Y41.572 E72.71894
G1 X185.567 Y42.254 E72.77309
G1 X186.099 Y42.986 E72.82726
G1 X186.564 Y43.762 E72.88142
G1 X186.959 Y44.576 E72.93559
G1 X187.281 Y45.422 E72.98978
G1 X187.526 Y46.293 E73.04395
G1 X187.694 Y47.182 E73.09811
G1 X187.793 Y48.345 E73.16799
G1 X187.806 Y48.953 E73.2044
G1 X187.805 Y123.104 E77.64369
G1 X187.795 Y123.802 E77.68548
G1 X187.756 Y124.564 E77.73116
G1 X187.636 Y125.461 E77.78534
G1 X187.438 Y126.344 E77.83952
G1 X187.163 Y127.206 E77.89369
G1 X186.812 Y128.04 E77.94786
G1 X186.389 Y128.84 E78.00204
G1 X185.976 Y129.487 E78.04799
G1 X185.441 Y130.231 E78.10285
G1 X126.151 Y209.284 E84.01882
G1 X125.562 Y210.044 E84.07638
G1 X124.966 Y210.725 E84.13056
G1 X124.312 Y211.35 E84.18472
G1 X123.606 Y211.916 E84.23889
G1 X122.852 Y212.417 E84.29309
G1 X122.058 Y212.849 E84.34721
G1 X121.228 Y213.21 E84.40139
G1 X120.369 Y213.496 E84.4556
G1 X119.489 Y213.705 E84.50975
G1 X118.593 Y213.835 E84.56395
G1 X117.69 Y213.886 E84.6181
G1 X116.785 Y213.857 E84.6723
G1 X115.887 Y213.748 E84.72646
G1 X115.002 Y213.561 E84.78061
G1 X114.137 Y213.296 E84.83478
G1 X113.298 Y212.955 E84.889
G1 X112.493 Y212.542 E84.94316
G1 X111.728 Y212.06 E84.99729
G1 X111.008 Y211.511 E85.0515
G1 X110.339 Y210.902 E85.10566
G1 X109.573 Y210.048 E85.17434
G1 X109.146 Y209.504 E85.21575
G1 X49.786 Y130.357 E91.13873
G1 X49.175 Y129.515 E91.20101
G1 X48.746 Y128.853 E91.24824
G1 X48.418 Y128.241 E91.28981
G1 X48.426 Y128.237 E91.29034
G1 X48.276 Y127.947 E91.30989
G1 X47.934 Y127.109 E91.36408
G1 X47.667 Y126.244 E91.41827
G1 X47.478 Y125.359 E91.47245
G1 X47.425 Y124.929 E91.49839
G1 X47.415 Y124.93 E91.49899
G1 X47.367 Y124.461 E91.52722
G1 X47.34 Y123.976 E91.5563
G1 X47.326 Y123.135 E91.60665
G1 X47.327 Y49.143 E96.03642
G1 X47.337 Y48.478 E96.07624
G1 X47.391 Y47.575 E96.1304
G1 X47.524 Y46.68 E96.18457
G1 X47.735 Y45.8 E96.23875
G1 X48.024 Y44.942 E96.29295
G1 X48.387 Y44.113 E96.34713
G1 X48.822 Y43.32 E96.40128
G1 X49.325 Y42.568 E96.45544
G1 X49.892 Y41.863 E96.50961
G1 F3600 E92.50961
;MESH:Bird_House-Front_BackHole-Front.obj
G0 F4800 X111.447 Y70.611
G0 X113.78 Y73.132
G0 X114.762 Y73.809
G0 X115.982 Y74.295
G0 X116.634 Y74.41
G0 X118.942 Y74.707
;TYPE:WALL-INNER
G1 F3600 E96.50961
G1 F600 X118.644 Y74.769 E96.52783
G1 X118.042 Y74.843 E96.56414
G1 X117.655 Y74.86 E96.58733
G1 X117.089 Y74.845 E96.62123
G1 X116.488 Y74.769 E96.6575
G1 X115.819 Y74.612 E96.69864
G1 X115.246 Y74.41 E96.73501
G1 X114.587 Y74.113 E96.77828
G1 X114.017 Y73.745 E96.8189
G1 X113.553 Y73.406 E96.85331
G1 X113.033 Y72.895 E96.89695
G1 X112.67 Y72.48 E96.92996
G1 X112.283 Y71.912 E96.97111
G1 X112.079 Y71.559 E96.99552
G1 X111.849 Y71.072 E97.02776
G1 X111.655 Y70.537 E97.06183
G1 X111.468 Y69.82 E97.1062
G1 X111.393 Y69.241 E97.14115
G1 X111.364 Y68.708 E97.17311
G1 X111.378 Y68.139 E97.20718
G1 X111.487 Y67.44 E97.24953
G1 X111.636 Y66.84 E97.28655
G1 X111.878 Y66.195 E97.32779
G1 X112.146 Y65.652 E97.36404
G1 X112.525 Y65.035 E97.40739
G1 X112.989 Y64.483 E97.45056
G1 X113.452 Y64.017 E97.48989
G1 X114.064 Y63.536 E97.53649
G1 X114.784 Y63.122 E97.58622
G1 X115.297 Y62.889 E97.61995
G1 X115.764 Y62.724 E97.6496
G1 X116.373 Y62.57 E97.68721
G1 X117.09 Y62.481 E97.73046
G1 X117.599 Y62.453 E97.76098
G1 X118.277 Y62.503 E97.80168
G1 X118.89 Y62.606 E97.8389
G1 X119.485 Y62.768 E97.87582
G1 X120.173 Y63.036 E97.92002
G1 X120.609 Y63.26 E97.94937
G1 X121.186 Y63.629 E97.99037
G1 X121.486 Y63.859 E98.013
G1 X121.932 Y64.263 E98.04903
G1 X122.408 Y64.78 E98.0911
G1 X122.842 Y65.401 E98.13646
G1 X123.196 Y66.052 E98.18082
G1 X123.415 Y66.608 E98.2166
G1 X123.576 Y67.134 E98.24953
G1 X123.682 Y67.658 E98.28154
G1 X123.735 Y68.083 E98.30718
G1 X123.764 Y68.622 E98.33949
G1 X123.748 Y69.198 E98.37399
G1 X123.645 Y69.883 E98.41546
G1 X123.485 Y70.517 E98.45461
G1 X123.207 Y71.251 E98.5016
G1 X122.887 Y71.842 E98.54183
G1 X122.54 Y72.361 E98.57921
G1 X122.089 Y72.901 E98.62133
G1 X121.565 Y73.408 E98.66498
G1 X120.943 Y73.863 E98.71112
G1 X120.372 Y74.19 E98.75051
G1 X119.916 Y74.4 E98.78057
G1 X119.567 Y74.531 E98.80289
G1 X119.37 Y74.586 E98.81513
G0 F540 X118.942 Y74.707
G0 F4800 X118.844 Y74.237
G1 F600 X118.558 Y74.297 E98.83263
G1 X118.016 Y74.363 E98.86532
G1 X117.666 Y74.38 E98.88629
G1 X117.094 Y74.363 E98.92055
G1 X116.574 Y74.297 E98.95194
G1 X115.975 Y74.158 E98.98875
G1 X115.443 Y73.973 E99.02247
G1 X114.857 Y73.708 E99.06097
G1 X114.277 Y73.342 E99.10203
G1 X113.878 Y73.048 E99.1317
G1 X113.383 Y72.566 E99.17307
G1 X113.08 Y72.226 E99.20033
G1 X112.679 Y71.639 E99.24289
G1 X112.467 Y71.265 E99.26863
G1 X112.291 Y70.887 E99.29359
G1 X112.09 Y70.319 E99.32967
G1 X111.938 Y69.723 E99.36649
G1 X111.877 Y69.264 E99.39421
G1 X111.844 Y68.699 E99.42809
G1 X111.853 Y68.223 E99.4566
G1 X111.952 Y67.565 E99.49643
G1 X112.095 Y66.98 E99.53249
G1 X112.284 Y66.466 E99.56527
G1 X112.556 Y65.902 E99.60276
G1 X112.915 Y65.315 E99.64395
G1 X113.397 Y64.747 E99.68855
G1 X113.803 Y64.352 E99.72246
G1 X114.334 Y63.932 E99.763
G1 X114.985 Y63.558 E99.80795
G1 X115.409 Y63.362 E99.83591
G1 X115.882 Y63.19 E99.86604
G1 X116.471 Y63.042 E99.9024
G1 X117.064 Y62.965 E99.9382
G1 X117.592 Y62.936 E99.96986
G1 X118.242 Y62.981 E100.00887
G1 X118.871 Y63.094 E100.04713
G1 X119.421 Y63.252 E100.08139
G1 X119.954 Y63.463 E100.1157
G1 X120.452 Y63.723 E100.14934
G1 X120.899 Y64.014 E100.18127
G1 X121.119 Y64.178 E100.1977
G1 X121.58 Y64.589 E100.23467
G1 X122.034 Y65.08 E100.27471
G1 X122.433 Y65.653 E100.31651
G1 X122.761 Y66.255 E100.35755
G1 X122.938 Y66.698 E100.38611
G1 X123.111 Y67.251 E100.4208
G1 X123.211 Y67.751 E100.45133
G1 X123.255 Y68.111 E100.47304
G1 X123.284 Y68.631 E100.50422
G1 X123.274 Y69.119 E100.53345
G1 X123.174 Y69.788 E100.57394
G1 X123.029 Y70.366 E100.60962
G1 X122.804 Y70.975 E100.64849
G1 X122.444 Y71.648 E100.69418
G1 X122.1 Y72.148 E100.73051
G1 X121.735 Y72.577 E100.76424
G1 X121.253 Y73.044 E100.80442
G1 X120.699 Y73.448 E100.84546
G1 X120.144 Y73.767 E100.88379
G1 X119.663 Y73.985 E100.91541
G1 X119.373 Y74.09 E100.93387
G1 X119.272 Y74.118 E100.94014
G0 F540 X118.844 Y74.237
G1 F3600 E96.94014
G0 F4800 X118.881 Y74.424
G0 X118.684 Y74.986
G0 X118.245 Y87.252
G0 X124.546 Y88.775
G0 X126.983 Y89.59
G0 X129.343 Y90.654
G0 X131.536 Y91.916
G0 X133.729 Y93.491
G0 X135.567 Y95.113
G0 X137.404 Y97.093
G0 X138.956 Y99.15
G0 X140.295 Y101.351
G0 X140.658 Y102.019
G0 X141.832 Y104.757
G0 X142.642 Y107.216
G0 X143.13 Y109.827
G0 X143.384 Y112.382
G0 X143.383 Y114.944
G0 X143.13 Y117.494
G0 X142.624 Y120.007
G0 X141.873 Y122.455
G0 X140.841 Y124.908
G0 X140.484 Y125.644
G0 X139.606 Y127.172
G0 X138.151 Y129.298
G0 X136.493 Y131.27
G0 X134.645 Y133.068
G0 X132.629 Y134.671
G0 X130.46 Y136.067
G0 X128.166 Y137.24
G0 X126.222 Y138
G0 X120.82 Y139.66
G1 F3600 E100.94014
G1 F600 X119.514 Y139.793 E101.01874
G1 X118.234 Y139.855 E101.09546
G1 X116.925 Y139.856 E101.17383
G1 X115.586 Y139.787 E101.2541
G1 X114.308 Y139.66 E101.33098
G1 X113.029 Y139.469 E101.4084
G1 X111.805 Y139.221 E101.48317
G1 X110.486 Y138.884 E101.56468
G1 X109.219 Y138.497 E101.64399
G1 X107.989 Y138.05 E101.72234
G1 X106.788 Y137.542 E101.80041
G1 X105.672 Y137.006 E101.87453
G1 X104.475 Y136.357 E101.95604
G1 X103.347 Y135.668 E102.03518
G1 X102.327 Y134.972 E102.1091
G1 X101.225 Y134.145 E102.19159
G1 X100.223 Y133.304 E102.26991
G1 X99.277 Y132.423 E102.3473
G1 X98.357 Y131.48 E102.42617
G1 X97.49 Y130.497 E102.50464
G1 X96.677 Y129.477 E102.58273
G1 X95.917 Y128.418 E102.66077
G1 X95.205 Y127.319 E102.73917
G1 X94.552 Y126.19 E102.81725
G1 X93.961 Y125.038 E102.89476
G1 X93.449 Y123.902 E102.96936
G1 X92.939 Y122.613 E103.05235
G1 X92.504 Y121.305 E103.13488
G1 X92.153 Y120.048 E103.21301
G1 X91.869 Y118.781 E103.29075
G1 X91.649 Y117.504 E103.36833
G1 X91.489 Y116.242 E103.44448
G1 X91.396 Y114.932 E103.52311
G1 X91.364 Y113.633 E103.6009
G1 X91.399 Y112.318 E103.67966
G1 X91.497 Y111.023 E103.75741
G1 X91.658 Y109.746 E103.83446
G1 X91.885 Y108.47 E103.91206
G1 X92.172 Y107.212 E103.9893
G1 X92.516 Y105.986 E104.06554
G1 X92.934 Y104.73 E104.14479
G1 X93.416 Y103.502 E104.22377
G1 X93.943 Y102.326 E104.30092
G1 X94.547 Y101.145 E104.38033
G1 X95.188 Y100.033 E104.45717
G1 X95.887 Y98.94 E104.53485
G1 X96.658 Y97.875 E104.61356
G1 X97.463 Y96.857 E104.69126
G1 X98.418 Y95.78 E104.77744
G1 X99.232 Y94.942 E104.84738
G1 X100.155 Y94.084 E104.92282
G1 X101.212 Y93.19 E105.0057
G1 X102.357 Y92.327 E105.09154
G1 X103.315 Y91.677 E105.16085
G1 X104.383 Y91.02 E105.23592
G1 X105.625 Y90.339 E105.32072
G1 X106.827 Y89.761 E105.40057
G1 X108.027 Y89.258 E105.47847
G1 X109.273 Y88.809 E105.55776
G1 X110.479 Y88.436 E105.63333
G1 X111.73 Y88.12 E105.71058
G1 X113.051 Y87.853 E105.79127
G1 X114.351 Y87.657 E105.86998
G1 X115.589 Y87.536 E105.94445
G1 X116.894 Y87.473 E106.02266
G1 X118.234 Y87.473 E106.10289
G1 X119.524 Y87.535 E106.18021
