;FLAVOR:Marlin
;TIME:3269
;Filament used: 1.46012m
;Layer height: 0.2
;MINX:86.872
;MINY:108.645
;MINZ:0.3
;MAXX:129.251
;MAXY:151.016
;MAXZ:64.86
;TARGET_MACHINE.NAME:BIQU B1
;Generated with Cura_SteamEngine 5.12.0
                                 ; BIQU B1 Start G-code
M117 Getting the bed up to temp!
M140 S60      ; Set Heat Bed temperature
M190 S60      ; Wait for Heat Bed temperature
M117 Getting the extruder up to temp!
M104 S190    ; Set Extruder temperature
G92 E0                           ; Reset Extruder
M117 Homing axes
G28                              ; Home all axes
M109 S190    ; Wait for Extruder temperature
G1 Z2.0 F3000                    ; Move Z Axis up little to prevent scratching of Heat Bed
G1 X4.1 Y20 Z0.3 F5000.0         ; Move to start position
M117 Purging
G1 X4.1 Y200.0 Z0.3 F1500.0 E15  ; Draw the first line
G1 X4.4 Y200.0 Z0.3 F5000.0      ; Move to side a little
G1 X4.4 Y20 Z0.3 F1500.0 E30     ; Draw the second line
G92 E0                           ; Reset Extruder
M117 Lets make
G1 Z2.0 F3000                    ; Move Z Axis up little to prevent scratching of Heat Bed
G1 X5 Y20 Z0.3 F5000.0           ; Move over to prevent blob squish
M82 ;absolute extrusion mode
G92 E0
G92 E0
G1 F3600 E-4
;LAYER_COUNT:270
;LAYER:0
M107
G0 F4800 X94.459 Y113.582 Z0.3
;TYPE:SKIRT
G1 F3600 E0
G1 F600 X95.107 Y113.058 E0.04989
G1 X95.402 Y112.834 E0.07207
G1 X96.11 Y112.333 E0.12399
G1 X96.568 Y112.027 E0.15697
G1 X97.064 Y111.715 E0.19205
G1 X97.768 Y111.306 E0.24079
G1 X98.439 Y110.95 E0.28627
G1 X98.899 Y110.722 E0.31701
G1 X99.562 Y110.417 E0.3607
G1 X100.383 Y110.08 E0.41383
G1 X100.847 Y109.906 E0.4435
G1 X101.864 Y109.565 E0.50771
G1 X102.877 Y109.283 E0.57067
G1 X103.417 Y109.154 E0.60391
G1 X103.915 Y109.049 E0.63437
G1 X104.551 Y108.931 E0.6731
G1 X105.503 Y108.794 E0.73068
G1 X106.026 Y108.738 E0.76217
G1 X106.787 Y108.676 E0.80788
G1 X107.614 Y108.645 E0.85743
G1 X108.644 Y108.649 E0.91909
G1 X109.672 Y108.701 E0.98072
G1 X110.257 Y108.754 E1.01588
G1 X111.244 Y108.88 E1.07545
G1 X111.771 Y108.967 E1.10743
G1 X112.347 Y109.077 E1.14254
G1 X113.339 Y109.307 E1.2035
G1 X114.362 Y109.597 E1.26716
G1 X115.137 Y109.854 E1.31604
G1 X115.87 Y110.132 E1.36298
G1 X116.356 Y110.331 E1.39442
G1 X117.026 Y110.629 E1.43832
G1 X117.813 Y111.019 E1.4909
G1 X118.659 Y111.481 E1.54861
G1 X119.14 Y111.767 E1.58211
G1 X119.628 Y112.077 E1.61673
G1 X120.456 Y112.643 E1.67677
G1 X120.892 Y112.967 E1.70929
G1 X121.534 Y113.473 E1.75823
G1 X122.102 Y113.96 E1.80302
G1 X122.517 Y114.338 E1.83663
G1 X122.905 Y114.71 E1.86881
G1 X123.445 Y115.268 E1.9153
G1 X124.21 Y116.122 E1.98394
G1 X124.709 Y116.724 E2.03075
G1 X125.289 Y117.494 E2.08847
G1 X125.893 Y118.382 E2.15276
G1 X126.306 Y119.05 E2.19978
G1 X126.69 Y119.732 E2.24664
G1 X126.932 Y120.193 E2.27781
G1 X127.165 Y120.664 E2.30927
G1 X127.388 Y121.143 E2.3409
G1 X127.604 Y121.639 E2.37329
G1 X127.817 Y122.165 E2.40726
G1 X127.998 Y122.653 E2.43842
G1 X128.317 Y123.608 E2.4987
G1 X128.476 Y124.155 E2.53281
G1 X128.731 Y125.165 E2.59517
G1 X128.827 Y125.61 E2.62242
G1 X128.946 Y126.249 E2.66134
G1 X129.091 Y127.236 E2.72106
G1 X129.152 Y127.791 E2.75449
G1 X129.196 Y128.303 E2.78525
G1 X129.241 Y129.115 E2.83394
G1 X129.251 Y129.653 E2.86616
G1 X129.248 Y130.187 E2.89813
G1 X129.222 Y130.934 E2.94288
G1 X129.182 Y131.523 E2.97822
G1 X129.077 Y132.534 E3.03907
G1 X128.936 Y133.472 E3.09586
G1 X128.814 Y134.11 E3.13475
G1 X128.586 Y135.095 E3.19528
G1 X128.439 Y135.638 E3.22895
G1 X128.127 Y136.645 E3.29207
G1 X127.957 Y137.126 E3.32261
G1 X127.582 Y138.074 E3.38365
G1 X127.364 Y138.572 E3.41619
G1 X127.13 Y139.07 E3.44913
G1 X126.888 Y139.553 E3.48148
G1 X126.626 Y140.044 E3.51479
G1 X126.108 Y140.937 E3.5766
G1 X125.543 Y141.806 E3.63866
G1 X125.235 Y142.244 E3.67071
G1 X124.929 Y142.657 E3.70148
G1 X124.596 Y143.083 E3.73386
G1 X124.251 Y143.502 E3.76635
G1 X123.611 Y144.226 E3.8242
G1 X123.211 Y144.645 E3.85888
G1 X122.814 Y145.039 E3.89237
G1 X122.408 Y145.425 E3.92591
G1 X121.674 Y146.069 E3.98437
G1 X120.904 Y146.685 E4.0434
G1 X120.371 Y147.077 E4.08301
G1 X119.53 Y147.648 E4.14387
G1 X119.072 Y147.934 E4.1762
G1 X118.352 Y148.355 E4.22613
G1 X117.676 Y148.713 E4.27192
G1 X117.204 Y148.946 E4.30344
G1 X116.738 Y149.162 E4.33419
G1 X116.245 Y149.376 E4.36636
G1 X115.277 Y149.754 E4.42858
G1 X114.769 Y149.931 E4.46078
G1 X114.226 Y150.104 E4.4949
G1 X113.249 Y150.376 E4.55562
G1 X112.457 Y150.562 E4.60432
G1 X111.648 Y150.715 E4.65362
G1 X111.132 Y150.797 E4.6849
G1 X110.384 Y150.894 E4.73005
G1 X109.601 Y150.965 E4.77712
G1 X109.069 Y150.998 E4.80903
G1 X108.523 Y151.016 E4.84174
G1 X107.481 Y151.014 E4.90412
G1 X106.921 Y150.991 E4.93768
G1 X105.878 Y150.91 E5.00031
G1 X105.172 Y150.825 E5.04288
G1 X104.305 Y150.686 E5.09545
G1 X103.82 Y150.593 E5.12501
G1 X103.122 Y150.439 E5.16781
G1 X102.243 Y150.208 E5.22222
G1 X101.757 Y150.063 E5.25258
G1 X101.041 Y149.826 E5.29773
G1 X100.255 Y149.532 E5.34797
G1 X99.751 Y149.323 E5.38064
G1 X98.832 Y148.907 E5.44103
G1 X98.376 Y148.68 E5.47153
G1 X97.881 Y148.417 E5.50509
G1 X96.98 Y147.894 E5.56746
G1 X96.492 Y147.584 E5.60207
G1 X95.664 Y147.019 E5.66208
G1 X95.228 Y146.695 E5.6946
G1 X94.807 Y146.365 E5.72662
G1 X94.018 Y145.701 E5.78836
G1 X93.598 Y145.319 E5.82235
G1 X92.862 Y144.597 E5.88408
G1 X92.311 Y144.009 E5.93232
G1 X91.786 Y143.401 E5.98041
G1 X91.444 Y142.98 E6.01288
G1 X90.838 Y142.176 E6.07316
G1 X90.521 Y141.724 E6.10621
G1 X90.233 Y141.288 E6.1375
G1 X89.726 Y140.459 E6.19567
G1 X89.43 Y139.929 E6.23202
G1 X89.188 Y139.468 E6.26319
G1 X88.955 Y138.997 E6.29465
G1 X88.732 Y138.518 E6.32628
G1 X88.516 Y138.022 E6.35867
G1 X88.303 Y137.496 E6.39264
G1 X88.122 Y137.008 E6.4238
G1 X87.803 Y136.053 E6.48408
G1 X87.644 Y135.506 E6.51818
G1 X87.387 Y134.486 E6.58116
G1 X87.206 Y133.602 E6.63518
G1 X87.099 Y132.947 E6.67491
G1 X86.966 Y131.855 E6.74077
G1 X86.903 Y131.038 E6.78983
G1 X86.884 Y130.539 E6.81973
G1 X86.872 Y129.778 E6.86529
G1 X86.88 Y129.179 E6.90116
G1 X86.934 Y128.168 E6.96177
G1 X86.981 Y127.651 E6.99285
G1 X87.117 Y126.6 E7.05629
G1 X87.252 Y125.826 E7.10333
G1 X87.324 Y125.468 E7.12519
G1 X87.533 Y124.567 E7.18057
G1 X87.682 Y124.018 E7.21462
G1 X87.942 Y123.166 E7.26795
G1 X88.171 Y122.517 E7.30916
G1 X88.546 Y121.568 E7.37025
G1 X88.757 Y121.088 E7.40164
G1 X88.982 Y120.607 E7.43343
G1 X89.234 Y120.104 E7.46711
G1 X89.745 Y119.17 E7.53085
G1 X90.151 Y118.499 E7.5778
G1 X90.593 Y117.832 E7.62571
G1 X91.181 Y117.021 E7.68568
G1 X91.556 Y116.541 E7.72214
G1 X92.193 Y115.785 E7.78133
G1 X92.508 Y115.438 E7.80939
G1 X92.953 Y114.971 E7.84801
G1 X93.323 Y114.603 E7.87925
G1 X94.069 Y113.915 E7.94
G1 X94.459 Y113.582 E7.97071
G0 F4800 X94.761 Y113.955
G1 F600 X95.397 Y113.44 E8.0197
G1 X95.679 Y113.226 E8.04089
G1 X96.377 Y112.732 E8.09209
G1 X96.824 Y112.433 E8.12428
G1 X97.305 Y112.13 E8.15832
G1 X97.993 Y111.73 E8.20596
G1 X98.653 Y111.38 E8.25069
G1 X99.1 Y111.158 E8.28057
G1 X99.744 Y110.861 E8.32303
G1 X100.552 Y110.529 E8.37532
G1 X101 Y110.361 E8.40397
G1 X102.017 Y110.02 E8.46819
G1 X102.989 Y109.75 E8.52858
G1 X103.516 Y109.624 E8.56102
G1 X104.003 Y109.521 E8.59082
G1 X104.62 Y109.406 E8.6284
G1 X105.554 Y109.271 E8.68489
G1 X106.065 Y109.216 E8.71566
G1 X106.805 Y109.156 E8.76011
G1 X107.613 Y109.125 E8.80852
G1 X108.62 Y109.128 E8.86881
G1 X109.629 Y109.179 E8.92929
G1 X110.196 Y109.23 E8.96337
G1 X111.166 Y109.354 E9.02192
G1 X111.681 Y109.439 E9.05317
G1 X112.239 Y109.545 E9.08717
G1 X113.208 Y109.769 E9.14671
G1 X114.211 Y110.053 E9.20912
G1 X114.967 Y110.303 E9.25679
G1 X115.688 Y110.576 E9.30295
G1 X116.161 Y110.77 E9.33356
G1 X116.813 Y111.059 E9.37625
G1 X117.583 Y111.44 E9.42769
G1 X118.413 Y111.893 E9.4843
G1 X118.883 Y112.173 E9.51705
G1 X119.357 Y112.473 E9.55063
G1 X120.17 Y113.028 E9.60957
G1 X120.595 Y113.344 E9.64127
G1 X121.222 Y113.838 E9.68906
G1 X121.779 Y114.315 E9.73296
G1 X122.185 Y114.684 E9.76581
G1 X122.56 Y115.044 E9.79693
G1 X123.1 Y115.602 E9.84342
G1 X123.841 Y116.429 E9.9099
G1 X124.326 Y117.013 E9.95535
G1 X124.892 Y117.764 E10.01165
G1 X125.496 Y118.652 E10.07594
G1 X125.888 Y119.286 E10.12057
G1 X126.265 Y119.955 E10.16654
G1 X126.502 Y120.406 E10.19704
G1 X126.73 Y120.867 E10.22783
G1 X126.948 Y121.335 E10.25874
G1 X127.159 Y121.819 E10.29035
G1 X127.367 Y122.332 E10.32349
G1 X127.543 Y122.805 E10.35371
G1 X127.856 Y123.742 E10.41285
G1 X128.011 Y124.273 E10.44597
G1 X128.262 Y125.266 E10.50729
G1 X128.355 Y125.698 E10.53374
G1 X128.471 Y126.319 E10.57156
G1 X128.614 Y127.289 E10.63026
G1 X128.674 Y127.832 E10.66297
G1 X128.717 Y128.33 E10.69289
G1 X128.761 Y129.124 E10.7405
G1 X128.771 Y129.65 E10.772
G1 X128.768 Y130.171 E10.80319
G1 X128.743 Y130.902 E10.84698
G1 X128.705 Y131.473 E10.88124
G1 X128.602 Y132.463 E10.94083
G1 X128.461 Y133.401 E10.99762
G1 X128.346 Y134.002 E11.03425
G1 X128.123 Y134.969 E11.09366
G1 X127.98 Y135.496 E11.12635
G1 X127.674 Y136.485 E11.18833
G1 X127.504 Y136.966 E11.21888
G1 X127.142 Y137.882 E11.27784
G1 X126.93 Y138.368 E11.30959
G1 X126.701 Y138.855 E11.3418
G1 X126.465 Y139.327 E11.3734
G1 X126.211 Y139.803 E11.4057
G1 X125.706 Y140.675 E11.46603
G1 X125.15 Y141.53 E11.52708
G1 X124.85 Y141.958 E11.55838
G1 X124.551 Y142.361 E11.58842
G1 X124.225 Y142.778 E11.62011
G1 X123.891 Y143.184 E11.65158
G1 X123.251 Y143.908 E11.70943
G1 X122.872 Y144.305 E11.74229
G1 X122.484 Y144.691 E11.77506
G1 X122.091 Y145.064 E11.8075
G1 X121.374 Y145.694 E11.86464
G1 X120.619 Y146.299 E11.92256
G1 X120.102 Y146.68 E11.96101
G1 X119.275 Y147.241 E12.02084
G1 X118.83 Y147.52 E12.05228
G1 X118.127 Y147.931 E12.10103
G1 X117.464 Y148.283 E12.14597
G1 X117.002 Y148.511 E12.17682
G1 X116.547 Y148.722 E12.20685
G1 X116.07 Y148.929 E12.23798
G1 X115.119 Y149.301 E12.29911
G1 X114.623 Y149.474 E12.33056
G1 X114.097 Y149.642 E12.36362
G1 X113.139 Y149.909 E12.42316
G1 X112.368 Y150.09 E12.47057
G1 X111.572 Y150.241 E12.51908
G1 X111.07 Y150.321 E12.54951
G1 X110.341 Y150.416 E12.59352
G1 X109.571 Y150.486 E12.63981
G1 X109.053 Y150.518 E12.67088
G1 X108.524 Y150.536 E12.70257
G1 X107.5 Y150.534 E12.76388
G1 X106.958 Y150.512 E12.79635
G1 X105.935 Y150.433 E12.85778
G1 X105.248 Y150.351 E12.8992
G1 X104.395 Y150.214 E12.95092
G1 X103.923 Y150.124 E12.97969
G1 X103.244 Y149.975 E13.02131
G1 X102.38 Y149.748 E13.07479
G1 X101.907 Y149.607 E13.10434
G1 X101.209 Y149.377 E13.14834
G1 X100.438 Y149.088 E13.19763
G1 X99.949 Y148.886 E13.2293
G1 X99.046 Y148.477 E13.28865
G1 X98.601 Y148.256 E13.3184
G1 X98.117 Y147.999 E13.35121
G1 X97.69 Y147.758 E13.38056
G1 X97.237 Y147.488 E13.41213
G1 X96.763 Y147.188 E13.44572
G1 X95.95 Y146.633 E13.50465
G1 X95.524 Y146.317 E13.5364
G1 X95.116 Y145.998 E13.56741
G1 X94.341 Y145.346 E13.62804
G1 X93.934 Y144.976 E13.66097
G1 X93.212 Y144.269 E13.72147
G1 X92.674 Y143.695 E13.76857
G1 X92.158 Y143.098 E13.81581
G1 X91.827 Y142.691 E13.84722
G1 X91.231 Y141.901 E13.90646
G1 X90.922 Y141.459 E13.93875
G1 X90.634 Y141.023 E13.97004
G1 X90.145 Y140.225 E14.02607
G1 X89.855 Y139.706 E14.06166
G1 X89.618 Y139.255 E14.09216
G1 X89.39 Y138.794 E14.12295
G1 X89.172 Y138.326 E14.15386
G1 X88.961 Y137.842 E14.18547
G1 X88.753 Y137.329 E14.21861
G1 X88.577 Y136.856 E14.24883
G1 X88.264 Y135.919 E14.30797
G1 X88.109 Y135.388 E14.34109
G1 X87.857 Y134.39 E14.40271
G1 X87.68 Y133.525 E14.45557
G1 X87.573 Y132.87 E14.4953
G1 X87.445 Y131.818 E14.55875
G1 X87.383 Y131.019 E14.60673
G1 X87.364 Y130.531 E14.63596
G1 X87.352 Y129.784 E14.68069
G1 X87.359 Y129.205 E14.71536
G1 X87.412 Y128.212 E14.77489
G1 X87.458 Y127.707 E14.80525
G1 X87.518 Y127.193 E14.83623
G1 X87.59 Y126.682 E14.86713
G1 X87.722 Y125.921 E14.91337
G1 X87.792 Y125.576 E14.93444
G1 X88.001 Y124.675 E14.98982
G1 X88.141 Y124.158 E15.02188
G1 X88.395 Y123.325 E15.07402
G1 X88.617 Y122.694 E15.11407
G1 X88.986 Y121.761 E15.17413
G1 X89.192 Y121.291 E15.20486
G1 X89.417 Y120.81 E15.23665
G1 X89.655 Y120.334 E15.26851
G1 X90.156 Y119.418 E15.33101
G1 X90.551 Y118.764 E15.37675
G1 X90.982 Y118.113 E15.4235
G1 X91.559 Y117.316 E15.4824
G1 X91.923 Y116.85 E15.5178
G1 X92.549 Y116.107 E15.57597
G1 X92.855 Y115.769 E15.60327
G1 X93.292 Y115.311 E15.64116
G1 X93.648 Y114.956 E15.67126
G1 X94.381 Y114.28 E15.73096
G1 X94.761 Y113.955 E15.7609
G0 F4800 X95.063 Y114.328
G1 F600 X95.688 Y113.822 E15.80904
G1 X95.956 Y113.618 E15.8292
G1 X96.644 Y113.131 E15.87967
G1 X97.08 Y112.839 E15.91108
G1 X97.547 Y112.545 E15.94412
G1 X98.218 Y112.154 E15.99061
G1 X98.866 Y111.81 E16.03454
G1 X99.301 Y111.594 E16.06361
G1 X99.927 Y111.305 E16.10489
G1 X100.721 Y110.978 E16.1563
G1 X101.152 Y110.816 E16.18387
G1 X102.152 Y110.481 E16.247
G1 X102.6 Y110.35 E16.27495
G1 X103.1 Y110.217 E16.30592
G1 X103.616 Y110.094 E16.33768
G1 X104.091 Y109.993 E16.36675
G1 X104.689 Y109.881 E16.40318
G1 X105.606 Y109.748 E16.45865
G1 X106.103 Y109.694 E16.48858
G1 X106.824 Y109.636 E16.53189
G1 X107.612 Y109.605 E16.5791
G1 X108.596 Y109.607 E16.63801
G1 X109.586 Y109.657 E16.69735
G1 X110.135 Y109.706 E16.73035
G1 X111.089 Y109.828 E16.78793
G1 X111.591 Y109.91 E16.81838
G1 X112.131 Y110.013 E16.8513
G1 X113.083 Y110.233 E16.90979
G1 X113.574 Y110.365 E16.94023
G1 X114.061 Y110.509 E16.97064
G1 X114.797 Y110.752 E17.01704
G1 X115.506 Y111.02 E17.06242
G1 X115.967 Y111.209 E17.09224
G1 X116.6 Y111.489 E17.13368
G1 X117.353 Y111.861 E17.18396
G1 X118.167 Y112.305 E17.23948
G1 X118.627 Y112.579 E17.27153
G1 X119.086 Y112.869 E17.30403
G1 X119.884 Y113.414 E17.36189
G1 X120.298 Y113.721 E17.39275
G1 X120.91 Y114.202 E17.43935
G1 X121.456 Y114.67 E17.4824
G1 X121.853 Y115.031 E17.51452
G1 X122.215 Y115.378 E17.54454
G1 X122.755 Y115.936 E17.59103
G1 X123.472 Y116.736 E17.65535
G1 X123.943 Y117.302 E17.69943
G1 X124.498 Y118.039 E17.75467
G1 X124.806 Y118.48 E17.78687
G1 X125.088 Y118.905 E17.81741
G1 X125.47 Y119.522 E17.86085
G1 X125.84 Y120.178 E17.90594
G1 X126.072 Y120.619 E17.93577
G1 X126.295 Y121.069 E17.96584
G1 X126.508 Y121.527 E17.99608
G1 X126.714 Y122 E18.02697
G1 X126.917 Y122.5 E18.05927
G1 X127.088 Y122.957 E18.08849
G1 X127.395 Y123.877 E18.14655
G1 X127.546 Y124.391 E18.17862
G1 X127.793 Y125.367 E18.2389
G1 X127.883 Y125.787 E18.26461
G1 X127.996 Y126.389 E18.30128
G1 X128.137 Y127.342 E18.35896
G1 X128.196 Y127.874 E18.391
G1 X128.238 Y128.357 E18.42003
G1 X128.281 Y129.133 E18.46656
G1 X128.291 Y129.647 E18.49734
G1 X128.288 Y130.155 E18.52775
G1 X128.264 Y130.871 E18.57064
G1 X128.228 Y131.423 E18.60376
G1 X128.127 Y132.392 E18.66208
G1 X127.986 Y133.33 E18.71887
G1 X127.878 Y133.894 E18.75325
G1 X127.655 Y134.861 E18.81266
G1 X127.522 Y135.354 E18.84323
G1 X127.221 Y136.325 E18.90409
G1 X127.057 Y136.79 E18.93361
G1 X126.702 Y137.69 E18.99153
G1 X126.495 Y138.164 E19.0225
G1 X126.272 Y138.64 E19.05397
G1 X126.041 Y139.102 E19.08489
G1 X125.796 Y139.563 E19.11615
G1 X125.304 Y140.413 E19.17495
G1 X124.757 Y141.254 E19.23501
G1 X124.464 Y141.672 E19.26557
G1 X124.173 Y142.065 E19.29485
G1 X123.854 Y142.473 E19.32585
G1 X123.531 Y142.866 E19.35631
G1 X122.891 Y143.59 E19.41416
G1 X122.533 Y143.965 E19.4452
G1 X122.154 Y144.343 E19.47724
G1 X121.774 Y144.703 E19.50858
G1 X121.057 Y145.333 E19.56572
G1 X120.334 Y145.913 E19.62121
G1 X119.833 Y146.283 E19.6585
G1 X119.019 Y146.835 E19.71738
G1 X118.588 Y147.106 E19.74786
G1 X117.902 Y147.507 E19.79543
G1 X117.251 Y147.853 E19.83957
G1 X116.8 Y148.076 E19.86969
G1 X116.356 Y148.282 E19.899
G1 X115.895 Y148.482 E19.92908
G1 X114.961 Y148.848 E19.98914
G1 X114.477 Y149.017 E20.01983
G1 X113.968 Y149.18 E20.05183
G1 X113.03 Y149.442 E20.11013
G1 X112.278 Y149.618 E20.15637
G1 X111.496 Y149.767 E20.20403
G1 X111.008 Y149.845 E20.23362
G1 X110.297 Y149.938 E20.27654
G1 X109.542 Y150.007 E20.32193
G1 X109.036 Y150.038 E20.35228
G1 X108.525 Y150.056 E20.38289
G1 X107.519 Y150.054 E20.44312
G1 X106.995 Y150.033 E20.47452
G1 X105.991 Y149.956 E20.5348
G1 X105.324 Y149.877 E20.57501
G1 X104.485 Y149.743 E20.62588
G1 X104.025 Y149.655 E20.65392
G1 X103.366 Y149.511 E20.6943
G1 X102.517 Y149.288 E20.74686
