;FLAVOR:Marlin
;TIME:12076
;Filament used: 6.33647m
;Layer height: 0.2
;MINX:64.979
;MINY:56.8
;MINZ:0.3
;MAXX:164.129
;MAXY:178.2
;MAXZ:2.94
;TARGET_MACHINE.NAME:BIQU B1
;Generated with Cura_SteamEngine 5.12.0
                                 ; BIQU B1 Start G-code
M117 Getting the bed up to temp!
M140 S60      ; Set Heat Bed temperature
M190 S60      ; Wait for Heat Bed temperature
M117 Getting the extruder up to temp!
M104 S190    ; Set Extruder temperature
G92 E0                           ; Reset Extruder
M117 Homing axes
G28                              ; Home all axes
M109 S190    ; Wait for Extruder temperature
G1 Z2.0 F3000                    ; Move Z Axis up little to prevent scratching of Heat Bed
G1 X4.1 Y20 Z0.3 F5000.0         ; Move to start position
M117 Purging
G1 X4.1 Y200.0 Z0.3 F1500.0 E15  ; Draw the first line
G1 X4.4 Y200.0 Z0.3 F5000.0      ; Move to side a little
G1 X4.4 Y20 Z0.3 F1500.0 E30     ; Draw the second line
G92 E0                           ; Reset Extruder
M117 Lets make
G1 Z2.0 F3000                    ; Move Z Axis up little to prevent scratching of Heat Bed
G1 X5 Y20 Z0.3 F5000.0           ; Move over to prevent blob squish
M82 ;absolute extrusion mode
G92 E0
G92 E0
G1 F3600 E-4
;LAYER_COUNT:17
;LAYER:0
M107
G0 F4800 X67.813 Y60.574 Z0.3
;TYPE:SKIRT
G1 F3600 E0
G1 F600 X68.441 Y59.922 E0.0542
G1 X69.252 Y59.216 E0.11857
G1 X69.984 Y58.685 E0.17271
G1 X70.87 Y58.154 E0.23455
G1 X71.8 Y57.706 E0.29635
G1 X72.726 Y57.359 E0.35555
G1 X73.678 Y57.094 E0.41471
G1 X74.568 Y56.927 E0.46893
G1 X75.881 Y56.813 E0.54783
G1 X76.489 Y56.8 E0.58424
G1 X146.985 Y56.8 E4.80471
G1 X147.867 Y56.813 E4.85752
G1 X148.706 Y56.858 E4.90782
G1 X149.603 Y56.978 E4.962
G1 X150.65 Y57.214 E5.02626
G1 X151.512 Y57.489 E5.08042
G1 X152.503 Y57.906 E5.14479
G1 X153.34 Y58.35 E5.20152
G1 X154.205 Y58.912 E5.26327
G1 X154.983 Y59.523 E5.3225
G1 X155.644 Y60.141 E5.37667
G1 X156.171 Y60.712 E5.42319
G1 X158.27 Y63.105 E5.61376
G1 X159.974 Y64.932 E5.76333
G1 X161.021 Y66.023 E5.85386
G1 X161.691 Y66.792 E5.91492
G1 X162.225 Y67.523 E5.96911
G1 X162.777 Y68.442 E6.03329
G1 X163.191 Y69.294 E6.09001
G1 X163.559 Y70.26 E6.15189
G1 X163.827 Y71.213 E6.21116
G1 X163.996 Y72.102 E6.26534
G1 X164.114 Y73.418 E6.34444
G1 X164.129 Y74.08 E6.38408
G1 X164.128 Y160.204 E11.54017
G1 X164.116 Y160.938 E11.58412
G1 X164.071 Y161.778 E11.63448
G1 X163.951 Y162.675 E11.68867
G1 X163.715 Y163.722 E11.75292
G1 X163.44 Y164.584 E11.80709
G1 X163.023 Y165.575 E11.87146
G1 X162.552 Y166.458 E11.93137
G1 X161.908 Y167.426 E12.00098
G1 X161.324 Y168.148 E12.05657
G1 X160.716 Y168.84 E12.11172
G1 X160.13 Y169.488 E12.16402
G1 X158.484 Y171.413 E12.31566
G1 X156.459 Y173.935 E12.50929
G1 X155.84 Y174.653 E12.56605
G1 X155.132 Y175.344 E12.62528
G1 X154.399 Y175.944 E12.68199
G1 X153.512 Y176.546 E12.74617
G1 X152.682 Y177.007 E12.80301
G1 X151.768 Y177.413 E12.86288
G1 X150.344 Y177.866 E12.95234
G1 X149.405 Y178.055 E13.00969
G1 X147.977 Y178.187 E13.09554
G1 X147.349 Y178.2 E13.13315
G1 X76.725 Y178.199 E17.36128
G1 X75.984 Y178.187 E17.40565
G1 X74.997 Y178.126 E17.46485
G1 X74.019 Y177.978 E17.52407
G1 X73.139 Y177.767 E17.57825
G1 X72.119 Y177.425 E17.64266
G1 X71.29 Y177.062 E17.69684
G1 X70.347 Y176.545 E17.76122
G1 X69.528 Y175.993 E17.82035
G1 X68.758 Y175.37 E17.87965
G1 X68.106 Y174.743 E17.9338
G1 X67.455 Y174 E17.99294
G1 X66.822 Y173.13 E18.05736
G1 X66.317 Y172.28 E18.11655
G1 X65.888 Y171.389 E18.17575
G1 X65.566 Y170.543 E18.22994
G1 X65.275 Y169.508 E18.29431
G1 X65.107 Y168.619 E18.34848
G1 X64.992 Y167.287 E18.42852
G1 X64.979 Y166.658 E18.46618
G1 X64.98 Y68.505 E24.34243
G1 X64.992 Y67.797 E24.38482
G1 X65.054 Y66.809 E24.44409
G1 X65.203 Y65.833 E24.5032
G1 X65.414 Y64.953 E24.55737
G1 X65.757 Y63.933 E24.6218
G1 X66.12 Y63.104 E24.67598
G1 X66.615 Y62.199 E24.73774
G1 X67.191 Y61.342 E24.79955
G1 X67.813 Y60.574 E24.85872
G0 F4800 X68.159 Y60.907
G1 F600 X68.787 Y60.255 E24.91292
G1 X69.534 Y59.605 E24.9722
G1 X70.266 Y59.074 E25.02634
G1 X71.116 Y58.566 E25.08562
G1 X71.969 Y58.155 E25.14231
G1 X72.855 Y57.821 E25.199
G1 X73.767 Y57.566 E25.25569
G1 X74.657 Y57.399 E25.3099
G1 X75.891 Y57.293 E25.38405
G1 X76.499 Y57.28 E25.42046
G1 X146.978 Y57.28 E29.63991
G1 X147.842 Y57.292 E29.69165
G1 X148.642 Y57.334 E29.73961
G1 X149.539 Y57.454 E29.79379
G1 X150.504 Y57.671 E29.853
G1 X151.366 Y57.946 E29.90717
G1 X152.278 Y58.33 E29.96641
G1 X153.115 Y58.774 E30.02314
G1 X153.909 Y59.29 E30.07983
G1 X154.655 Y59.874 E30.13655
G1 X155.316 Y60.492 E30.19072
G1 X155.81 Y61.029 E30.23441
G1 X157.909 Y63.422 E30.42497
G1 X159.628 Y65.265 E30.57586
G1 X160.66 Y66.339 E30.66503
G1 X161.303 Y67.075 E30.72354
G1 X161.837 Y67.806 E30.77773
G1 X162.346 Y68.653 E30.8369
G1 X162.743 Y69.466 E30.89106
G1 X163.097 Y70.391 E30.95036
G1 X163.355 Y71.303 E31.0071
G1 X163.524 Y72.192 E31.06127
G1 X163.634 Y73.429 E31.13562
G1 X163.649 Y74.08 E31.17461
G1 X163.648 Y160.197 E36.33028
G1 X163.637 Y160.913 E36.37315
G1 X163.595 Y161.714 E36.42117
G1 X163.475 Y162.611 E36.47535
G1 X163.258 Y163.576 E36.53457
G1 X162.983 Y164.438 E36.58874
G1 X162.599 Y165.35 E36.64798
G1 X162.152 Y166.192 E36.70505
G1 X161.508 Y167.16 E36.77466
G1 X160.964 Y167.831 E36.82637
G1 X160.36 Y168.518 E36.88114
G1 X159.774 Y169.166 E36.93344
G1 X158.119 Y171.101 E37.08588
G1 X156.446 Y173.175 E37.24541
G1 X156.095 Y173.622 E37.27944
G1 X155.505 Y174.309 E37.33365
G1 X154.797 Y175 E37.39288
G1 X154.096 Y175.572 E37.44705
G1 X153.278 Y176.127 E37.50623
G1 X152.487 Y176.568 E37.56044
G1 X151.573 Y176.974 E37.62032
G1 X150.249 Y177.395 E37.7035
G1 X149.31 Y177.584 E37.76084
G1 X147.967 Y177.707 E37.84158
G1 X147.349 Y177.72 E37.87859
G1 X76.732 Y177.719 E42.1063
G1 X76.013 Y177.708 E42.14935
G1 X75.068 Y177.651 E42.20603
G1 X74.131 Y177.511 E42.26275
G1 X73.251 Y177.3 E42.31693
G1 X72.312 Y176.985 E42.37622
G1 X71.483 Y176.622 E42.4304
G1 X70.615 Y176.147 E42.48964
G1 X69.829 Y175.619 E42.54633
G1 X69.091 Y175.024 E42.60308
G1 X68.439 Y174.397 E42.65724
G1 X67.816 Y173.684 E42.71392
G1 X67.234 Y172.884 E42.77315
G1 X66.749 Y172.071 E42.82983
G1 X66.337 Y171.218 E42.88654
G1 X66.015 Y170.372 E42.94073
G1 X65.747 Y169.419 E43
G1 X65.579 Y168.53 E43.05416
G1 X65.472 Y167.277 E43.12945
G1 X65.459 Y166.658 E43.16652
G1 X65.46 Y68.513 E49.04229
G1 X65.471 Y67.826 E49.08342
G1 X65.529 Y66.881 E49.1401
G1 X65.67 Y65.945 E49.19677
G1 X65.881 Y65.065 E49.25095
G1 X66.197 Y64.126 E49.31026
G1 X66.56 Y63.297 E49.36444
G1 X67.036 Y62.43 E49.42366
G1 X67.564 Y61.644 E49.48035
G1 X68.159 Y60.907 E49.53705
G0 F4800 X68.505 Y61.24
G1 F600 X69.133 Y60.588 E49.59125
G1 X69.816 Y59.994 E49.64544
G1 X70.548 Y59.463 E49.69958
G1 X71.325 Y58.998 E49.75379
G1 X72.139 Y58.604 E49.80793
G1 X72.985 Y58.283 E49.8621
G1 X73.856 Y58.038 E49.91627
G1 X74.746 Y57.871 E49.97049
G1 X75.901 Y57.773 E50.03988
G1 X76.509 Y57.76 E50.07629
G1 X146.972 Y57.76 E54.29479
G1 X147.817 Y57.771 E54.34538
G1 X148.578 Y57.81 E54.391
G1 X149.475 Y57.93 E54.44518
G1 X150.358 Y58.128 E54.49936
G1 X151.22 Y58.403 E54.55352
G1 X152.054 Y58.754 E54.6077
G1 X152.854 Y59.177 E54.66187
G1 X153.614 Y59.669 E54.71608
G1 X154.327 Y60.225 E54.77021
G1 X154.988 Y60.843 E54.82438
G1 X155.449 Y61.346 E54.86523
G1 X157.548 Y63.739 E55.0558
G1 X159.282 Y65.598 E55.20799
G1 X160.299 Y66.655 E55.29581
G1 X160.915 Y67.358 E55.35177
G1 X161.449 Y68.089 E55.40596
G1 X161.915 Y68.864 E55.4601
G1 X162.312 Y69.677 E55.51427
G1 X162.635 Y70.523 E55.56848
G1 X162.883 Y71.393 E55.62264
G1 X163.052 Y72.282 E55.67682
G1 X163.154 Y73.44 E55.74642
G1 X163.169 Y74.08 E55.78474
G1 X163.168 Y160.19 E60.94
G1 X163.158 Y160.888 E60.98179
G1 X163.119 Y161.65 E61.02747
G1 X162.999 Y162.547 E61.08165
G1 X162.801 Y163.43 E61.13582
G1 X162.526 Y164.292 E61.18999
G1 X162.175 Y165.126 E61.24417
G1 X161.752 Y165.926 E61.29834
G1 X161.108 Y166.894 E61.36795
G1 X160.604 Y167.514 E61.41578
G1 X160.004 Y168.196 E61.47017
G1 X159.418 Y168.844 E61.52247
G1 X157.754 Y170.789 E61.67571
G1 X156.072 Y172.874 E61.83609
G1 X155.731 Y173.309 E61.86918
G1 X155.141 Y173.996 E61.9234
G1 X154.494 Y174.628 E61.97755
G1 X153.793 Y175.2 E62.03171
G1 X153.044 Y175.708 E62.0859
G1 X152.253 Y176.149 E62.14011
G1 X151.427 Y176.517 E62.19425
G1 X150.153 Y176.925 E62.27434
G1 X149.266 Y177.106 E62.32854
G1 X147.957 Y177.227 E62.40724
G1 X147.349 Y177.24 E62.44365
G1 X76.739 Y177.239 E66.67094
G1 X76.041 Y177.229 E66.71274
G1 X75.138 Y177.176 E66.76689
G1 X74.243 Y177.044 E66.82105
G1 X73.363 Y176.833 E66.87523
G1 X72.505 Y176.545 E66.92941
G1 X71.676 Y176.182 E66.98359
G1 X70.882 Y175.748 E67.03777
G1 X70.13 Y175.245 E67.09193
G1 X69.424 Y174.678 E67.14614
G1 X68.772 Y174.051 E67.20029
G1 X68.178 Y173.369 E67.25444
G1 X67.646 Y172.637 E67.30862
G1 X67.181 Y171.861 E67.36278
G1 X66.786 Y171.047 E67.41694
G1 X66.464 Y170.201 E67.47114
G1 X66.219 Y169.33 E67.5253
G1 X66.051 Y168.441 E67.57947
G1 X65.952 Y167.267 E67.65
G1 X65.939 Y166.658 E67.68647
G1 X65.94 Y68.52 E73.56182
G1 X65.95 Y67.855 E73.60164
G1 X66.004 Y66.952 E73.6558
G1 X66.137 Y66.057 E73.70997
G1 X66.348 Y65.177 E73.76414
G1 X66.637 Y64.319 E73.81835
G1 X67 Y63.49 E73.87253
G1 X67.435 Y62.697 E73.92668
G1 X67.938 Y61.945 E73.98084
G1 X68.505 Y61.24 E74.035
G1 F3600 E70.035
;MESH:Bird_House-LateralChamfer_x2.obj
G0 F4800 X75.514 Y68.424
G0 X76.603 Y68.424
G0 X146.264 Y69.412
G0 X147.182 Y75.06
G0 X151.516 Y75.16
G0 X151.516 Y159.336
G0 X146.537 Y160.367
;TYPE:WALL-INNER
G1 F3600 E74.035
G1 F600 X146.65 Y160.124 E74.05105
G1 X146.926 Y159.81 E74.07608
G1 X147.24 Y159.629 E74.09777
G1 X147.55 Y159.548 E74.11696
G1 X151.728 Y159.548 E74.36709
G1 X151.728 Y74.948 E79.43194
G1 X147.566 Y74.948 E79.68111
G1 X147.155 Y74.83 E79.70671
G1 X146.811 Y74.581 E79.73213
G1 X146.66 Y74.388 E79.74681
G1 X146.509 Y74.03 E79.77007
G1 X146.476 Y73.748 E79.78707
G1 X146.476 Y69.2 E80.05935
G1 X77.376 Y69.2 E84.19624
G1 X77.376 Y165.8 E89.97951
G1 X146.476 Y165.8 E94.11641
G1 X146.476 Y160.804 E94.41551
G0 F540 X146.476 Y160.637
G0 X146.537 Y160.367
G0 F4800 X147.014 Y160.463
G1 F600 X147.148 Y160.257 E94.43022
G1 X147.303 Y160.131 E94.44218
G1 X147.6 Y160.028 E94.461
G1 X152.208 Y160.028 E94.73688
G1 X152.208 Y74.468 E99.8592
G1 X147.577 Y74.462 E100.13645
G1 X147.422 Y74.423 E100.14602
G1 X147.205 Y74.294 E100.16113
G1 X147.018 Y74.042 E100.17992
G1 X146.961 Y73.839 E100.19254
G1 X146.956 Y68.72 E100.49901
G1 X76.896 Y68.72 E104.69338
G1 X76.896 Y166.28 E110.53413
G1 X146.956 Y166.28 E114.72849
G1 X146.961 Y160.9 E115.05059
G0 F540 X146.961 Y160.66
G0 X147.014 Y160.463
G0 F4800 X147.641 Y160.51
;TYPE:WALL-OUTER
G1 F600 X152.688 Y160.508 E115.35274
G1 X152.688 Y73.988 E120.53254
G1 X147.643 Y73.986 E120.83458
G1 X147.503 Y73.915 E120.84397
G1 X147.437 Y73.779 E120.85302
G1 X147.436 Y68.24 E121.18463
G1 X76.416 Y68.24 E125.43648
G1 X76.416 Y166.76 E131.3347
G1 X147.436 Y166.76 E135.58654
G1 X147.437 Y160.855 E135.94006
G0 F540 X147.437 Y160.718
G0 X147.537 Y160.551
G0 X147.641 Y160.51
G0 F4800 X147.641 Y159.84
G0 X146.841 Y159.912
G0 X146.335 Y160.628
G0 X146.037 Y160.591
;TYPE:SKIN
G1 F600 X146.036 Y165.36 E136.22557
G1 X77.816 Y165.36 E140.30978
G1 X77.816 Y69.64 E146.04037
G1 X146.036 Y69.64 E150.12458
G1 X146.037 Y73.769 E150.37178
G1 X146.077 Y74.109 E150.39228
G1 X146.211 Y74.52 E150.41816
G1 X146.486 Y74.878 E150.44518
G1 X146.851 Y75.164 E150.47294
G1 X147.119 Y75.289 E150.49065
G1 X147.502 Y75.388 E150.51433
G1 X151.288 Y75.388 E150.74099
G1 X151.288 Y159.108 E155.75316
G1 X147.492 Y159.108 E155.98042
G1 X147.078 Y159.219 E156.00608
G1 X146.805 Y159.357 E156.0244
G1 X146.523 Y159.576 E156.04577
G1 X146.328 Y159.806 E156.06382
G1 X146.132 Y160.193 E156.0898
G1 X146.037 Y160.591 E156.11429
G1 F3600 E152.11429
G0 F4800 X146.335 Y160.628
G0 X146.264 Y165.588
G0 X77.588 Y165.588
G0 X77.516 Y164.945
G0 X78.055 Y164.945
G1 F3600 E156.11429
G1 F600 X78.231 Y165.12 E156.12915
G0 F4800 X78.91 Y165.12
G1 F600 X78.055 Y164.266 E156.2015
G0 F4800 X78.055 Y163.587
G1 F600 X79.588 Y165.12 E156.33129
G0 F4800 X80.267 Y165.12
G1 F600 X78.055 Y162.908 E156.51857
G0 F4800 X78.055 Y162.229
G1 F600 X80.946 Y165.12 E156.76335
G0 F4800 X81.625 Y165.12
G1 F600 X78.055 Y161.551 E157.06556
G0 F4800 X78.055 Y160.872
G1 F600 X82.304 Y165.12 E157.42527
G0 F4800 X82.983 Y165.12
G1 F600 X78.055 Y160.193 E157.84246
G0 F4800 X78.055 Y159.514
G1 F600 X83.661 Y165.12 E158.3171
G0 F4800 X84.34 Y165.12
G1 F600 X78.055 Y158.835 E158.84923
G0 F4800 X78.055 Y158.156
G1 F600 X85.019 Y165.12 E159.43885
G0 F4800 X85.698 Y165.12
G1 F600 X78.055 Y157.478 E160.08591
G0 F4800 X78.055 Y156.799
G1 F600 X86.377 Y165.12 E160.79046
G0 F4800 X87.055 Y165.12
G1 F600 X78.055 Y156.12 E161.55246
G0 F4800 X78.055 Y155.441
G1 F600 X87.734 Y165.12 E162.37195
G0 F4800 X88.413 Y165.12
G1 F600 X78.055 Y154.762 E163.24892
G0 F4800 X78.055 Y154.084
G1 F600 X89.092 Y165.12 E164.18335
G0 F4800 X89.771 Y165.12
G1 F600 X78.055 Y153.405 E165.17526
G0 F4800 X78.055 Y152.726
G1 F600 X90.45 Y165.12 E166.22466
G0 F4800 X91.128 Y165.12
G1 F600 X78.055 Y152.047 E167.3315
G0 F4800 X78.055 Y151.368
G1 F600 X91.807 Y165.12 E168.49583
G0 F4800 X92.486 Y165.12
G1 F600 X78.055 Y150.689 E169.71766
G0 F4800 X78.055 Y150.011
G1 F600 X93.165 Y165.12 E170.99692
G0 F4800 X93.844 Y165.12
G1 F600 X78.055 Y149.332 E172.33368
G0 F4800 X78.055 Y148.653
G1 F600 X94.522 Y165.12 E173.72788
G0 F4800 X95.201 Y165.12
G1 F600 X78.055 Y147.974 E175.17958
G0 F4800 X78.055 Y147.295
G1 F600 X95.88 Y165.12 E176.68876
G0 F4800 X96.559 Y165.12
G1 F600 X78.055 Y146.616 E178.25542
G0 F4800 X78.055 Y145.938
G1 F600 X97.238 Y165.12 E179.87954
G0 F4800 X97.917 Y165.12
G1 F600 X78.055 Y145.259 E181.56114
G0 F4800 X78.055 Y144.58
G1 F600 X98.595 Y165.12 E183.30019
G0 F4800 X99.274 Y165.12
G1 F600 X78.055 Y143.901 E185.09673
G0 F4800 X78.055 Y143.222
G1 F600 X99.953 Y165.12 E186.95076
G0 F4800 X100.632 Y165.12
G1 F600 X78.055 Y142.544 E188.86223
G0 F4800 X78.055 Y141.865
G1 F600 X101.311 Y165.12 E190.83119
G0 F4800 X101.99 Y165.12
G1 F600 X78.055 Y141.186 E192.85764
G0 F4800 X78.055 Y140.507
G1 F600 X102.668 Y165.12 E194.94154
G0 F4800 X103.347 Y165.12
G1 F600 X78.055 Y139.828 E197.08292
G0 F4800 X78.055 Y139.149
G1 F600 X104.026 Y165.12 E199.28179
G0 F4800 X104.705 Y165.12
G1 F600 X78.055 Y138.471 E201.53811
G0 F4800 X78.055 Y137.792
G1 F600 X105.384 Y165.12 E203.85192
G0 F4800 X106.062 Y165.12
G1 F600 X78.055 Y137.113 E206.22318
G0 F4800 X78.055 Y136.434
G1 F600 X106.741 Y165.12 E208.65192
G0 F4800 X107.42 Y165.12
G1 F600 X78.055 Y135.755 E211.13815
G0 F4800 X78.055 Y135.076
G1 F600 X108.099 Y165.12 E213.68187
G0 F4800 X108.778 Y165.12
G1 F600 X78.055 Y134.398 E216.28304
G0 F4800 X78.055 Y133.719
G1 F600 X109.457 Y165.12 E218.94169
G0 F4800 X110.135 Y165.12
G1 F600 X78.055 Y133.04 E221.65779
G0 F4800 X78.055 Y132.361
G1 F600 X110.814 Y165.12 E224.43138
G0 F4800 X111.493 Y165.12
G1 F600 X78.055 Y131.682 E227.26246
G0 F4800 X78.055 Y131.004
G1 F600 X112.172 Y165.12 E230.15098
G0 F4800 X112.851 Y165.12
G1 F600 X78.055 Y130.325 E233.09699
G0 F4800 X78.055 Y129.646
G1 F600 X113.53 Y165.12 E236.1005
G0 F4800 X114.208 Y165.12
G1 F600 X78.055 Y128.967 E239.16144
G0 F4800 X78.055 Y128.288
G1 F600 X114.887 Y165.12 E242.27988
G0 F4800 X115.566 Y165.12
G1 F600 X78.055 Y127.609 E245.4558
G0 F4800 X78.055 Y126.931
G1 F600 X116.245 Y165.12 E248.68917
G0 F4800 X116.924 Y165.12
G1 F600 X78.055 Y126.252 E251.98003
G0 F4800 X78.055 Y125.573
G1 F600 X117.602 Y165.12 E255.32834
G0 F4800 X118.281 Y165.12
G1 F600 X78.055 Y124.894 E258.73413
G0 F4800 X78.055 Y124.215
G1 F600 X118.96 Y165.12 E262.19741
G0 F4800 X119.639 Y165.12
G1 F600 X78.055 Y123.537 E265.71814
G0 F4800 X78.055 Y122.858
G1 F600 X120.318 Y165.12 E269.29636
G0 F4800 X120.997 Y165.12
G1 F600 X78.055 Y122.179 E272.93207
G0 F4800 X78.055 Y121.5
G1 F600 X121.675 Y165.12 E276.62522
G0 F4800 X122.354 Y165.12
G1 F600 X78.055 Y120.821 E280.37586
G0 F4800 X78.055 Y120.142
G1 F600 X123.033 Y165.12 E284.18399
G0 F4800 X123.712 Y165.12
G1 F600 X78.055 Y119.464 E288.04956
