;FLAVOR:Marlin
;TIME:5262
;Filament used: 4.21656m
;Layer height: 0.2
;MINX:81.331
;MINY:81.331
;MINZ:0.3
;MAXX:153.668
;MAXY:153.669
;MAXZ:14.78
;TARGET_MACHINE.NAME:BIQU B1
;Generated with Cura_SteamEngine 5.12.0
                                 ; BIQU B1 Start G-code
M117 Getting the bed up to temp!
M140 S60      ; Set Heat Bed temperature
M190 S60      ; Wait for Heat Bed temperature
M117 Getting the extruder up to temp!
M104 S200    ; Set Extruder temperature
G92 E0                           ; Reset Extruder
M117 Homing axes
G28                              ; Home all axes
M109 S200    ; Wait for Extruder temperature
G1 Z2.0 F3000                    ; Move Z Axis up little to prevent scratching of Heat Bed
G1 X4.1 Y20 Z0.3 F5000.0         ; Move to start position
M117 Purging
G1 X4.1 Y200.0 Z0.3 F1500.0 E15  ; Draw the first line
G1 X4.4 Y200.0 Z0.3 F5000.0      ; Move to side a little
G1 X4.4 Y20 Z0.3 F1500.0 E30     ; Draw the second line
G92 E0                           ; Reset Extruder
M117 Lets make
G1 Z2.0 F3000                    ; Move Z Axis up little to prevent scratching of Heat Bed
G1 X5 Y20 Z0.3 F5000.0           ; Move over to prevent blob squish
M82 ;absolute extrusion mode
G92 E0
G92 E0
G1 F3600 E-4
;LAYER_COUNT:63
;LAYER:0
M107
G0 F4800 X91.742 Y92.108 Z0.3
;TYPE:SKIRT
G1 F3600 E0
G1 F600 X92.311 Y91.545 E0.04792
G1 X92.785 Y91.092 E0.08717
G1 X93.674 Y90.287 E0.15898
G1 X94.014 Y89.992 E0.18592
G1 X95.148 Y89.065 E0.27361
G1 X95.771 Y88.588 E0.32059
G1 X96.708 Y87.906 E0.38997
G1 X97.137 Y87.609 E0.42121
G1 X98.094 Y86.977 E0.48987
G1 X99.118 Y86.345 E0.56191
G1 X100.041 Y85.825 E0.62533
G1 X101.076 Y85.278 E0.69542
G1 X101.681 Y84.976 E0.7359
G1 X102.81 Y84.451 E0.81044
G1 X103.48 Y84.16 E0.85417
G1 X104.387 Y83.793 E0.91275
G1 X104.93 Y83.584 E0.94758
G1 X105.901 Y83.241 E1.00924
G1 X106.698 Y82.982 E1.05941
G1 X108.078 Y82.578 E1.14549
G1 X109.576 Y82.211 E1.23783
G1 X110.131 Y82.091 E1.27182
G1 X111.187 Y81.888 E1.3362
G1 X112.308 Y81.708 E1.40417
G1 X113.712 Y81.528 E1.48892
G1 X114.724 Y81.437 E1.54975
G1 X115.584 Y81.382 E1.60134
G1 X116.756 Y81.34 E1.67155
G1 X117.419 Y81.331 E1.71125
G1 X118.506 Y81.345 E1.77633
G1 X119.066 Y81.364 E1.80987
G1 X120.141 Y81.428 E1.87435
G1 X120.992 Y81.5 E1.92548
G1 X122.13 Y81.628 E1.99404
G1 X122.62 Y81.695 E2.02364
G1 X123.734 Y81.874 E2.09119
G1 X124.865 Y82.09 E2.16013
G1 X125.96 Y82.334 E2.22729
G1 X126.491 Y82.465 E2.26003
G1 X127.31 Y82.685 E2.31081
G1 X128.029 Y82.897 E2.35568
G1 X129.903 Y83.508 E2.47369
G1 X130.622 Y83.782 E2.51975
G1 X131.611 Y84.199 E2.58401
G1 X132.522 Y84.6 E2.6436
G1 X133.065 Y84.852 E2.67944
G1 X134.219 Y85.428 E2.75666
G1 X134.896 Y85.791 E2.80264
G1 X135.679 Y86.232 E2.85645
G1 X136.2 Y86.538 E2.89262
G1 X137.144 Y87.13 E2.95933
G1 X137.905 Y87.637 E3.01407
G1 X139.021 Y88.43 E3.09604
G1 X140.236 Y89.371 E3.18804
G1 X140.591 Y89.663 E3.21556
G1 X141.661 Y90.585 E3.30012
G1 X142.158 Y91.041 E3.3405
G1 X142.831 Y91.684 E3.39623
G1 X143.499 Y92.356 E3.45295
G1 X144.11 Y93.003 E3.50623
G1 X144.683 Y93.64 E3.55752
G1 X145.308 Y94.371 E3.6151
G1 X145.73 Y94.886 E3.65496
G1 X146.51 Y95.897 E3.73141
G1 X146.79 Y96.279 E3.75977
G1 X147.522 Y97.329 E3.8364
G1 X147.931 Y97.952 E3.88101
G1 X148.369 Y98.647 E3.9302
G1 X148.73 Y99.251 E3.97232
G1 X149.265 Y100.202 E4.03765
G1 X149.612 Y100.851 E4.08171
G1 X150.133 Y101.901 E4.15188
G1 X150.392 Y102.455 E4.1885
G1 X150.87 Y103.551 E4.26008
G1 X151.185 Y104.332 E4.3105
G1 X151.506 Y105.181 E4.36484
G1 X151.736 Y105.835 E4.40634
G1 X152.083 Y106.911 E4.47403
G1 X152.353 Y107.841 E4.532
G1 X152.642 Y108.94 E4.60003
G1 X152.883 Y109.993 E4.66471
G1 X153.11 Y111.118 E4.73342
G1 X153.282 Y112.217 E4.80001
G1 X153.405 Y113.139 E4.8557
G1 X153.497 Y113.975 E4.90605
G1 X153.571 Y114.835 E4.95773
G1 X153.623 Y115.652 E5.00674
G1 X153.654 Y116.465 E5.05545
G1 X153.668 Y117.557 E5.12083
G1 X153.657 Y118.469 E5.17543
G1 X153.626 Y119.258 E5.22271
G1 X153.574 Y120.101 E5.27327
G1 X153.469 Y121.295 E5.34503
G1 X153.384 Y122.023 E5.38891
G1 X153.226 Y123.135 E5.45615
G1 X153.09 Y123.939 E5.50497
G1 X152.875 Y125.043 E5.5723
G1 X152.769 Y125.516 E5.60132
G1 X152.487 Y126.669 E5.67239
G1 X152.318 Y127.287 E5.71074
G1 X152.059 Y128.166 E5.76561
G1 X151.85 Y128.821 E5.80677
G1 X151.473 Y129.908 E5.87565
G1 X151.134 Y130.801 E5.93283
G1 X150.692 Y131.869 E6.00203
G1 X150.437 Y132.439 E6.03941
G1 X149.904 Y133.571 E6.11432
G1 X149.299 Y134.736 E6.19291
G1 X148.857 Y135.527 E6.24716
G1 X148.306 Y136.451 E6.31157
G1 X147.854 Y137.166 E6.36221
G1 X147.191 Y138.157 E6.43359
G1 X146.872 Y138.606 E6.46657
G1 X146.158 Y139.565 E6.53815
G1 X145.687 Y140.162 E6.58367
G1 X144.758 Y141.274 E6.67042
G1 X143.813 Y142.316 E6.75464
G1 X143.305 Y142.843 E6.79846
G1 X142.735 Y143.411 E6.84663
G1 X142.225 Y143.898 E6.88885
G1 X141.328 Y144.709 E6.96125
G1 X140.768 Y145.189 E7.0054
G1 X139.823 Y145.957 E7.07831
G1 X139.321 Y146.344 E7.11626
G1 X138.497 Y146.95 E7.17749
G1 X138.053 Y147.263 E7.21001
G1 X137.122 Y147.884 E7.27701
G1 X136.296 Y148.4 E7.33532
G1 X135.551 Y148.84 E7.38712
G1 X134.709 Y149.31 E7.44485
G1 X133.662 Y149.855 E7.51552
G1 X133.025 Y150.163 E7.55788
G1 X132.026 Y150.622 E7.6237
G1 X131.598 Y150.808 E7.65163
G1 X130.64 Y151.196 E7.71351
G1 X130.009 Y151.438 E7.75397
G1 X128.983 Y151.798 E7.81907
G1 X128.33 Y152.012 E7.86021
G1 X126.963 Y152.411 E7.94546
G1 X126.303 Y152.581 E7.98627
G1 X124.902 Y152.904 E8.07234
G1 X123.532 Y153.161 E8.15579
G1 X122.692 Y153.292 E8.20669
G1 X121.288 Y153.472 E8.29143
G1 X120.276 Y153.563 E8.35226
G1 X119.417 Y153.618 E8.4038
G1 X118.257 Y153.659 E8.47329
G1 X117.574 Y153.669 E8.51418
G1 X116.434 Y153.653 E8.58244
G1 X115.645 Y153.621 E8.62971
G1 X114.918 Y153.576 E8.67332
G1 X113.689 Y153.466 E8.74719
G1 X112.457 Y153.316 E8.82149
G1 X110.922 Y153.064 E8.91462
G1 X110.214 Y152.925 E8.95782
G1 X108.799 Y152.609 E9.04462
G1 X107.69 Y152.315 E9.11331
G1 X106.998 Y152.114 E9.15645
G1 X105.968 Y151.782 E9.22124
G1 X105.277 Y151.542 E9.26503
G1 X104.147 Y151.113 E9.33739
G1 X103.354 Y150.786 E9.38874
G1 X102.402 Y150.366 E9.45104
G1 X101.938 Y150.15 E9.48168
G1 X100.716 Y149.538 E9.5635
G1 X100.19 Y149.256 E9.59923
G1 X99.341 Y148.777 E9.65759
G1 X98.581 Y148.323 E9.71059
G1 X97.564 Y147.678 E9.78269
G1 X96.351 Y146.84 E9.87096
G1 X95.549 Y146.245 E9.93074
G1 X94.906 Y145.741 E9.97965
G1 X94.154 Y145.122 E10.03796
G1 X93.024 Y144.129 E10.12802
G1 X92.019 Y143.171 E10.21115
G1 X91.529 Y142.673 E10.25297
G1 X90.959 Y142.073 E10.30252
G1 X90.307 Y141.347 E10.36094
G1 X89.529 Y140.43 E10.43294
G1 X89.168 Y139.98 E10.46747
G1 X88.473 Y139.076 E10.53574
G1 X88.054 Y138.499 E10.57843
G1 X87.409 Y137.569 E10.64619
G1 X87.036 Y136.995 E10.68717
G1 X86.561 Y136.234 E10.74088
G1 X86.201 Y135.626 E10.78318
G1 X85.558 Y134.464 E10.86269
G1 X85.134 Y133.654 E10.91742
G1 X84.895 Y133.172 E10.94963
G1 X84.505 Y132.314 E11.00606
G1 X83.907 Y130.904 E11.09775
G1 X83.502 Y129.839 E11.16596
G1 X83.263 Y129.159 E11.20912
G1 X82.837 Y127.828 E11.29278
G1 X82.638 Y127.128 E11.33635
G1 X82.422 Y126.311 E11.38694
G1 X82.212 Y125.432 E11.44105
G1 X82.009 Y124.468 E11.50003
G1 X81.864 Y123.682 E11.54788
G1 X81.688 Y122.573 E11.6151
G1 X81.602 Y121.9 E11.65572
G1 X81.451 Y120.451 E11.74294
G1 X81.364 Y119.058 E11.8265
G1 X81.34 Y118.296 E11.87214
G1 X81.331 Y117.325 E11.93028
G1 X81.345 Y116.507 E11.97926
G1 X81.387 Y115.499 E12.03965
G1 X81.447 Y114.622 E12.09228
G1 X81.589 Y113.177 E12.17921
G1 X81.747 Y112.029 E12.24858
G1 X81.891 Y111.161 E12.30126
G1 X82.068 Y110.243 E12.35723
G1 X82.198 Y109.629 E12.39481
G1 X82.478 Y108.47 E12.46619
G1 X82.691 Y107.682 E12.51506
G1 X82.947 Y106.814 E12.56924
G1 X83.173 Y106.105 E12.61379
G1 X83.622 Y104.83 E12.69471
G1 X83.865 Y104.203 E12.73497
G1 X84.327 Y103.086 E12.80734
G1 X84.564 Y102.554 E12.84221
G1 X85.046 Y101.533 E12.9098
G1 X85.347 Y100.938 E12.94972
G1 X85.783 Y100.116 E13.00543
G1 X86.088 Y99.569 E13.04292
G1 X86.636 Y98.643 E13.10734
G1 X87.016 Y98.034 E13.15032
G1 X87.644 Y97.085 E13.21844
G1 X88.181 Y96.321 E13.27435
G1 X88.878 Y95.391 E13.34393
G1 X89.294 Y94.867 E13.38399
G1 X90.195 Y93.78 E13.46851
G1 X90.896 Y92.996 E13.53148
G1 X91.742 Y92.108 E13.6049
G0 F4800 X92.08 Y92.449
G1 F600 X92.642 Y91.892 E13.65227
G1 X93.107 Y91.448 E13.69077
G1 X93.989 Y90.65 E13.76197
G1 X94.329 Y90.355 E13.78892
G1 X95.44 Y89.446 E13.87486
G1 X96.054 Y88.976 E13.92116
G1 X96.98 Y88.301 E13.98976
G1 X97.402 Y88.01 E14.02045
G1 X98.359 Y87.378 E14.08911
G1 X99.354 Y86.763 E14.15914
G1 X100.265 Y86.249 E14.22176
G1 X101.29 Y85.707 E14.29117
G1 X101.883 Y85.411 E14.33085
G1 X103.001 Y84.891 E14.40467
G1 X103.66 Y84.605 E14.44768
G1 X104.559 Y84.241 E14.50575
G1 X105.09 Y84.037 E14.5398
G1 X106.061 Y83.694 E14.60145
G1 X106.833 Y83.443 E14.65005
G1 X108.213 Y83.039 E14.73614
G1 X109.678 Y82.68 E14.82644
G1 X110.221 Y82.562 E14.85971
G1 X111.263 Y82.362 E14.92323
G1 X112.369 Y82.184 E14.9903
G1 X113.755 Y82.006 E15.07396
G1 X114.755 Y81.916 E15.13407
G1 X115.601 Y81.862 E15.18482
G1 X116.763 Y81.82 E15.25443
G1 X117.413 Y81.811 E15.29335
G1 X118.49 Y81.825 E15.35783
G1 X119.038 Y81.843 E15.39066
G1 X120.1 Y81.906 E15.45435
G1 X120.938 Y81.977 E15.5047
G1 X122.065 Y82.104 E15.5726
G1 X122.544 Y82.169 E15.60154
G1 X123.644 Y82.346 E15.66824
G1 X124.761 Y82.559 E15.73632
G1 X125.845 Y82.8 E15.8028
G1 X126.367 Y82.929 E15.83499
G1 X127.175 Y83.146 E15.88508
G1 X127.88 Y83.353 E15.92907
G1 X129.732 Y83.957 E16.04569
G1 X130.451 Y84.231 E16.09175
G1 X131.418 Y84.638 E16.15457
G1 X132.32 Y85.035 E16.21357
G1 X132.851 Y85.282 E16.24863
G1 X133.992 Y85.851 E16.32496
G1 X134.66 Y86.209 E16.37033
G1 X135.436 Y86.646 E16.42365
G1 X135.945 Y86.945 E16.45899
G1 X136.878 Y87.529 E16.52489
G1 X137.627 Y88.028 E16.57877
G1 X138.727 Y88.809 E16.65954
G1 X139.931 Y89.742 E16.75073
G1 X140.278 Y90.027 E16.77761
G1 X141.336 Y90.939 E16.86124
G1 X141.833 Y91.395 E16.90162
G1 X142.491 Y92.022 E16.95603
G1 X143.15 Y92.685 E17.012
G1 X143.753 Y93.324 E17.0646
G1 X144.318 Y93.952 E17.11517
G1 X144.937 Y94.676 E17.1722
G1 X145.35 Y95.179 E17.21116
G1 X146.123 Y96.18 E17.28688
G1 X146.396 Y96.553 E17.31455
G1 X147.121 Y97.593 E17.39045
G1 X147.525 Y98.208 E17.4345
G1 X147.957 Y98.894 E17.48304
G1 X148.312 Y99.487 E17.52441
G1 X148.842 Y100.428 E17.58907
G1 X149.182 Y101.065 E17.6323
G1 X149.698 Y102.104 E17.70175
G1 X149.952 Y102.647 E17.73764
G1 X150.425 Y103.731 E17.80845
G1 X150.736 Y104.501 E17.85816
G1 X151.053 Y105.341 E17.91191
G1 X151.279 Y105.982 E17.9526
G1 X151.622 Y107.045 E18.01948
G1 X151.889 Y107.963 E18.07671
G1 X152.174 Y109.048 E18.14387
G1 X152.413 Y110.088 E18.20776
G1 X152.636 Y111.192 E18.27519
G1 X152.806 Y112.281 E18.34117
G1 X152.928 Y113.192 E18.3962
G1 X153.019 Y114.016 E18.44583
G1 X153.092 Y114.865 E18.49685
G1 X153.143 Y115.671 E18.5452
G1 X153.174 Y116.471 E18.59313
G1 X153.188 Y117.551 E18.65779
G1 X153.177 Y118.451 E18.71168
G1 X153.147 Y119.229 E18.75829
G1 X153.096 Y120.059 E18.80807
G1 X152.992 Y121.24 E18.87905
G1 X152.909 Y121.956 E18.9222
G1 X152.753 Y123.055 E18.98866
G1 X152.619 Y123.847 E19.03675
G1 X152.407 Y124.938 E19.10329
G1 X152.303 Y125.402 E19.13176
G1 X152.024 Y126.543 E19.20208
G1 X151.858 Y127.151 E19.23981
G1 X151.602 Y128.02 E19.29405
G1 X151.397 Y128.664 E19.33451
G1 X151.024 Y129.738 E19.40257
G1 X150.69 Y130.617 E19.45887
G1 X150.248 Y131.685 E19.52807
G1 X150.003 Y132.235 E19.56411
G1 X149.478 Y133.35 E19.6379
G1 X148.88 Y134.502 E19.7156
G1 X148.445 Y135.281 E19.76902
G1 X147.9 Y136.195 E19.83273
G1 X147.455 Y136.899 E19.88259
G1 X146.799 Y137.879 E19.95319
G1 X146.487 Y138.319 E19.98548
G1 X145.781 Y139.268 E20.0563
G1 X145.319 Y139.854 E20.10097
G1 X144.402 Y140.952 E20.18662
G1 X143.468 Y141.983 E20.2699
G1 X142.966 Y142.503 E20.31317
G1 X142.403 Y143.064 E20.36076
G1 X141.903 Y143.542 E20.40217
G1 X141.015 Y144.345 E20.47384
G1 X140.465 Y144.817 E20.51723
G1 X139.53 Y145.577 E20.58937
G1 X139.037 Y145.957 E20.62664
G1 X138.22 Y146.558 E20.68736
G1 X137.787 Y146.864 E20.7191
G1 X136.868 Y147.477 E20.78524
G1 X136.052 Y147.987 E20.84284
G1 X135.317 Y148.421 E20.89395
G1 X134.487 Y148.884 E20.95085
G1 X133.453 Y149.423 E21.02066
G1 X132.825 Y149.727 E21.06243
G1 X131.834 Y150.182 E21.12771
G1 X131.418 Y150.363 E21.15487
G1 X130.468 Y150.748 E21.21624
G1 X129.85 Y150.985 E21.25586
G1 X128.834 Y151.342 E21.32034
G1 X128.195 Y151.551 E21.36059
G1 X126.843 Y151.946 E21.44491
G1 X126.195 Y152.113 E21.48497
G1 X124.813 Y152.432 E21.56989
G1 X123.458 Y152.687 E21.65243
G1 X122.631 Y152.816 E21.70254
G1 X121.245 Y152.994 E21.7862
G1 X120.245 Y153.084 E21.84631
G1 X119.4 Y153.138 E21.897
G1 X118.25 Y153.179 E21.9659
G1 X117.581 Y153.189 E22.00595
G1 X116.453 Y153.173 E22.07349
G1 X115.675 Y153.142 E22.1201
G1 X114.961 Y153.098 E22.16293
G1 X113.747 Y152.989 E22.2359
G1 X112.535 Y152.842 E22.309
G1 X111.015 Y152.593 E22.40121
G1 X110.318 Y152.456 E22.44374
G1 X108.922 Y152.145 E22.52936
G1 X107.824 Y151.854 E22.59737
G1 X107.145 Y151.657 E22.63969
G1 X106.126 Y151.329 E22.70378
G1 X105.447 Y151.093 E22.74682
G1 X104.33 Y150.669 E22.81834
G1 X103.548 Y150.347 E22.86898
G1 X102.604 Y149.93 E22.93076
G1 X102.153 Y149.721 E22.96052
G1 X100.943 Y149.115 E23.04154
G1 X100.426 Y148.838 E23.07665
G1 X99.587 Y148.365 E23.13431
G1 X98.838 Y147.918 E23.18653
G1 X97.837 Y147.283 E23.2575
G1 X96.637 Y146.454 E23.34482
G1 X95.845 Y145.867 E23.40384
G1 X95.211 Y145.37 E23.45207
G1 X94.471 Y144.761 E23.50944
G1 X93.355 Y143.781 E23.59836
G1 X92.361 Y142.834 E23.68055
G1 X91.877 Y142.343 E23.72183
G1 X91.316 Y141.752 E23.77061
G1 X90.673 Y141.037 E23.82818
G1 X89.903 Y140.129 E23.89946
G1 X89.548 Y139.687 E23.9334
G1 X88.861 Y138.794 E24.00085
G1 X88.448 Y138.226 E24.0429
G1 X87.811 Y137.307 E24.10984
G1 X87.443 Y136.741 E24.15026
G1 X86.974 Y135.989 E24.20332
G1 X86.621 Y135.393 E24.24479
G1 X85.983 Y134.242 E24.32357
G1 X85.564 Y133.441 E24.37769
G1 X85.332 Y132.973 E24.40896
G1 X84.947 Y132.127 E24.46461
G1 X84.356 Y130.733 E24.55526
G1 X83.955 Y129.679 E24.62277
G1 X83.72 Y129.013 E24.66505
G1 X83.299 Y127.696 E24.74783
G1 X83.102 Y127.005 E24.79085
G1 X82.889 Y126.199 E24.84076
G1 X82.682 Y125.333 E24.89406
G1 X82.481 Y124.381 E24.95231
G1 X82.338 Y123.607 E24.99944
G1 X82.164 Y122.512 E25.06582
G1 X82.079 Y121.85 E25.10577
G1 X81.93 Y120.421 E25.19179
G1 X81.844 Y119.043 E25.27445
G1 X81.82 Y118.291 E25.31949
G1 X81.811 Y117.333 E25.37685
G1 X81.825 Y116.527 E25.42511
G1 X81.866 Y115.532 E25.48473
G1 X81.925 Y114.669 E25.53652
G1 X82.067 Y113.224 E25.62344
G1 X82.221 Y112.108 E25.69089
G1 X82.365 Y111.24 E25.74356
G1 X82.537 Y110.343 E25.79824
G1 X82.665 Y109.742 E25.83503
G1 X82.945 Y108.583 E25.90641
G1 X83.151 Y107.818 E25.95385
G1 X83.404 Y106.96 E26.0074
G1 X83.626 Y106.264 E26.05114
G1 X84.07 Y105.003 E26.13117
G1 X84.309 Y104.386 E26.17079
G1 X84.766 Y103.281 E26.24237
G1 X84.998 Y102.759 E26.27657
G1 X85.474 Y101.75 E26.34336
G1 X85.771 Y101.163 E26.38275
G1 X86.202 Y100.35 E26.43784
G1 X86.501 Y99.813 E26.47464
G1 X87.043 Y98.897 E26.53836
G1 X87.416 Y98.299 E26.58055
G1 X88.037 Y97.361 E26.6479
G1 X88.565 Y96.609 E26.70291
G1 X89.254 Y95.689 E26.77172
G1 X89.663 Y95.173 E26.81114
G1 X90.553 Y94.1 E26.8946
G1 X91.244 Y93.327 E26.95667
G1 X92.08 Y92.449 E27.02926
G0 F4800 X92.418 Y92.79
G1 F600 X92.973 Y92.239 E27.07608
G1 X93.429 Y91.804 E27.11381
G1 X94.304 Y91.013 E27.18442
G1 X94.644 Y90.718 E27.21137
G1 X95.732 Y89.827 E27.29556
G1 X96.337 Y89.364 E27.34117
G1 X97.253 Y88.696 E27.40905
G1 X97.667 Y88.41 E27.43917
G1 X98.611 Y87.786 E27.50692
G1 X99.59 Y87.181 E27.57582
G1 X100.489 Y86.673 E27.63764
G1 X101.504 Y86.136 E27.70638
G1 X102.085 Y85.846 E27.74526
G1 X103.192 Y85.331 E27.81835
G1 X103.84 Y85.05 E27.86064
G1 X104.731 Y84.689 E27.91819
G1 X105.25 Y84.49 E27.95147
G1 X106.221 Y84.147 E28.01312
G1 X106.968 Y83.904 E28.06015
G1 X108.333 Y83.504 E28.14531
G1 X108.858 Y83.369 E28.17776
G1 X109.781 Y83.149 E28.23457
G1 X110.311 Y83.033 E28.26705
G1 X111.34 Y82.836 E28.32977
G1 X112.43 Y82.66 E28.39587
