;FLAVOR:Marlin
;TIME:5211
;Filament used: 4.12545m
;Layer height: 0.2
;MINX:85.032
;MINY:74.734
;MINZ:0.3
;MAXX:154.934
;MAXY:144.638
;MAXZ:14.78
;TARGET_MACHINE.NAME:BIQU B1
;Generated with Cura_SteamEngine 5.12.0
                                 ; BIQU B1 Start G-code
M117 Getting the bed up to temp!
M140 S60      ; Set Heat Bed temperature
M190 S60      ; Wait for Heat Bed temperature
M117 Getting the extruder up to temp!
M104 S200    ; Set Extruder temperature
G92 E0                           ; Reset Extruder
M117 Homing axes
G28                              ; Home all axes
M109 S200    ; Wait for Extruder temperature
G1 Z2.0 F3000                    ; Move Z Axis up little to prevent scratching of Heat Bed
G1 X4.1 Y20 Z0.3 F5000.0         ; Move to start position
M117 Purging
G1 X4.1 Y200.0 Z0.3 F1500.0 E15  ; Draw the first line
G1 X4.4 Y200.0 Z0.3 F5000.0      ; Move to side a little
G1 X4.4 Y20 Z0.3 F1500.0 E30     ; Draw the second line
G92 E0                           ; Reset Extruder
M117 Lets make
G1 Z2.0 F3000                    ; Move Z Axis up little to prevent scratching of Heat Bed
G1 X5 Y20 Z0.3 F5000.0           ; Move over to prevent blob squish
M82 ;absolute extrusion mode
G92 E0
G92 E0
G1 F3600 E-4
;LAYER_COUNT:63
;LAYER:0
M107
G0 F4800 X94.553 Y85.707 Z0.3
;TYPE:SKIRT
G1 F3600 E0
G1 F600 X94.822 Y85.425 E0.02333
G1 X95.573 Y84.674 E0.08692
G1 X96.309 Y83.975 E0.14769
G1 X97.138 Y83.235 E0.21421
G1 X97.573 Y82.866 E0.24836
G1 X98.265 Y82.303 E0.30177
G1 X98.899 Y81.811 E0.34982
G1 X99.589 Y81.301 E0.40118
G1 X100.175 Y80.89 E0.44404
G1 X101.128 Y80.258 E0.5125
G1 X101.589 Y79.966 E0.54517
G1 X102.772 Y79.266 E0.62746
G1 X103.362 Y78.94 E0.66782
G1 X104.118 Y78.543 E0.71894
G1 X104.636 Y78.284 E0.75361
G1 X105.89 Y77.701 E0.8364
G1 X106.486 Y77.445 E0.87523
G1 X107.236 Y77.141 E0.92368
G1 X107.868 Y76.902 E0.96414
G1 X108.985 Y76.512 E1.03497
G1 X109.742 Y76.269 E1.08257
G1 X110.613 Y76.014 E1.1369
G1 X111.365 Y75.813 E1.1835
G1 X112.168 Y75.619 E1.23296
G1 X113.205 Y75.398 E1.29644
G1 X114.584 Y75.153 E1.38029
G1 X115.941 Y74.969 E1.46227
G1 X116.573 Y74.902 E1.50032
G1 X117.394 Y74.831 E1.54966
G1 X118.343 Y74.772 E1.60658
G1 X119.191 Y74.743 E1.65738
G1 X120.046 Y74.734 E1.70857
G1 X121.185 Y74.754 E1.77677
G1 X121.814 Y74.783 E1.81447
G1 X122.983 Y74.862 E1.88461
G1 X123.487 Y74.911 E1.91493
G1 X124.673 Y75.049 E1.98641
G1 X125.253 Y75.134 E2.02151
G1 X126.164 Y75.286 E2.0768
G1 X126.937 Y75.434 E2.12392
G1 X127.821 Y75.625 E2.17806
G1 X128.412 Y75.764 E2.21441
G1 X129.53 Y76.065 E2.28373
G1 X130.346 Y76.307 E2.33468
G1 X131.455 Y76.669 E2.40452
G1 X131.98 Y76.858 E2.43793
G1 X133.401 Y77.411 E2.52922
G1 X134.644 Y77.956 E2.61047
G1 X135.223 Y78.231 E2.64885
G1 X135.956 Y78.597 E2.6979
G1 X136.503 Y78.882 E2.73482
G1 X137.576 Y79.486 E2.80854
G1 X138.227 Y79.874 E2.85391
G1 X139.2 Y80.491 E2.92289
G1 X139.782 Y80.883 E2.9649
G1 X140.514 Y81.4 E3.01855
G1 X140.941 Y81.714 E3.05028
G1 X142.012 Y82.549 E3.13158
G1 X142.516 Y82.969 E3.17086
G1 X143.6 Y83.92 E3.25719
G1 X144.611 Y84.884 E3.34082
G1 X145.061 Y85.342 E3.37926
G1 X145.821 Y86.148 E3.44559
G1 X146.205 Y86.579 E3.48015
G1 X146.827 Y87.304 E3.53734
G1 X147.35 Y87.946 E3.58691
G1 X147.861 Y88.605 E3.63683
G1 X148.421 Y89.368 E3.6935
G1 X149.071 Y90.308 E3.76192
G1 X149.378 Y90.778 E3.79553
G1 X149.839 Y91.515 E3.84757
G1 X150.282 Y92.265 E3.89972
G1 X150.81 Y93.213 E3.96468
G1 X151.128 Y93.826 E4.00603
G1 X151.514 Y94.607 E4.05818
G1 X151.876 Y95.385 E4.10956
G1 X152.235 Y96.217 E4.16381
G1 X152.525 Y96.937 E4.21028
G1 X153.044 Y98.341 E4.29989
G1 X153.396 Y99.428 E4.36829
G1 X153.651 Y100.302 E4.4228
G1 X153.951 Y101.444 E4.49349
G1 X154.07 Y101.959 E4.52513
G1 X154.294 Y103.029 E4.59058
G1 X154.419 Y103.711 E4.63209
G1 X154.567 Y104.631 E4.68788
G1 X154.666 Y105.369 E4.73246
G1 X154.771 Y106.311 E4.7892
G1 X154.827 Y106.938 E4.82689
G1 X154.903 Y108.164 E4.90043
G1 X154.926 Y108.898 E4.94439
G1 X154.934 Y109.767 E4.99642
G1 X154.92 Y110.64 E5.04869
G1 X154.854 Y112.068 E5.13428
G1 X154.756 Y113.209 E5.20284
G1 X154.683 Y113.867 E5.24247
G1 X154.488 Y115.259 E5.32662
G1 X154.394 Y115.801 E5.35956
G1 X154.181 Y116.908 E5.42705
G1 X154.036 Y117.556 E5.4668
G1 X153.837 Y118.372 E5.51708
G1 X153.602 Y119.243 E5.57109
G1 X153.361 Y120.053 E5.62169
G1 X153.165 Y120.668 E5.66033
G1 X152.808 Y121.693 E5.72531
G1 X152.604 Y122.239 E5.76021
G1 X152.089 Y123.501 E5.84181
G1 X151.789 Y124.172 E5.88581
G1 X151.407 Y124.985 E5.93959
G1 X151.077 Y125.647 E5.98387
G1 X150.549 Y126.636 E6.05099
G1 X150.193 Y127.262 E6.09411
G1 X149.786 Y127.944 E6.14166
G1 X149.423 Y128.522 E6.18252
G1 X148.791 Y129.475 E6.25098
G1 X148.338 Y130.12 E6.29817
G1 X147.453 Y131.296 E6.38628
G1 X146.413 Y132.558 E6.48418
G1 X145.631 Y133.428 E6.55422
G1 X144.923 Y134.171 E6.61566
G1 X144.142 Y134.945 E6.68149
G1 X143.694 Y135.365 E6.71825
G1 X143.078 Y135.919 E6.76785
G1 X142.385 Y136.513 E6.8225
G1 X141.714 Y137.06 E6.87433
G1 X141.233 Y137.436 E6.91088
G1 X140.299 Y138.127 E6.98043
G1 X139.617 Y138.602 E7.03019
G1 X138.723 Y139.189 E7.09422
G1 X138.149 Y139.544 E7.13462
G1 X137.333 Y140.026 E7.19136
G1 X136.665 Y140.398 E7.23714
G1 X135.372 Y141.069 E7.32435
G1 X134.359 Y141.543 E7.39131
G1 X133.73 Y141.82 E7.43245
G1 X132.65 Y142.261 E7.50229
G1 X131.887 Y142.549 E7.55112
G1 X130.86 Y142.903 E7.61615
G1 X130.168 Y143.12 E7.65957
G1 X129.329 Y143.364 E7.71188
G1 X128.583 Y143.562 E7.75809
G1 X127.46 Y143.829 E7.8272
G1 X126.829 Y143.959 E7.86577
G1 X125.685 Y144.169 E7.9354
G1 X125.204 Y144.246 E7.96456
G1 X124.252 Y144.376 E8.02209
G1 X123.555 Y144.456 E8.06409
G1 X122.578 Y144.541 E8.1228
G1 X121.621 Y144.6 E8.18021
G1 X120.786 Y144.628 E8.23022
G1 X119.928 Y144.638 E8.28159
G1 X119.053 Y144.626 E8.33398
G1 X118.149 Y144.59 E8.38815
G1 X117.322 Y144.536 E8.43776
G1 X116.385 Y144.452 E8.49408
G1 X115.574 Y144.358 E8.54296
G1 X114.725 Y144.239 E8.59429
G1 X113.801 Y144.085 E8.65037
G1 X113.029 Y143.937 E8.69743
G1 X112.145 Y143.746 E8.75157
G1 X111.554 Y143.607 E8.78792
G1 X110.409 Y143.299 E8.85891
G1 X109.632 Y143.07 E8.9074
G1 X108.804 Y142.802 E8.95951
G1 X108.217 Y142.598 E8.99671
G1 X107.143 Y142.192 E9.06545
G1 X106.582 Y141.966 E9.10166
G1 X105.56 Y141.522 E9.16837
G1 X104.739 Y141.137 E9.22266
G1 X103.965 Y140.751 E9.27444
G1 X103.433 Y140.472 E9.3104
G1 X102.191 Y139.771 E9.39578
G1 X101.71 Y139.479 E9.42947
G1 X100.743 Y138.866 E9.49802
G1 X100.228 Y138.52 E9.53516
G1 X99.562 Y138.052 E9.58389
G1 X98.774 Y137.467 E9.64265
G1 X98.147 Y136.977 E9.69029
G1 X97.427 Y136.384 E9.74613
G1 X96.626 Y135.687 E9.8097
G1 X96.184 Y135.283 E9.84555
G1 X95.527 Y134.657 E9.89988
G1 X95.097 Y134.229 E9.9362
G1 X94.346 Y133.443 E10.00128
G1 X93.711 Y132.735 E10.05822
G1 X92.976 Y131.873 E10.12604
G1 X92.096 Y130.755 E10.21122
G1 X91.55 Y130.012 E10.26642
G1 X91.054 Y129.3 E10.31837
G1 X90.726 Y128.809 E10.35372
G1 X90.127 Y127.857 E10.42106
G1 X89.662 Y127.071 E10.47574
G1 X89.113 Y126.079 E10.54361
G1 X88.868 Y125.607 E10.57545
G1 X88.338 Y124.527 E10.64747
G1 X88.067 Y123.931 E10.68667
G1 X87.756 Y123.214 E10.73346
G1 X87.509 Y122.61 E10.77253
G1 X87.122 Y121.591 E10.83779
G1 X86.906 Y120.977 E10.87675
G1 X86.479 Y119.645 E10.96049
G1 X86.328 Y119.111 E10.99372
G1 X86.041 Y118.02 E11.06126
G1 X85.884 Y117.353 E11.10228
G1 X85.646 Y116.218 E11.17171
G1 X85.551 Y115.681 E11.20436
G1 X85.368 Y114.534 E11.27389
G1 X85.201 Y113.114 E11.35949
G1 X85.123 Y112.203 E11.41423
G1 X85.059 Y111.094 E11.48074
G1 X85.042 Y110.516 E11.51536
G1 X85.032 Y109.369 E11.58403
G1 X85.044 Y108.737 E11.62187
G1 X85.082 Y107.829 E11.67628
G1 X85.116 Y107.26 E11.7104
G1 X85.217 Y106.098 E11.78023
G1 X85.307 Y105.326 E11.82676
G1 X85.481 Y104.095 E11.90119
G1 X85.743 Y102.672 E11.98782
G1 X85.868 Y102.083 E12.02387
G1 X86.122 Y101.026 E12.08895
G1 X86.36 Y100.141 E12.14382
G1 X86.7 Y99.012 E12.2144
G1 X86.836 Y98.597 E12.24055
G1 X87.221 Y97.509 E12.30964
G1 X87.492 Y96.808 E12.35464
G1 X87.844 Y95.955 E12.40988
G1 X88.154 Y95.249 E12.45605
G1 X88.625 Y94.254 E12.52195
G1 X88.929 Y93.652 E12.56233
G1 X89.474 Y92.633 E12.63151
G1 X89.724 Y92.197 E12.6616
G1 X90.332 Y91.179 E12.73259
G1 X90.671 Y90.649 E12.77025
G1 X91.145 Y89.938 E12.82141
G1 X91.483 Y89.45 E12.85695
G1 X92.135 Y88.565 E12.92276
G1 X92.561 Y88.016 E12.96436
G1 X93.308 Y87.103 E13.03499
G1 X93.826 Y86.505 E13.08235
G1 X94.553 Y85.707 E13.14698
G0 F4800 X94.9 Y86.038
G1 F600 X95.169 Y85.756 E13.17031
G1 X95.903 Y85.022 E13.23246
G1 X96.629 Y84.333 E13.29238
G1 X97.448 Y83.601 E13.35814
G1 X97.876 Y83.238 E13.39174
G1 X98.559 Y82.682 E13.44447
G1 X99.184 Y82.197 E13.49183
G1 X99.865 Y81.694 E13.54251
G1 X100.44 Y81.29 E13.58459
G1 X101.385 Y80.663 E13.65248
G1 X101.833 Y80.379 E13.68424
G1 X103.004 Y79.686 E13.7657
G1 X103.585 Y79.365 E13.80544
G1 X104.333 Y78.972 E13.85602
G1 X104.838 Y78.719 E13.88984
G1 X106.079 Y78.142 E13.97177
G1 X106.667 Y77.89 E14.01007
G1 X107.406 Y77.59 E14.05782
G1 X108.026 Y77.355 E14.09752
G1 X109.131 Y76.969 E14.16759
G1 X109.877 Y76.73 E14.21449
G1 X110.737 Y76.478 E14.26814
G1 X111.478 Y76.28 E14.31406
G1 X112.281 Y76.086 E14.36352
G1 X113.289 Y75.871 E14.42522
G1 X114.649 Y75.629 E14.50792
G1 X115.992 Y75.446 E14.58907
G1 X116.614 Y75.38 E14.62652
G1 X117.424 Y75.31 E14.67519
G1 X118.36 Y75.252 E14.73133
G1 X119.196 Y75.223 E14.78141
G1 X120.037 Y75.214 E14.83177
G1 X121.163 Y75.234 E14.89919
G1 X121.782 Y75.262 E14.93628
G1 X122.937 Y75.34 E15.00559
G1 X123.432 Y75.388 E15.03536
G1 X124.604 Y75.524 E15.106
G1 X125.174 Y75.607 E15.14049
G1 X126.074 Y75.757 E15.19511
G1 X126.836 Y75.903 E15.24156
G1 X127.711 Y76.092 E15.29515
G1 X128.288 Y76.228 E15.33064
G1 X129.394 Y76.525 E15.3992
G1 X130.197 Y76.763 E15.44934
G1 X131.293 Y77.121 E15.51837
G1 X131.806 Y77.305 E15.551
G1 X133.208 Y77.851 E15.64108
G1 X134.438 Y78.39 E15.72147
G1 X135.017 Y78.665 E15.75985
G1 X135.734 Y79.023 E15.80783
G1 X136.281 Y79.308 E15.84475
G1 X137.33 Y79.898 E15.91681
G1 X137.97 Y80.279 E15.9614
G1 X138.932 Y80.889 E16.02959
G1 X139.505 Y81.275 E16.07096
G1 X140.23 Y81.787 E16.12409
G1 X140.646 Y82.093 E16.15501
G1 X141.705 Y82.918 E16.23538
G1 X142.2 Y83.33 E16.27394
G1 X143.269 Y84.267 E16.35904
G1 X144.269 Y85.22 E16.44174
G1 X144.712 Y85.671 E16.47959
G1 X145.463 Y86.467 E16.54511
G1 X145.841 Y86.891 E16.57911
G1 X146.455 Y87.607 E16.63558
G1 X146.971 Y88.24 E16.68447
G1 X147.474 Y88.889 E16.73363
G1 X148.026 Y89.641 E16.78948
G1 X148.669 Y90.571 E16.85717
G1 X148.971 Y91.033 E16.89021
G1 X149.426 Y91.76 E16.94156
G1 X149.863 Y92.498 E16.99291
G1 X150.384 Y93.434 E17.05704
G1 X150.698 Y94.038 E17.09779
G1 X151.079 Y94.81 E17.14933
G1 X151.435 Y95.575 E17.19985
G1 X151.79 Y96.397 E17.25345
G1 X152.075 Y97.103 E17.29904
G1 X152.587 Y98.489 E17.38749
G1 X152.935 Y99.563 E17.45508
G1 X153.187 Y100.424 E17.50879
G1 X153.483 Y101.552 E17.57861
G1 X153.6 Y102.058 E17.6097
G1 X153.822 Y103.116 E17.67442
G1 X153.945 Y103.787 E17.71526
G1 X154.091 Y104.695 E17.77032
G1 X154.189 Y105.422 E17.81424
G1 X154.293 Y106.354 E17.87038
G1 X154.348 Y106.968 E17.90729
G1 X154.423 Y108.179 E17.97993
G1 X154.446 Y108.902 E18.02324
G1 X154.454 Y109.76 E18.07461
G1 X154.441 Y110.618 E18.12598
G1 X154.376 Y112.027 E18.21042
G1 X154.279 Y113.156 E18.27826
G1 X154.208 Y113.8 E18.31705
G1 X154.015 Y115.177 E18.4003
G1 X153.923 Y115.71 E18.43268
G1 X153.712 Y116.804 E18.49938
G1 X153.57 Y117.442 E18.53851
G1 X153.374 Y118.247 E18.58811
G1 X153.142 Y119.106 E18.64138
G1 X152.903 Y119.908 E18.69148
G1 X152.712 Y120.51 E18.72929
G1 X152.358 Y121.525 E18.79365
G1 X152.154 Y122.071 E18.82855
G1 X151.651 Y123.305 E18.90832
G1 X151.355 Y123.968 E18.95179
G1 X150.977 Y124.771 E19.00493
G1 X150.653 Y125.421 E19.04841
G1 X150.132 Y126.399 E19.11475
G1 X149.781 Y127.016 E19.15725
G1 X149.379 Y127.689 E19.20418
G1 X149.023 Y128.257 E19.24431
G1 X148.398 Y129.199 E19.31199
G1 X147.952 Y129.834 E19.35845
G1 X147.419 Y130.553 E19.41203
G1 X147.082 Y130.991 E19.44512
G1 X146.056 Y132.237 E19.54175
G1 X145.284 Y133.097 E19.61094
G1 X144.585 Y133.83 E19.67157
G1 X143.813 Y134.595 E19.73664
G1 X143.373 Y135.008 E19.77277
G1 X142.765 Y135.555 E19.82173
G1 X142.082 Y136.141 E19.87561
G1 X141.418 Y136.682 E19.92689
G1 X140.947 Y137.05 E19.96267
G1 X140.024 Y137.733 E20.03141
G1 X139.353 Y138.201 E20.08039
G1 X138.471 Y138.781 E20.14359
G1 X137.905 Y139.131 E20.18343
G1 X137.099 Y139.607 E20.23947
G1 X136.444 Y139.972 E20.28436
G1 X135.168 Y140.634 E20.37042
G1 X134.165 Y141.104 E20.43673
G1 X133.549 Y141.376 E20.47705
G1 X132.481 Y141.812 E20.54611
G1 X131.73 Y142.095 E20.59416
G1 X130.716 Y142.445 E20.65838
G1 X130.034 Y142.659 E20.70117
G1 X129.206 Y142.9 E20.7528
G1 X128.472 Y143.095 E20.79827
G1 X127.363 Y143.359 E20.86652
G1 X126.742 Y143.487 E20.90448
G1 X125.61 Y143.695 E20.97338
G1 X125.139 Y143.77 E21.00194
G1 X124.197 Y143.899 E21.05886
G1 X123.513 Y143.978 E21.10008
G1 X122.549 Y144.062 E21.15801
G1 X121.605 Y144.12 E21.21463
G1 X120.78 Y144.148 E21.26405
G1 X119.935 Y144.158 E21.31465
G1 X119.072 Y144.146 E21.36632
G1 X118.18 Y144.111 E21.41976
G1 X117.365 Y144.058 E21.46866
G1 X116.44 Y143.975 E21.52426
G1 X115.641 Y143.883 E21.57241
G1 X114.803 Y143.765 E21.62307
G1 X113.891 Y143.614 E21.67842
G1 X113.13 Y143.468 E21.72481
G1 X112.255 Y143.279 E21.7784
G1 X111.678 Y143.143 E21.81389
G1 X110.545 Y142.839 E21.88412
G1 X109.78 Y142.613 E21.93188
G1 X108.952 Y142.345 E21.98398
G1 X108.387 Y142.149 E22.01978
G1 X107.322 Y141.747 E22.08793
G1 X106.773 Y141.526 E22.12336
G1 X105.763 Y141.087 E22.18929
G1 X104.953 Y140.708 E22.24283
G1 X104.188 Y140.326 E22.29403
G1 X103.669 Y140.054 E22.32911
G1 X102.44 Y139.361 E22.41357
G1 X101.967 Y139.074 E22.4467
G1 X101.011 Y138.468 E22.51446
G1 X100.504 Y138.127 E22.55104
G1 X99.848 Y137.666 E22.59904
G1 X99.07 Y137.089 E22.65703
G1 X98.452 Y136.606 E22.70399
G1 X97.742 Y136.022 E22.75903
G1 X96.95 Y135.333 E22.82188
G1 X96.515 Y134.935 E22.85717
G1 X95.865 Y134.316 E22.91091
G1 X95.444 Y133.898 E22.94643
G1 X94.703 Y133.122 E23.01066
G1 X94.076 Y132.424 E23.06684
G1 X93.35 Y131.572 E23.13385
G1 X92.984 Y131.117 E23.16881
G1 X92.483 Y130.471 E23.21775
G1 X91.944 Y129.738 E23.27222
G1 X91.453 Y129.033 E23.32366
G1 X91.132 Y128.553 E23.35823
G1 X90.54 Y127.612 E23.42479
G1 X90.082 Y126.839 E23.47858
G1 X89.539 Y125.858 E23.54571
G1 X89.299 Y125.395 E23.57693
G1 X88.775 Y124.328 E23.64809
G1 X88.507 Y123.74 E23.68678
G1 X88.2 Y123.032 E23.73298
G1 X87.958 Y122.44 E23.77127
G1 X87.575 Y121.432 E23.83583
G1 X87.363 Y120.83 E23.87404
G1 X86.941 Y119.514 E23.95677
G1 X86.792 Y118.989 E23.98945
G1 X86.508 Y117.91 E24.05624
G1 X86.354 Y117.254 E24.09659
G1 X86.119 Y116.134 E24.1651
G1 X86.025 Y115.605 E24.19726
G1 X85.845 Y114.478 E24.26559
G1 X85.679 Y113.073 E24.35029
G1 X85.602 Y112.175 E24.40425
G1 X85.539 Y111.08 E24.46991
G1 X85.522 Y110.512 E24.50393
G1 X85.512 Y109.378 E24.57183
G1 X85.524 Y108.757 E24.60901
G1 X85.561 Y107.857 E24.66294
G1 X85.594 Y107.302 E24.69623
G1 X85.694 Y106.153 E24.76527
G1 X85.782 Y105.393 E24.81108
G1 X85.953 Y104.182 E24.8843
G1 X86.213 Y102.771 E24.97019
G1 X86.335 Y102.195 E25.00544
G1 X86.585 Y101.151 E25.06971
G1 X86.82 Y100.279 E25.12378
G1 X87.156 Y99.162 E25.19361
G1 X87.289 Y98.757 E25.21913
G1 X87.669 Y97.682 E25.28739
G1 X87.936 Y96.991 E25.33174
G1 X88.283 Y96.148 E25.38632
G1 X88.588 Y95.454 E25.43171
G1 X89.053 Y94.47 E25.49686
G1 X89.352 Y93.878 E25.53657
G1 X89.89 Y92.872 E25.60487
G1 X90.136 Y92.443 E25.63447
G1 X90.737 Y91.437 E25.70463
G1 X91.07 Y90.915 E25.7417
G1 X91.539 Y90.211 E25.79234
G1 X91.869 Y89.735 E25.82702
G1 X92.515 Y88.859 E25.89218
G1 X92.932 Y88.32 E25.93298
G1 X93.671 Y87.417 E26.00284
G1 X94.181 Y86.828 E26.04948
G1 X94.9 Y86.038 E26.11343
G0 F4800 X95.248 Y86.369
G1 F600 X95.509 Y86.095 E26.13609
G1 X96.233 Y85.37 E26.19743
G1 X96.949 Y84.691 E26.2565
G1 X97.758 Y83.967 E26.3215
G1 X98.179 Y83.61 E26.35455
G1 X98.853 Y83.061 E26.40659
G1 X99.469 Y82.583 E26.45327
G1 X100.141 Y82.087 E26.50327
G1 X100.705 Y81.69 E26.54457
