;FLAVOR:Marlin
;TIME:3798
;Filament used: 2.71749m
;Layer height: 0.2
;MINX:68.969
;MINY:87.272
;MINZ:0.3
;MAXX:141.991
;MAXY:159.496
;MAXZ:9.78
;TARGET_MACHINE.NAME:BIQU B1
;Generated with Cura_SteamEngine 5.12.0
                                 ; BIQU B1 Start G-code
M117 Getting the bed up to temp!
M140 S60      ; Set Heat Bed temperature
M190 S60      ; Wait for Heat Bed temperature
M117 Getting the extruder up to temp!
M104 S190    ; Set Extruder temperature
G92 E0                           ; Reset Extruder
M117 Homing axes
G28                              ; Home all axes
M109 S190    ; Wait for Extruder temperature
G1 Z2.0 F3000                    ; Move Z Axis up little to prevent scratching of Heat Bed
G1 X4.1 Y20 Z0.3 F5000.0         ; Move to start position
M117 Purging
G1 X4.1 Y200.0 Z0.3 F1500.0 E15  ; Draw the first line
G1 X4.4 Y200.0 Z0.3 F5000.0      ; Move to side a little
G1 X4.4 Y20 Z0.3 F1500.0 E30     ; Draw the second line
G92 E0                           ; Reset Extruder
M117 Lets make
G1 Z2.0 F3000                    ; Move Z Axis up little to prevent scratching of Heat Bed
G1 X5 Y20 Z0.3 F5000.0           ; Move over to prevent blob squish
M82 ;absolute extrusion mode
G92 E0
G92 E0
G1 F3600 E-4
;LAYER_COUNT:42
;LAYER:0
M107
G0 F4800 X76.737 Y93.103 Z0.3
;TYPE:SKIRT
G1 F3600 E0
G1 F600 X77.122 Y92.791 E0.02967
G1 X78.441 Y91.766 E0.12967
G1 X79.03 Y91.323 E0.1738
G1 X79.87 Y90.75 E0.23467
G1 X80.388 Y90.448 E0.27057
G1 X81.617 Y89.787 E0.35411
G1 X82.546 Y89.321 E0.41634
G1 X83.028 Y89.106 E0.44793
G1 X83.895 Y88.758 E0.50387
G1 X84.48 Y88.552 E0.541
G1 X85.553 Y88.214 E0.60835
G1 X86.213 Y88.024 E0.64946
G1 X86.814 Y87.871 E0.68659
G1 X87.596 Y87.703 E0.73448
G1 X88.232 Y87.587 E0.77318
G1 X88.87 Y87.489 E0.81183
G1 X89.48 Y87.413 E0.84863
G1 X90.336 Y87.33 E0.90012
G1 X90.941 Y87.29 E0.93642
G1 X91.628 Y87.272 E0.97756
G1 X92.762 Y87.276 E1.04545
G1 X93.368 Y87.299 E1.08176
G1 X94.502 Y87.392 E1.14987
G1 X95.427 Y87.523 E1.20581
G1 X96.443 Y87.713 E1.26769
G1 X97.809 Y88 E1.35125
G1 X98.806 Y88.272 E1.41312
G1 X100.271 Y88.761 E1.50559
G1 X102.666 Y89.541 E1.65638
G1 X105.079 Y90.252 E1.80699
G1 X107.543 Y90.902 E1.95955
G1 X109.946 Y91.466 E2.10732
G1 X112.409 Y91.968 E2.25781
G1 X114.93 Y92.411 E2.41105
G1 X117.348 Y92.764 E2.55734
G1 X120.363 Y93.11 E2.73903
G1 X121.669 Y93.244 E2.81763
G1 X122.163 Y93.311 E2.84747
G1 X123.187 Y93.483 E2.90964
G1 X123.806 Y93.609 E2.94746
G1 X124.674 Y93.817 E3.00089
G1 X125.169 Y93.948 E3.03155
G1 X126.174 Y94.259 E3.09453
G1 X127.561 Y94.77 E3.18302
G1 X128.135 Y95.006 E3.22018
G1 X129 Y95.404 E3.27719
G1 X129.863 Y95.865 E3.33576
G1 X131.182 Y96.653 E3.42775
G1 X131.966 Y97.149 E3.48329
G1 X132.765 Y97.707 E3.54163
G1 X133.228 Y98.082 E3.5773
G1 X134.011 Y98.753 E3.63904
G1 X135.176 Y99.801 E3.73285
G1 X135.832 Y100.468 E3.78886
G1 X136.16 Y100.846 E3.81882
G1 X136.472 Y101.231 E3.84849
G1 X137.497 Y102.55 E3.9485
G1 X137.94 Y103.139 E3.99262
G1 X138.513 Y103.979 E4.0535
G1 X138.811 Y104.491 E4.08896
G1 X139.213 Y105.225 E4.13906
G1 X139.822 Y106.405 E4.21856
G1 X140.168 Y107.159 E4.26823
G1 X140.505 Y108.004 E4.32269
G1 X140.711 Y108.589 E4.35982
G1 X141.049 Y109.662 E4.42717
G1 X141.239 Y110.322 E4.46829
G1 X141.392 Y110.923 E4.50542
G1 X141.56 Y111.705 E4.55331
G1 X141.676 Y112.341 E4.59201
G1 X141.774 Y112.979 E4.63065
G1 X141.85 Y113.589 E4.66746
G1 X141.932 Y114.43 E4.71804
G1 X141.973 Y115.049 E4.75518
G1 X141.991 Y115.716 E4.79513
G1 X141.987 Y116.871 E4.86428
G1 X141.964 Y117.477 E4.90058
G1 X141.871 Y118.611 E4.9687
G1 X141.74 Y119.536 E5.02463
G1 X141.55 Y120.552 E5.08651
G1 X141.266 Y121.901 E5.16905
G1 X141.004 Y122.89 E5.2303
G1 X140.81 Y123.453 E5.26595
G1 X140.448 Y124.418 E5.32765
G1 X140.177 Y125.103 E5.37176
G1 X139.907 Y125.753 E5.41389
G1 X139.527 Y126.586 E5.46871
G1 X138.875 Y127.726 E5.54733
G1 X138.172 Y128.846 E5.6265
G1 X137.693 Y129.584 E5.67917
G1 X137.147 Y130.349 E5.73544
G1 X136.761 Y130.816 E5.77171
G1 X136.095 Y131.577 E5.83226
G1 X135.314 Y132.425 E5.90128
G1 X134.336 Y133.376 E5.98294
G1 X133.259 Y134.322 E6.06876
G1 X131.354 Y136.044 E6.2225
G1 X129.505 Y137.812 E6.37566
G1 X127.762 Y139.578 E6.52421
G1 X126.038 Y141.425 E6.67547
G1 X124.39 Y143.295 E6.8247
G1 X122.767 Y145.243 E6.97649
G1 X121.237 Y147.19 E7.12474
G1 X119.068 Y150.147 E7.34429
G1 X118.527 Y150.836 E7.39673
G1 X117.593 Y151.929 E7.48281
G1 X117.189 Y152.371 E7.51866
G1 X116.479 Y153.082 E7.57881
G1 X116.032 Y153.49 E7.61505
G1 X115.138 Y154.227 E7.68441
G1 X113.928 Y155.176 E7.77647
G1 X113.159 Y155.716 E7.83273
G1 X112.622 Y156.039 E7.87025
G1 X111.613 Y156.607 E7.93957
G1 X110.349 Y157.276 E8.02519
G1 X109.53 Y157.659 E8.07931
G1 X108.934 Y157.889 E8.11756
G1 X108.485 Y158.046 E8.14604
G1 X106.908 Y158.544 E8.24505
G1 X106.07 Y158.792 E8.29737
G1 X105.138 Y159.027 E8.35491
G1 X104.559 Y159.129 E8.39011
G1 X103.786 Y159.243 E8.43689
G1 X102.478 Y159.406 E8.5158
G1 X101.895 Y159.456 E8.55083
G1 X101.416 Y159.481 E8.57955
G1 X100.471 Y159.496 E8.63613
G1 X100.013 Y159.485 E8.66356
G1 X99.052 Y159.441 E8.72115
G1 X98.372 Y159.393 E8.76196
G1 X97.876 Y159.345 E8.7918
G1 X96.871 Y159.206 E8.85254
G1 X96.207 Y159.09 E8.89289
G1 X95.592 Y158.965 E8.93046
G1 X94.716 Y158.756 E8.98438
G1 X94.236 Y158.628 E9.01412
G1 X93.634 Y158.45 E9.0517
G1 X93.082 Y158.266 E9.08654
G1 X91.836 Y157.804 E9.1661
G1 X91.262 Y157.568 E9.20325
G1 X90.397 Y157.17 E9.26026
G1 X89.534 Y156.709 E9.31883
G1 X88.215 Y155.921 E9.41082
G1 X87.431 Y155.425 E9.46636
G1 X86.632 Y154.867 E9.5247
G1 X86.169 Y154.491 E9.56041
G1 X85.388 Y153.821 E9.62202
G1 X84.352 Y152.892 E9.70532
G1 X84.284 Y152.818 E9.71134
G1 X83.835 Y152.393 E9.74835
G1 X83.228 Y151.716 E9.80279
G1 X82.925 Y151.343 E9.83156
G1 X81.9 Y150.024 E9.93157
G1 X81.457 Y149.435 E9.97569
G1 X80.884 Y148.595 E10.03657
G1 X80.586 Y148.082 E10.07208
G1 X80.186 Y147.349 E10.12208
G1 X79.616 Y146.246 E10.19641
G1 X79.584 Y146.165 E10.20162
G1 X79.348 Y145.685 E10.23364
G1 X79.049 Y144.978 E10.2796
G1 X78.892 Y144.57 E10.30577
G1 X78.686 Y143.985 E10.3429
G1 X78.348 Y142.912 E10.41025
G1 X78.158 Y142.252 E10.45137
G1 X78.004 Y141.651 E10.48852
G1 X77.865 Y141.019 E10.52726
G1 X77.76 Y140.49 E10.55954
G1 X77.201 Y137.861 E10.72046
G1 X76.616 Y135.451 E10.86893
G1 X75.956 Y133.032 E11.01904
G1 X75.229 Y130.638 E11.16883
G1 X74.432 Y128.256 E11.31921
G1 X73.551 Y125.852 E11.47249
G1 X72.627 Y123.539 E11.62161
G1 X71.632 Y121.234 E11.77191
G1 X70.922 Y119.663 E11.87512
G1 X70.675 Y119.067 E11.91375
G1 X70.419 Y118.35 E11.95933
G1 X69.914 Y116.748 E12.05989
G1 X69.629 Y115.782 E12.12019
G1 X69.335 Y114.414 E12.20396
G1 X69.196 Y113.475 E12.26079
G1 X69.035 Y112.106 E12.34331
G1 X68.996 Y111.548 E12.3768
G1 X68.977 Y111.032 E12.40771
G1 X68.969 Y110.332 E12.44962
G1 X68.98 Y109.879 E12.47675
G1 X69.025 Y108.888 E12.53614
G1 X69.075 Y108.19 E12.57804
G1 X69.135 Y107.591 E12.61408
G1 X69.207 Y107.067 E12.64574
G1 X69.374 Y106.076 E12.70591
G1 X69.5 Y105.457 E12.74373
G1 X69.708 Y104.589 E12.79716
G1 X69.836 Y104.107 E12.82702
G1 X70.02 Y103.484 E12.86591
G1 X70.261 Y102.774 E12.9108
G1 X70.661 Y101.702 E12.9793
G1 X70.897 Y101.128 E13.01645
G1 X71.295 Y100.263 E13.07346
G1 X71.756 Y99.4 E13.13204
G1 X72.549 Y98.074 E13.22453
G1 X73.04 Y97.297 E13.27956
G1 X73.598 Y96.498 E13.33791
G1 X73.973 Y96.035 E13.37358
G1 X74.644 Y95.252 E13.43531
G1 X75.692 Y94.087 E13.52913
G1 X76.359 Y93.431 E13.58513
G1 X76.737 Y93.103 E13.6151
G0 F4800 X77.052 Y93.466
G1 F600 X77.416 Y93.17 E13.64318
G1 X78.73 Y92.15 E13.74277
G1 X79.319 Y91.707 E13.78689
G1 X80.112 Y91.165 E13.8444
G1 X80.616 Y90.871 E13.87933
G1 X81.832 Y90.216 E13.96202
G1 X82.742 Y89.759 E14.02298
G1 X83.207 Y89.551 E14.05348
G1 X84.054 Y89.211 E14.10812
G1 X84.625 Y89.01 E14.14436
G1 X85.686 Y88.675 E14.21098
G1 X86.332 Y88.489 E14.25122
G1 X86.915 Y88.34 E14.28725
G1 X87.682 Y88.175 E14.33422
G1 X88.318 Y88.059 E14.37292
G1 X88.929 Y87.965 E14.40993
G1 X89.527 Y87.891 E14.446
G1 X90.368 Y87.809 E14.49659
G1 X90.954 Y87.77 E14.53175
G1 X91.626 Y87.752 E14.572
G1 X92.744 Y87.756 E14.63893
G1 X93.35 Y87.779 E14.67524
G1 X94.435 Y87.867 E14.74041
G1 X95.339 Y87.995 E14.79507
G1 X96.344 Y88.183 E14.85628
G1 X97.71 Y88.47 E14.93985
G1 X98.679 Y88.735 E14.99999
G1 X100.122 Y89.217 E15.09107
G1 X102.522 Y89.999 E15.24219
G1 X104.956 Y90.716 E15.3941
G1 X107.418 Y91.366 E15.54655
G1 X109.841 Y91.934 E15.69554
G1 X112.326 Y92.441 E15.84738
G1 X114.846 Y92.884 E16.00056
G1 X117.293 Y93.241 E16.14861
G1 X120.314 Y93.588 E16.33066
G1 X121.604 Y93.72 E16.40829
G1 X122.098 Y93.787 E16.43814
G1 X123.091 Y93.953 E16.49841
G1 X123.694 Y94.076 E16.53525
G1 X124.551 Y94.281 E16.58801
G1 X125.027 Y94.407 E16.61749
G1 X126.032 Y94.718 E16.68047
G1 X127.379 Y95.214 E16.76641
G1 X127.934 Y95.442 E16.80233
G1 X128.799 Y95.84 E16.85933
G1 X129.617 Y96.277 E16.91485
G1 X130.926 Y97.059 E17.00614
G1 X131.692 Y97.543 E17.06039
G1 X132.463 Y98.08 E17.11664
G1 X132.916 Y98.447 E17.15154
G1 X133.69 Y99.11 E17.21256
G1 X134.834 Y100.138 E17.30464
G1 X135.469 Y100.783 E17.35882
G1 X135.797 Y101.161 E17.38879
G1 X136.093 Y101.525 E17.41687
G1 X137.113 Y102.839 E17.51646
G1 X137.556 Y103.428 E17.56058
G1 X138.098 Y104.221 E17.61809
G1 X138.39 Y104.722 E17.6528
G1 X138.786 Y105.445 E17.70216
G1 X139.395 Y106.625 E17.78165
G1 X139.722 Y107.337 E17.82856
G1 X140.052 Y108.163 E17.88181
G1 X140.253 Y108.734 E17.91805
G1 X140.588 Y109.795 E17.98467
G1 X140.774 Y110.441 E18.02491
G1 X140.923 Y111.024 E18.06094
G1 X141.088 Y111.791 E18.10791
G1 X141.204 Y112.427 E18.14661
G1 X141.298 Y113.038 E18.18362
G1 X141.372 Y113.636 E18.21969
G1 X141.454 Y114.477 E18.27028
G1 X141.493 Y115.062 E18.30538
G1 X141.511 Y115.714 E18.34443
G1 X141.507 Y116.853 E18.41262
G1 X141.484 Y117.459 E18.44893
G1 X141.396 Y118.544 E18.5141
G1 X141.268 Y119.448 E18.56876
G1 X141.08 Y120.453 E18.62997
G1 X140.796 Y121.802 E18.7125
G1 X140.55 Y122.734 E18.77021
G1 X140.361 Y123.284 E18.80503
G1 X140.001 Y124.242 E18.8663
G1 X139.734 Y124.919 E18.90987
G1 X139.47 Y125.555 E18.95109
G1 X139.11 Y126.348 E19.00323
G1 X138.468 Y127.471 E19.08068
G1 X137.769 Y128.585 E19.15941
G1 X137.302 Y129.305 E19.21079
G1 X136.756 Y130.07 E19.26706
G1 X136.4 Y130.5 E19.30048
G1 X135.742 Y131.252 E19.3603
G1 X134.961 Y132.1 E19.42932
G1 X134.019 Y133.015 E19.50794
G1 X132.942 Y133.961 E19.59376
G1 X131.022 Y135.697 E19.74873
G1 X129.173 Y137.465 E19.90188
G1 X127.411 Y139.25 E20.05204
G1 X125.687 Y141.097 E20.20331
G1 X124.021 Y142.988 E20.35419
G1 X122.398 Y144.936 E20.50598
G1 X120.86 Y146.893 E20.655
G1 X118.69 Y149.851 E20.87463
G1 X118.162 Y150.524 E20.92584
G1 X117.239 Y151.605 E21.01094
G1 X116.835 Y152.047 E21.04679
G1 X116.155 Y152.727 E21.10436
G1 X115.708 Y153.135 E21.1406
G1 X114.842 Y153.849 E21.20779
G1 X113.652 Y154.783 E21.29836
G1 X112.883 Y155.323 E21.35461
G1 X112.387 Y155.621 E21.38926
G1 X111.388 Y156.183 E21.45788
G1 X110.146 Y156.841 E21.54202
G1 X109.327 Y157.224 E21.59615
G1 X108.776 Y157.436 E21.6315
G1 X108.34 Y157.588 E21.65914
G1 X106.771 Y158.084 E21.75766
G1 X105.952 Y158.327 E21.8088
G1 X105.054 Y158.554 E21.86425
G1 X104.488 Y158.654 E21.89866
G1 X103.727 Y158.767 E21.94472
G1 X102.437 Y158.928 E22.02255
G1 X101.87 Y158.977 E22.05662
G1 X101.408 Y159.001 E22.08432
G1 X100.482 Y159.016 E22.13977
G1 X100.035 Y159.006 E22.16653
G1 X99.086 Y158.962 E22.22341
G1 X98.417 Y158.915 E22.26356
G1 X97.942 Y158.87 E22.29213
G1 X96.953 Y158.733 E22.3519
G1 X96.303 Y158.62 E22.3914
G1 X95.703 Y158.498 E22.42805
G1 X94.839 Y158.292 E22.48123
G1 X94.372 Y158.168 E22.51016
G1 X93.786 Y157.995 E22.54674
G1 X93.249 Y157.816 E22.58063
G1 X92.018 Y157.36 E22.65922
G1 X91.463 Y157.132 E22.69514
G1 X90.598 Y156.734 E22.75214
G1 X89.78 Y156.297 E22.80767
G1 X88.471 Y155.515 E22.89895
G1 X87.705 Y155.031 E22.9532
G1 X86.934 Y154.494 E23.00945
G1 X86.481 Y154.127 E23.04435
G1 X85.708 Y153.464 E23.10532
G1 X84.672 Y152.535 E23.18863
G1 X84.645 Y152.499 E23.19133
G1 X84.192 Y152.072 E23.22859
G1 X83.6 Y151.413 E23.28163
G1 X83.304 Y151.049 E23.30972
G1 X82.284 Y149.735 E23.4093
G1 X81.841 Y149.146 E23.45343
G1 X81.299 Y148.353 E23.51093
G1 X81.007 Y147.852 E23.54565
G1 X80.612 Y147.129 E23.59497
G1 X80.042 Y146.026 E23.6693
G1 X80.031 Y145.986 E23.67179
G1 X79.779 Y145.473 E23.706
G1 X79.497 Y144.806 E23.74936
G1 X79.345 Y144.411 E23.7747
G1 X79.144 Y143.84 E23.81094
G1 X78.809 Y142.779 E23.87755
G1 X78.623 Y142.133 E23.9178
G1 X78.473 Y141.548 E23.95395
G1 X78.336 Y140.926 E23.99208
G1 X78.231 Y140.397 E24.02437
G1 X77.67 Y137.761 E24.18572
G1 X77.079 Y135.325 E24.33579
G1 X76.419 Y132.906 E24.4859
G1 X75.688 Y130.499 E24.6365
G1 X74.883 Y128.091 E24.78851
G1 X74.002 Y125.687 E24.94179
G1 X73.073 Y123.361 E25.09174
G1 X72.073 Y121.044 E25.24282
G1 X71.365 Y119.479 E25.34566
G1 X71.127 Y118.906 E25.38281
G1 X70.877 Y118.206 E25.42731
G1 X70.374 Y116.612 E25.52737
G1 X70.098 Y115.681 E25.58551
G1 X69.81 Y114.344 E25.66739
G1 X69.673 Y113.419 E25.72337
G1 X69.514 Y112.072 E25.80457
G1 X69.476 Y111.53 E25.8371
G1 X69.457 Y111.026 E25.8673
G1 X69.449 Y110.343 E25.90819
G1 X69.459 Y109.901 E25.93466
G1 X69.504 Y108.922 E25.99333
G1 X69.553 Y108.238 E26.03439
G1 X69.611 Y107.656 E26.0694
G1 X69.683 Y107.132 E26.10107
G1 X69.844 Y106.172 E26.15934
G1 X69.967 Y105.569 E26.19619
G1 X70.172 Y104.712 E26.24894
G1 X70.296 Y104.243 E26.27799
G1 X70.474 Y103.639 E26.31568
G1 X70.711 Y102.942 E26.35976
G1 X71.105 Y101.884 E26.42735
G1 X71.333 Y101.329 E26.46327
G1 X71.731 Y100.464 E26.52027
G1 X72.168 Y99.646 E26.5758
G1 X72.955 Y98.33 E26.6676
G1 X73.434 Y97.571 E26.72133
G1 X73.971 Y96.8 E26.77758
G1 X74.338 Y96.347 E26.81248
G1 X75.001 Y95.573 E26.8735
G1 X76.029 Y94.429 E26.96558
G1 X76.674 Y93.794 E27.01977
G1 X77.052 Y93.466 E27.04973
G0 F4800 X77.356 Y93.838
G1 F600 X77.71 Y93.549 E27.07709
G1 X79.019 Y92.534 E27.17625
G1 X79.608 Y92.091 E27.22038
G1 X80.354 Y91.58 E27.27451
G1 X80.844 Y91.294 E27.30848
G1 X82.048 Y90.645 E27.39036
G1 X82.939 Y90.197 E27.45007
G1 X83.386 Y89.996 E27.47941
G1 X84.213 Y89.664 E27.53276
G1 X84.77 Y89.468 E27.56811
G1 X85.819 Y89.136 E27.63399
G1 X86.451 Y88.954 E27.67336
G1 X87.016 Y88.809 E27.70828
G1 X87.769 Y88.647 E27.7544
G1 X88.391 Y88.533 E27.79225
G1 X88.988 Y88.441 E27.82842
G1 X89.574 Y88.369 E27.86376
G1 X90.4 Y88.288 E27.91345
G1 X90.967 Y88.25 E27.94747
G1 X91.624 Y88.232 E27.98682
G1 X92.726 Y88.236 E28.0528
G1 X93.332 Y88.259 E28.0891
G1 X94.368 Y88.342 E28.15133
G1 X95.251 Y88.467 E28.20472
G1 X96.245 Y88.653 E28.26526
G1 X97.611 Y88.94 E28.34882
G1 X98.552 Y89.198 E28.40724
G1 X99.973 Y89.673 E28.49694
G1 X102.378 Y90.457 E28.64838
G1 X104.833 Y91.18 E28.8016
G1 X107.295 Y91.83 E28.95404
G1 X109.745 Y92.404 E29.10469
G1 X112.243 Y92.914 E29.25733
G1 X114.762 Y93.357 E29.41045
G1 X117.238 Y93.718 E29.56025
G1 X120.265 Y94.066 E29.74267
G1 X121.54 Y94.196 E29.81939
G1 X122.019 Y94.26 E29.84833
G1 X122.995 Y94.423 E29.90757
G1 X123.583 Y94.543 E29.94349
G1 X124.429 Y94.745 E29.99557
G1 X124.884 Y94.865 E30.02374
G1 X125.891 Y95.177 E30.08685
G1 X127.197 Y95.658 E30.17017
G1 X127.733 Y95.878 E30.20486
G1 X128.598 Y96.276 E30.26187
G1 X129.371 Y96.689 E30.31434
G1 X130.67 Y97.465 E30.40492
G1 X131.418 Y97.937 E30.45788
G1 X132.161 Y98.453 E30.51203
G1 X132.604 Y98.812 E30.54617
G1 X133.369 Y99.467 E30.60646
G1 X134.492 Y100.475 E30.69681
G1 X135.127 Y101.12 E30.751
G1 X135.425 Y101.465 E30.77829
G1 X135.714 Y101.819 E30.80565
G1 X136.729 Y103.128 E30.90481
G1 X137.172 Y103.717 E30.94894
G1 X137.683 Y104.463 E31.00307
G1 X137.969 Y104.953 E31.03704
G1 X138.359 Y105.665 E31.08564
G1 X138.968 Y106.845 E31.16514
G1 X139.276 Y107.515 E31.20929
G1 X139.599 Y108.322 E31.26133
G1 X139.795 Y108.879 E31.29668
G1 X140.127 Y109.928 E31.36255
G1 X140.309 Y110.56 E31.40192
G1 X140.454 Y111.125 E31.43684
G1 X140.616 Y111.878 E31.48296
G1 X140.73 Y112.5 E31.52081
G1 X140.822 Y113.097 E31.55698
G1 X140.894 Y113.683 E31.59232
G1 X140.975 Y114.509 E31.64201
G1 X141.013 Y115.076 E31.67603
G1 X141.031 Y115.712 E31.71413
