;FLAVOR:Marlin
;TIME:1279
;Filament used: 0.9221m
;Layer height: 0.2
;MINX:95.804
;MINY:93.079
;MINZ:0.3
;MAXX:141.991
;MAXY:139.262
;MAXZ:9.78
;TARGET_MACHINE.NAME:BIQU B1
;Generated with Cura_SteamEngine 5.12.0
                                 ; BIQU B1 Start G-code
M117 Getting the bed up to temp!
M140 S60      ; Set Heat Bed temperature
M190 S60      ; Wait for Heat Bed temperature
M117 Getting the extruder up to temp!
M104 S190    ; Set Extruder temperature
G92 E0                           ; Reset Extruder
M117 Homing axes
G28                              ; Home all axes
M109 S190    ; Wait for Extruder temperature
G1 Z2.0 F3000                    ; Move Z Axis up little to prevent scratching of Heat Bed
G1 X4.1 Y20 Z0.3 F5000.0         ; Move to start position
M117 Purging
G1 X4.1 Y200.0 Z0.3 F1500.0 E15  ; Draw the first line
G1 X4.4 Y200.0 Z0.3 F5000.0      ; Move to side a little
G1 X4.4 Y20 Z0.3 F1500.0 E30     ; Draw the second line
G92 E0                           ; Reset Extruder
M117 Lets make
G1 Z2.0 F3000                    ; Move Z Axis up little to prevent scratching of Heat Bed
G1 X5 Y20 Z0.3 F5000.0           ; Move over to prevent blob squish
M82 ;absolute extrusion mode
G92 E0
G92 E0
G1 F3600 E-4
;LAYER_COUNT:42
;LAYER:0
M107
G0 F4800 X102.208 Y100.203 Z0.3
;TYPE:SKIRT
G1 F3600 E0
G1 F600 X102.916 Y99.495 E0.05994
G1 X103.316 Y99.127 E0.09248
G1 X104.259 Y98.347 E0.16575
G1 X105.469 Y97.398 E0.25781
G1 X106.267 Y96.838 E0.31618
G1 X106.754 Y96.546 E0.35017
G1 X107.797 Y95.96 E0.4218
G1 X109.048 Y95.298 E0.50653
G1 X109.867 Y94.915 E0.56066
G1 X110.463 Y94.685 E0.59891
G1 X110.912 Y94.528 E0.62738
G1 X112.489 Y94.03 E0.72639
G1 X113.327 Y93.782 E0.77871
G1 X114.259 Y93.547 E0.83625
G1 X114.838 Y93.445 E0.87145
G1 X115.61 Y93.331 E0.91817
G1 X116.927 Y93.166 E0.99763
G1 X117.748 Y93.103 E1.04693
G1 X118.772 Y93.079 E1.10825
G1 X119.363 Y93.088 E1.14364
G1 X120.372 Y93.134 E1.20411
G1 X121.031 Y93.181 E1.24366
G1 X121.17 Y93.21 E1.25216
G1 X121.664 Y93.244 E1.28181
G1 X122.177 Y93.314 E1.3128
G1 X123.187 Y93.483 E1.37411
G1 X123.806 Y93.609 E1.41193
G1 X124.674 Y93.817 E1.46537
G1 X125.169 Y93.948 E1.49602
G1 X126.189 Y94.264 E1.55995
G1 X127.561 Y94.77 E1.6475
G1 X128.135 Y95.006 E1.68465
G1 X129 Y95.404 E1.74166
G1 X129.863 Y95.865 E1.80023
G1 X131.182 Y96.653 E1.89222
G1 X131.966 Y97.149 E1.94776
G1 X132.765 Y97.707 E2.00611
G1 X133.228 Y98.083 E2.04181
G1 X134.009 Y98.753 E2.10342
G1 X135.068 Y99.702 E2.18855
G1 X135.736 Y100.363 E2.24481
G1 X136.169 Y100.858 E2.28419
G1 X136.472 Y101.231 E2.31296
G1 X137.497 Y102.55 E2.41296
G1 X137.94 Y103.139 E2.45709
G1 X138.513 Y103.979 E2.51796
G1 X138.811 Y104.492 E2.55348
G1 X139.211 Y105.224 E2.60342
G1 X139.797 Y106.356 E2.67973
G1 X140.055 Y106.9 E2.71578
G1 X140.348 Y107.596 E2.76099
G1 X140.505 Y108.004 E2.78716
G1 X140.711 Y108.589 E2.82429
G1 X141.049 Y109.662 E2.89164
G1 X141.239 Y110.322 E2.93276
G1 X141.392 Y110.923 E2.96989
G1 X141.56 Y111.705 E3.01777
G1 X141.676 Y112.341 E3.05648
G1 X141.774 Y112.979 E3.09512
G1 X141.85 Y113.589 E3.13192
G1 X141.932 Y114.43 E3.18251
G1 X141.973 Y115.049 E3.21965
G1 X141.991 Y115.706 E3.259
G1 X141.987 Y116.871 E3.32875
G1 X141.964 Y117.477 E3.36505
G1 X141.871 Y118.611 E3.43317
G1 X141.74 Y119.536 E3.4891
G1 X141.55 Y120.552 E3.55098
G1 X141.266 Y121.901 E3.63351
G1 X141.004 Y122.89 E3.69477
G1 X140.81 Y123.453 E3.73042
G1 X140.448 Y124.418 E3.79212
G1 X140.177 Y125.103 E3.83622
G1 X139.907 Y125.753 E3.87836
G1 X139.527 Y126.586 E3.93318
G1 X138.875 Y127.726 E4.0118
G1 X138.172 Y128.846 E4.09097
G1 X137.693 Y129.584 E4.14364
G1 X137.147 Y130.349 E4.19991
G1 X136.761 Y130.816 E4.23618
G1 X136.105 Y131.567 E4.29588
G1 X135.334 Y132.407 E4.36414
G1 X134.345 Y133.367 E4.44666
G1 X134.044 Y133.631 E4.47063
G1 X133.566 Y134.026 E4.50775
G1 X132.76 Y134.652 E4.56885
G1 X132.092 Y135.143 E4.61848
G1 X131.562 Y135.508 E4.65701
G1 X130.893 Y135.929 E4.70433
G1 X130.378 Y136.231 E4.74007
G1 X129.835 Y136.53 E4.77718
G1 X129.191 Y136.859 E4.82048
G1 X127.873 Y137.471 E4.90748
G1 X127.226 Y137.728 E4.94916
G1 X126.268 Y138.077 E5.0102
G1 X125.655 Y138.274 E5.04875
G1 X124.583 Y138.576 E5.11542
G1 X123.596 Y138.788 E5.17586
G1 X122.526 Y138.967 E5.24081
G1 X121.145 Y139.164 E5.32432
G1 X120.177 Y139.25 E5.3825
G1 X119.569 Y139.262 E5.41891
G1 X118.474 Y139.251 E5.48447
G1 X117.191 Y139.208 E5.56132
G1 X116.171 Y139.12 E5.62262
G1 X115.538 Y139.019 E5.66099
G1 X114.256 Y138.774 E5.73913
G1 X112.885 Y138.473 E5.82317
G1 X112.456 Y138.368 E5.84961
G1 X111.778 Y138.165 E5.89198
G1 X111.046 Y137.891 E5.93877
G1 X110.261 Y137.566 E5.98964
G1 X109.222 Y137.12 E6.05733
G1 X108.398 Y136.75 E6.11141
G1 X108.089 Y136.6 E6.13197
G1 X107.45 Y136.254 E6.17547
G1 X106.449 Y135.632 E6.24603
G1 X105.608 Y135.076 E6.30639
G1 X105.101 Y134.717 E6.34358
G1 X104.485 Y134.242 E6.39015
G1 X104.055 Y133.89 E6.42342
G1 X103.586 Y133.482 E6.46063
G1 X103.053 Y132.992 E6.50398
G1 X102.335 Y132.296 E6.56385
G1 X102.007 Y131.952 E6.5923
G1 X101.534 Y131.424 E6.63474
G1 X100.866 Y130.627 E6.697
G1 X100.509 Y130.17 E6.73172
G1 X100.194 Y129.747 E6.76329
G1 X99.805 Y129.194 E6.80377
G1 X99.292 Y128.377 E6.86153
G1 X98.678 Y127.299 E6.9358
G1 X98.071 Y126.159 E7.01312
G1 X97.662 Y125.287 E7.07078
G1 X97.438 Y124.708 E7.10795
G1 X97.081 Y123.693 E7.17236
G1 X96.661 Y122.408 E7.2533
G1 X96.407 Y121.467 E7.31165
G1 X96.285 Y120.841 E7.34983
G1 X96.083 Y119.597 E7.42529
G1 X95.898 Y118.24 E7.50728
G1 X95.804 Y116.77 E7.59547
G1 X95.814 Y116.257 E7.62618
G1 X95.899 Y114.451 E7.73443
G1 X95.953 Y113.634 E7.78344
G1 X96.129 Y112.268 E7.8659
G1 X96.329 Y111.305 E7.92478
G1 X96.589 Y110.191 E7.99327
G1 X96.721 Y109.692 E8.02417
G1 X96.961 Y108.917 E8.07274
G1 X97.133 Y108.422 E8.10412
G1 X97.361 Y107.822 E8.14254
G1 X97.798 Y106.778 E8.2103
G1 X98.031 Y106.262 E8.2442
G1 X98.29 Y105.729 E8.27967
G1 X98.601 Y105.141 E8.3195
G1 X99.09 Y104.289 E8.37831
G1 X99.417 Y103.76 E8.41554
G1 X99.905 Y103.024 E8.46841
G1 X100.166 Y102.653 E8.49557
G1 X100.517 Y102.182 E8.53073
G1 X100.895 Y101.708 E8.56703
G1 X101.806 Y100.643 E8.65093
G1 X102.208 Y100.203 E8.68661
G0 F4800 X102.562 Y100.527
G1 F600 X103.241 Y99.848 E8.7441
G1 X103.622 Y99.497 E8.77512
G1 X104.555 Y98.725 E8.84762
G1 X105.745 Y97.791 E8.93818
G1 X106.514 Y97.25 E8.99447
G1 X107.001 Y96.958 E9.02847
G1 X108.022 Y96.384 E9.09859
G1 X109.251 Y95.733 E9.18185
G1 X110.07 Y95.35 E9.23598
G1 X110.621 Y95.138 E9.27133
G1 X111.057 Y94.986 E9.29897
G1 X112.626 Y94.49 E9.39749
G1 X113.445 Y94.247 E9.44863
G1 X114.343 Y94.02 E9.50408
G1 X114.909 Y93.92 E9.53849
G1 X115.67 Y93.807 E9.58455
G1 X116.964 Y93.645 E9.66263
G1 X117.759 Y93.583 E9.71037
G1 X118.765 Y93.559 E9.77061
G1 X119.341 Y93.568 E9.8051
G1 X120.338 Y93.613 E9.86485
G1 X120.997 Y93.66 E9.9044
G1 X121.09 Y93.686 E9.91018
G1 X121.6 Y93.72 E9.94078
G1 X122.098 Y93.787 E9.97087
G1 X123.091 Y93.953 E10.03114
G1 X123.694 Y94.076 E10.06799
G1 X124.551 Y94.281 E10.12074
G1 X125.027 Y94.407 E10.15022
G1 X126.047 Y94.723 E10.21415
G1 X127.379 Y95.214 E10.29914
G1 X127.934 Y95.442 E10.33506
G1 X128.799 Y95.84 E10.39206
G1 X129.617 Y96.277 E10.44759
G1 X130.926 Y97.059 E10.53887
G1 X131.692 Y97.543 E10.59312
G1 X132.463 Y98.08 E10.64937
G1 X132.916 Y98.447 E10.68427
G1 X133.689 Y99.11 E10.74524
G1 X134.731 Y100.044 E10.82902
G1 X135.375 Y100.68 E10.88321
G1 X135.797 Y101.161 E10.92151
G1 X136.093 Y101.525 E10.9496
G1 X137.113 Y102.839 E11.04919
G1 X137.556 Y103.428 E11.09331
G1 X138.098 Y104.221 E11.15082
G1 X138.39 Y104.722 E11.18553
G1 X138.785 Y105.445 E11.23486
G1 X139.363 Y106.562 E11.31015
G1 X139.621 Y107.106 E11.3462
G1 X139.9 Y107.768 E11.38921
G1 X140.052 Y108.163 E11.41454
G1 X140.253 Y108.734 E11.45079
G1 X140.588 Y109.795 E11.5174
G1 X140.774 Y110.441 E11.55764
G1 X140.923 Y111.024 E11.59367
G1 X141.088 Y111.791 E11.64064
G1 X141.204 Y112.427 E11.67934
G1 X141.298 Y113.038 E11.71635
G1 X141.372 Y113.636 E11.75243
G1 X141.454 Y114.477 E11.80301
G1 X141.493 Y115.062 E11.83811
G1 X141.511 Y115.704 E11.87656
G1 X141.507 Y116.853 E11.94535
G1 X141.484 Y117.459 E11.98166
G1 X141.396 Y118.544 E12.04683
G1 X141.268 Y119.448 E12.10149
G1 X141.08 Y120.453 E12.1627
G1 X140.796 Y121.802 E12.24524
G1 X140.55 Y122.734 E12.30294
G1 X140.361 Y123.284 E12.33776
G1 X140.001 Y124.242 E12.39903
G1 X139.734 Y124.919 E12.4426
G1 X139.47 Y125.555 E12.48383
G1 X139.11 Y126.348 E12.53596
G1 X138.468 Y127.471 E12.61341
G1 X137.769 Y128.585 E12.69214
G1 X137.302 Y129.305 E12.74352
G1 X136.756 Y130.07 E12.79979
G1 X136.399 Y130.5 E12.83325
G1 X135.751 Y131.242 E12.89223
G1 X134.98 Y132.082 E12.96049
G1 X134.029 Y133.006 E13.03987
G1 X133.738 Y133.261 E13.06303
G1 X133.271 Y133.647 E13.09931
G1 X132.476 Y134.265 E13.15959
G1 X131.819 Y134.748 E13.20841
G1 X131.306 Y135.102 E13.24573
G1 X130.65 Y135.515 E13.29213
G1 X130.146 Y135.811 E13.32713
G1 X129.616 Y136.103 E13.36335
G1 X128.989 Y136.424 E13.40552
G1 X127.696 Y137.025 E13.49089
G1 X127.062 Y137.277 E13.53173
G1 X126.121 Y137.62 E13.59169
G1 X125.525 Y137.812 E13.62918
G1 X124.453 Y138.114 E13.69586
G1 X123.517 Y138.315 E13.75317
G1 X122.458 Y138.492 E13.81745
G1 X121.102 Y138.686 E13.89946
G1 X120.167 Y138.77 E13.95566
G1 X119.574 Y138.782 E13.99117
G1 X118.49 Y138.771 E14.05607
G1 X117.207 Y138.728 E14.13293
G1 X116.247 Y138.646 E14.19061
G1 X115.628 Y138.547 E14.22814
G1 X114.359 Y138.305 E14.30548
G1 X112.999 Y138.007 E14.38883
G1 X112.594 Y137.908 E14.41379
G1 X111.916 Y137.705 E14.45616
G1 X111.23 Y137.448 E14.50002
G1 X110.45 Y137.125 E14.55056
G1 X109.419 Y136.682 E14.61775
G1 X108.608 Y136.318 E14.67096
G1 X108.299 Y136.168 E14.69153
G1 X107.703 Y135.846 E14.73208
G1 X106.714 Y135.232 E14.80178
G1 X105.885 Y134.684 E14.86127
G1 X105.394 Y134.337 E14.89727
G1 X104.789 Y133.871 E14.94299
G1 X104.37 Y133.528 E14.9754
G1 X103.911 Y133.129 E15.01181
G1 X103.387 Y132.647 E15.05444
G1 X102.682 Y131.964 E15.1132
G1 X102.364 Y131.631 E15.14077
G1 X101.902 Y131.116 E15.18219
G1 X101.244 Y130.331 E15.24351
G1 X100.894 Y129.884 E15.2775
G1 X100.587 Y129.471 E15.30831
G1 X100.198 Y128.918 E15.34879
G1 X99.709 Y128.14 E15.4038
G1 X99.102 Y127.073 E15.4773
G1 X98.506 Y125.955 E15.55314
G1 X98.097 Y125.083 E15.61081
G1 X97.891 Y124.549 E15.64507
G1 X97.537 Y123.544 E15.70886
G1 X97.124 Y122.282 E15.78836
G1 X96.878 Y121.375 E15.84462
G1 X96.759 Y120.764 E15.88189
G1 X96.559 Y119.532 E15.95661
G1 X96.374 Y118.175 E16.03861
G1 X96.284 Y116.779 E16.12236
G1 X96.293 Y116.28 E16.15223
G1 X96.378 Y114.483 E16.25994
G1 X96.432 Y113.666 E16.30896
G1 X96.599 Y112.365 E16.38748
G1 X96.796 Y111.414 E16.44563
G1 X97.053 Y110.313 E16.51332
G1 X97.179 Y109.834 E16.54297
G1 X97.415 Y109.074 E16.59061
G1 X97.582 Y108.592 E16.62115
G1 X97.804 Y108.007 E16.65861
G1 X98.236 Y106.975 E16.72559
G1 X98.463 Y106.472 E16.75863
G1 X98.715 Y105.953 E16.79317
G1 X99.017 Y105.38 E16.83195
G1 X99.498 Y104.541 E16.88984
G1 X99.817 Y104.025 E16.92616
G1 X100.298 Y103.3 E16.97825
G1 X100.551 Y102.94 E17.00459
G1 X100.893 Y102.481 E17.03886
G1 X101.26 Y102.02 E17.07414
G1 X102.16 Y100.967 E17.15707
G1 X102.562 Y100.527 E17.19275
G0 F4800 X102.902 Y100.866
G1 F600 X103.566 Y100.201 E17.24901
G1 X103.928 Y99.867 E17.2785
G1 X104.851 Y99.102 E17.35027
G1 X106.021 Y98.183 E17.43934
G1 X106.761 Y97.662 E17.49352
G1 X107.248 Y97.37 E17.52752
G1 X108.247 Y96.808 E17.59614
G1 X109.454 Y96.168 E17.67793
G1 X110.273 Y95.785 E17.73206
G1 X110.779 Y95.591 E17.7645
G1 X111.202 Y95.444 E17.79131
G1 X112.763 Y94.95 E17.88933
G1 X113.563 Y94.712 E17.9393
G1 X114.427 Y94.493 E17.99267
G1 X114.98 Y94.395 E18.02629
G1 X115.73 Y94.283 E18.07169
G1 X117.002 Y94.124 E18.14843
G1 X117.776 Y94.063 E18.19491
G1 X118.758 Y94.039 E18.25372
G1 X119.319 Y94.047 E18.28731
G1 X120.304 Y94.092 E18.34634
G1 X120.963 Y94.139 E18.3859
G1 X120.962 Y94.159 E18.3871
G1 X121.537 Y94.196 E18.42159
G1 X122.019 Y94.26 E18.4507
G1 X122.995 Y94.423 E18.50994
G1 X123.583 Y94.543 E18.54587
G1 X124.429 Y94.745 E18.59794
G1 X124.884 Y94.865 E18.62611
G1 X125.906 Y95.182 E18.69017
G1 X127.197 Y95.658 E18.77255
G1 X127.733 Y95.878 E18.80724
G1 X128.598 Y96.276 E18.86424
G1 X129.371 Y96.689 E18.91671
G1 X130.67 Y97.465 E19.0073
G1 X131.418 Y97.937 E19.06025
G1 X132.161 Y98.453 E19.11441
G1 X132.604 Y98.812 E19.14855
G1 X133.369 Y99.467 E19.20884
G1 X134.394 Y100.386 E19.29126
G1 X135.038 Y101.022 E19.34545
G1 X135.425 Y101.465 E19.38066
G1 X135.714 Y101.819 E19.40802
G1 X136.729 Y103.128 E19.50719
G1 X137.172 Y103.717 E19.55131
G1 X137.683 Y104.463 E19.60545
G1 X137.969 Y104.953 E19.63941
G1 X138.359 Y105.665 E19.68801
G1 X138.929 Y106.768 E19.76234
G1 X139.187 Y107.312 E19.79839
G1 X139.452 Y107.941 E19.83925
G1 X139.599 Y108.322 E19.8637
G1 X139.795 Y108.879 E19.89905
G1 X140.127 Y109.928 E19.96492
G1 X140.309 Y110.56 E20.0043
G1 X140.454 Y111.125 E20.03922
G1 X140.616 Y111.878 E20.08533
G1 X140.73 Y112.5 E20.12319
G1 X140.822 Y113.097 E20.15935
G1 X140.894 Y113.683 E20.1947
G1 X140.975 Y114.509 E20.24439
G1 X141.013 Y115.076 E20.27841
G1 X141.031 Y115.702 E20.3159
G1 X141.027 Y116.835 E20.38374
G1 X141.004 Y117.441 E20.42004
G1 X140.921 Y118.477 E20.48226
G1 X140.796 Y119.36 E20.53565
G1 X140.61 Y120.354 E20.5962
G1 X140.326 Y121.703 E20.67873
G1 X140.096 Y122.578 E20.73289
G1 X139.912 Y123.115 E20.76688
G1 X139.555 Y124.066 E20.82769
G1 X139.291 Y124.735 E20.87075
G1 X139.033 Y125.357 E20.91106
G1 X138.692 Y126.112 E20.96066
G1 X138.061 Y127.216 E21.03679
G1 X137.366 Y128.324 E21.11509
G1 X136.911 Y129.027 E21.16523
G1 X136.386 Y129.764 E21.2194
G1 X136.038 Y130.184 E21.25205
G1 X135.397 Y130.917 E21.31035
G1 X134.626 Y131.757 E21.37861
G1 X133.712 Y132.645 E21.4549
G1 X133.432 Y132.891 E21.47722
G1 X132.976 Y133.268 E21.51264
G1 X132.192 Y133.878 E21.57211
G1 X131.546 Y134.353 E21.62011
G1 X131.05 Y134.696 E21.65622
G1 X130.407 Y135.101 E21.70171
G1 X129.914 Y135.391 E21.73596
G1 X129.397 Y135.676 E21.7713
G1 X128.787 Y135.989 E21.81235
G1 X127.518 Y136.579 E21.89613
G1 X126.898 Y136.826 E21.93608
G1 X125.973 Y137.163 E21.99502
G1 X125.395 Y137.35 E22.03139
G1 X124.323 Y137.652 E22.09807
G1 X123.438 Y137.842 E22.15226
G1 X122.39 Y138.017 E22.21587
G1 X121.058 Y138.208 E22.29643
G1 X120.157 Y138.29 E22.35059
G1 X119.579 Y138.302 E22.38521
G1 X118.506 Y138.291 E22.44945
G1 X117.223 Y138.248 E22.5263
G1 X116.322 Y138.172 E22.58044
G1 X115.718 Y138.076 E22.61705
G1 X114.462 Y137.836 E22.6936
G1 X113.113 Y137.541 E22.77628
G1 X112.731 Y137.448 E22.79981
G1 X112.084 Y137.255 E22.84023
G1 X111.414 Y137.005 E22.88305
G1 X110.639 Y136.684 E22.93327
G1 X109.615 Y136.244 E22.99999
G1 X108.817 Y135.886 E23.05235
G1 X108.527 Y135.746 E23.07163
G1 X107.956 Y135.438 E23.11047
G1 X106.979 Y134.832 E23.1793
G1 X106.162 Y134.292 E23.23793
G1 X105.687 Y133.957 E23.27273
G1 X105.093 Y133.5 E23.3176
G1 X104.685 Y133.166 E23.34917
G1 X104.236 Y132.776 E23.38477
G1 X103.721 Y132.302 E23.42668
G1 X103.029 Y131.632 E23.48434
G1 X102.711 Y131.299 E23.51191
G1 X102.27 Y130.807 E23.55147
G1 X101.622 Y130.035 E23.61181
G1 X101.279 Y129.598 E23.64507
G1 X100.979 Y129.194 E23.67519
G1 X100.604 Y128.662 E23.71416
G1 X100.126 Y127.903 E23.76786
G1 X99.526 Y126.847 E23.84057
G1 X98.93 Y125.729 E23.91642
G1 X98.545 Y124.91 E23.9706
G1 X98.344 Y124.389 E24.00403
G1 X97.993 Y123.395 E24.06714
G1 X97.587 Y122.156 E24.1452
G1 X97.349 Y121.283 E24.19937
G1 X97.233 Y120.687 E24.23573
G1 X97.035 Y119.467 E24.30972
G1 X96.85 Y118.11 E24.39171
G1 X96.764 Y116.787 E24.47109
G1 X96.772 Y116.303 E24.50007
G1 X96.857 Y114.515 E24.60723
G1 X96.911 Y113.698 E24.65625
G1 X97.069 Y112.462 E24.73085
G1 X97.263 Y111.523 E24.78825
G1 X97.517 Y110.435 E24.85514
G1 X97.637 Y109.977 E24.88349
G1 X97.869 Y109.231 E24.93026
G1 X98.031 Y108.762 E24.95996
G1 X98.247 Y108.192 E24.99646
G1 X98.674 Y107.172 E25.06266
G1 X98.895 Y106.682 E25.09484
G1 X99.14 Y106.177 E25.12844
G1 X99.434 Y105.619 E25.1662
G1 X99.907 Y104.793 E25.22319
G1 X100.217 Y104.29 E25.25856
G1 X100.691 Y103.576 E25.30987
G1 X100.936 Y103.227 E25.3354
