;FLAVOR:Marlin
;TIME:6311
;Filament used: 4.16347m
;Layer height: 0.2
;MINX:81.506
;MINY:78.107
;MINZ:0.3
;MAXX:154.184
;MAXY:150.547
;MAXZ:15.98
;TARGET_MACHINE.NAME:BIQU B1
;Generated with Cura_SteamEngine 5.12.0
                                 ; BIQU B1 Start G-code
M117 Getting the bed up to temp!
M140 S60      ; Set Heat Bed temperature
M190 S60      ; Wait for Heat Bed temperature
M117 Getting the extruder up to temp!
M104 S200    ; Set Extruder temperature
G92 E0                           ; Reset Extruder
M117 Homing axes
G28                              ; Home all axes
M109 S200    ; Wait for Extruder temperature
G1 Z2.0 F3000                    ; Move Z Axis up little to prevent scratching of Heat Bed
G1 X4.1 Y20 Z0.3 F5000.0         ; Move to start position
M117 Purging
G1 X4.1 Y200.0 Z0.3 F1500.0 E15  ; Draw the first line
G1 X4.4 Y200.0 Z0.3 F5000.0      ; Move to side a little
G1 X4.4 Y20 Z0.3 F1500.0 E30     ; Draw the second line
G92 E0                           ; Reset Extruder
M117 Lets make
G1 Z2.0 F3000                    ; Move Z Axis up little to prevent scratching of Heat Bed
G1 X5 Y20 Z0.3 F5000.0           ; Move over to prevent blob squish
M82 ;absolute extrusion mode
G92 E0
G92 E0
G1 F3600 E-4
;LAYER_COUNT:78
;LAYER:0
M107
G0 F4800 X91.439 Y89.487 Z0.3
;TYPE:SKIRT
G1 F3600 E0
G1 F600 X92.008 Y88.912 E0.04843
G1 X93.013 Y87.953 E0.1316
G1 X93.496 Y87.52 E0.17043
G1 X94.383 Y86.759 E0.2404
G1 X94.845 Y86.384 E0.27602
G1 X95.798 Y85.643 E0.34829
G1 X96.364 Y85.231 E0.39021
G1 X97.221 Y84.631 E0.45284
G1 X97.693 Y84.316 E0.48681
G1 X98.709 Y83.672 E0.55883
G1 X99.239 Y83.356 E0.59577
G1 X100.283 Y82.766 E0.66756
G1 X100.737 Y82.524 E0.69836
G1 X101.892 Y81.941 E0.77582
G1 X102.701 Y81.563 E0.82928
G1 X102.833 Y81.492 E0.83825
G1 X105.061 Y80.45 E0.98551
G1 X106.313 Y79.962 E1.06595
G1 X107.561 Y79.568 E1.1443
G1 X108.44 Y79.322 E1.19895
G1 X108.962 Y79.189 E1.2312
G1 X110.26 Y78.891 E1.31093
G1 X111.915 Y78.583 E1.41171
G1 X112.611 Y78.478 E1.45385
G1 X113.694 Y78.337 E1.51924
G1 X114.358 Y78.271 E1.55919
G1 X115.249 Y78.197 E1.61271
G1 X115.998 Y78.151 E1.65764
G1 X117.361 Y78.109 E1.73928
G1 X117.758 Y78.107 E1.76305
G1 X119.256 Y78.133 E1.85274
G1 X120.832 Y78.227 E1.94726
G1 X121.493 Y78.288 E1.987
G1 X122.373 Y78.386 E2.04001
G1 X123.031 Y78.473 E2.07975
G1 X124.459 Y78.705 E2.16636
G1 X125.019 Y78.815 E2.20053
G1 X126.248 Y79.08 E2.2758
G1 X127.912 Y79.502 E2.37857
G1 X128.911 Y79.818 E2.4413
G1 X129.388 Y80.005 E2.47197
G1 X131.737 Y81.037 E2.62558
G1 X132.855 Y81.515 E2.69837
G1 X133.456 Y81.792 E2.73799
G1 X134.843 Y82.475 E2.83055
G1 X135.828 Y83.011 E2.89769
G1 X136.296 Y83.277 E2.92991
G1 X137.254 Y83.854 E2.99687
G1 X137.937 Y84.29 E3.04538
G1 X139.01 Y85.02 E3.12307
G1 X139.508 Y85.379 E3.15983
G1 X140.467 Y86.103 E3.23177
G1 X141.12 Y86.627 E3.28189
G1 X142.182 Y87.526 E3.36519
G1 X143.184 Y88.447 E3.44667
G1 X143.561 Y88.814 E3.47817
G1 X144.421 Y89.689 E3.55162
G1 X145.242 Y90.575 E3.62394
G1 X145.789 Y91.189 E3.67317
G1 X146.209 Y91.686 E3.71212
G1 X146.743 Y92.417 E3.76632
G1 X148.518 Y95.192 E3.96353
G1 X149.083 Y96.105 E4.02781
G1 X149.691 Y97.144 E4.09988
G1 X149.939 Y97.594 E4.13064
G1 X150.447 Y98.563 E4.19615
G1 X150.772 Y99.226 E4.24035
G1 X151.244 Y100.252 E4.30796
G1 X151.42 Y100.657 E4.3344
G1 X151.861 Y101.744 E4.40463
G1 X152.051 Y102.237 E4.43626
G1 X152.349 Y103.082 E4.4899
G1 X152.549 Y103.719 E4.52987
G1 X152.698 Y104.3 E4.56578
G1 X153.086 Y106.15 E4.67895
G1 X153.405 Y107.614 E4.76865
G1 X153.605 Y108.65 E4.83182
G1 X153.731 Y109.395 E4.87706
G1 X153.898 Y110.617 E4.9509
G1 X153.975 Y111.304 E4.99228
G1 X154.058 Y112.246 E5.0489
G1 X154.101 Y112.901 E5.0882
G1 X154.176 Y114.465 E5.18194
G1 X154.184 Y114.897 E5.2078
G1 X154.112 Y116.179 E5.28468
G1 X153.712 Y119.366 E5.47697
G1 X153.562 Y120.446 E5.54225
G1 X153.411 Y121.361 E5.59777
G1 X153.27 Y122.103 E5.64299
G1 X153.033 Y123.191 E5.70965
G1 X152.698 Y124.547 E5.79328
G1 X152.462 Y125.43 E5.84799
G1 X152.285 Y126.021 E5.88493
G1 X151.82 Y127.199 E5.96075
G1 X150.185 Y130.668 E6.19034
G1 X149.693 Y131.645 E6.25583
G1 X149.413 Y132.17 E6.29146
G1 X148.92 Y133.052 E6.35195
G1 X148.686 Y133.449 E6.37954
G1 X147.969 Y134.589 E6.46016
G1 X147.536 Y135.242 E6.50707
G1 X146.545 Y136.666 E6.61094
G1 X145.965 Y137.412 E6.66751
G1 X145.333 Y138.099 E6.72339
G1 X142.743 Y140.639 E6.94057
G1 X141.943 Y141.39 E7.00627
G1 X141.459 Y141.827 E7.04531
G1 X140.665 Y142.504 E7.10777
G1 X139.753 Y143.236 E7.17779
G1 X139.149 Y143.694 E7.22317
G1 X138.56 Y144.122 E7.26676
G1 X137.513 Y144.839 E7.34273
G1 X137.05 Y145.141 E7.37582
G1 X136.229 Y145.649 E7.43362
G1 X135.508 Y146.072 E7.48367
G1 X134.327 Y146.715 E7.56417
G1 X132.953 Y147.401 E7.65611
G1 X131.847 Y147.924 E7.72936
G1 X131.005 Y148.255 E7.78352
G1 X130.099 Y148.526 E7.84014
G1 X126.748 Y149.412 E8.04765
G1 X125.997 Y149.597 E8.09395
G1 X125.235 Y149.769 E8.14072
G1 X124.171 Y149.978 E8.20564
G1 X123.433 Y150.104 E8.25046
G1 X122.43 Y150.248 E8.31112
G1 X121.312 Y150.376 E8.37849
G1 X119.845 Y150.491 E8.46659
G1 X118.786 Y150.532 E8.53004
G1 X117.678 Y150.547 E8.59638
G1 X116.85 Y150.534 E8.64596
G1 X115.891 Y150.493 E8.70342
G1 X115.017 Y150.434 E8.75587
G1 X114.11 Y150.35 E8.8104
G1 X112.896 Y150.205 E8.8836
G1 X112.3 Y150.115 E8.91968
G1 X111.338 Y149.951 E8.97811
G1 X110.448 Y149.773 E9.03244
G1 X109.312 Y149.519 E9.10213
G1 X107.743 Y149.192 E9.19808
G1 X106.983 Y149.023 E9.2447
G1 X106.109 Y148.788 E9.29888
G1 X105.16 Y148.443 E9.35933
G1 X103.987 Y147.956 E9.43537
G1 X102.368 Y147.226 E9.54169
G1 X101.876 Y146.983 E9.57455
G1 X100.879 Y146.468 E9.64173
G1 X100.232 Y146.11 E9.686
G1 X99.33 Y145.583 E9.74854
G1 X98.558 Y145.101 E9.80303
G1 X97.6 Y144.47 E9.8717
G1 X97.185 Y144.18 E9.90201
G1 X96.301 Y143.535 E9.96753
G1 X95.616 Y143.004 E10.01941
G1 X94.868 Y142.394 E10.0772
G1 X94.2 Y141.818 E10.13001
G1 X93.214 Y140.917 E10.20997
G1 X92.158 Y139.875 E10.29879
G1 X89.784 Y137.359 E10.50588
G1 X89.14 Y136.625 E10.56434
G1 X88.754 Y136.114 E10.60268
G1 X88.011 Y135.06 E10.67989
G1 X87.469 Y134.234 E10.73903
G1 X87.024 Y133.522 E10.7893
G1 X86.689 Y132.951 E10.82893
G1 X86.19 Y132.048 E10.8907
G1 X85.809 Y131.324 E10.93968
G1 X85.518 Y130.744 E10.97853
G1 X85.057 Y129.756 E11.0438
G1 X83.548 Y126.232 E11.27331
G1 X83.229 Y125.391 E11.32715
G1 X83.041 Y124.765 E11.36629
G1 X82.785 Y123.8 E11.42606
G1 X82.538 Y122.756 E11.49028
G1 X82.38 Y121.997 E11.5367
G1 X82.175 Y120.881 E11.60463
G1 X82.076 Y120.258 E11.6424
G1 X81.956 Y119.358 E11.69675
G1 X81.819 Y118.087 E11.77329
G1 X81.702 Y117.124 E11.83136
G1 X81.672 Y116.689 E11.85747
G1 X81.564 Y115.664 E11.91917
G1 X81.506 Y114.692 E11.97747
G1 X81.512 Y114.099 E12.01297
G1 X81.564 Y112.901 E12.08476
G1 X81.645 Y111.76 E12.15324
G1 X81.707 Y111.156 E12.18959
G1 X81.839 Y110.052 E12.25616
G1 X81.898 Y109.643 E12.2809
G1 X82.11 Y108.38 E12.35757
G1 X82.968 Y104.197 E12.61321
G1 X83.222 Y103.243 E12.67232
G1 X83.527 Y102.391 E12.72649
G1 X83.903 Y101.468 E12.78616
G1 X84.188 Y100.796 E12.82986
G1 X84.746 Y99.534 E12.91247
G1 X84.972 Y99.064 E12.94369
G1 X85.475 Y98.066 E13.0106
G1 X85.755 Y97.541 E13.04622
G1 X86.527 Y96.193 E13.13922
G1 X87.096 Y95.283 E13.20348
G1 X88.533 Y92.93 E13.36854
G1 X89.103 Y92.104 E13.42862
G1 X89.539 Y91.564 E13.47017
G1 X90.245 Y90.771 E13.53374
G1 X91.439 Y89.487 E13.63871
G0 F4800 X91.781 Y89.824
G1 F600 X92.339 Y89.259 E13.68625
G1 X93.333 Y88.31 E13.76853
G1 X93.808 Y87.884 E13.80672
G1 X94.685 Y87.132 E13.87589
G1 X95.14 Y86.763 E13.91096
G1 X96.081 Y86.031 E13.98233
G1 X96.639 Y85.624 E14.02368
G1 X97.487 Y85.03 E14.08567
G1 X97.95 Y84.721 E14.11899
G1 X98.955 Y84.084 E14.19023
G1 X99.475 Y83.774 E14.22647
G1 X100.509 Y83.19 E14.29757
G1 X100.963 Y82.948 E14.32837
G1 X102.095 Y82.376 E14.4043
G1 X102.921 Y81.99 E14.45888
G1 X103.036 Y81.927 E14.46673
G1 X105.264 Y80.885 E14.61399
G1 X106.458 Y80.42 E14.6907
G1 X107.691 Y80.03 E14.76812
G1 X108.558 Y79.787 E14.82203
G1 X109.069 Y79.657 E14.85359
G1 X110.353 Y79.362 E14.93247
G1 X110.92 Y79.25 E14.96707
G1 X111.987 Y79.058 E15.03197
G1 X112.673 Y78.954 E15.07351
G1 X113.742 Y78.815 E15.13805
G1 X114.398 Y78.749 E15.17752
G1 X115.278 Y78.676 E15.23039
G1 X116.013 Y78.631 E15.27447
G1 X117.363 Y78.589 E15.35533
G1 X117.75 Y78.587 E15.3785
G1 X119.227 Y78.612 E15.46694
G1 X120.788 Y78.705 E15.56056
G1 X121.44 Y78.765 E15.59976
G1 X122.31 Y78.862 E15.65217
G1 X122.954 Y78.947 E15.69106
G1 X124.367 Y79.176 E15.77676
G1 X124.918 Y79.284 E15.81037
G1 X126.13 Y79.545 E15.88459
G1 X127.768 Y79.96 E15.98576
G1 X128.736 Y80.265 E16.04652
G1 X129.195 Y80.445 E16.07604
G1 X131.544 Y81.476 E16.22962
G1 X132.654 Y81.951 E16.3019
G1 X133.244 Y82.223 E16.34079
G1 X134.614 Y82.897 E16.4322
G1 X135.591 Y83.428 E16.49877
G1 X136.048 Y83.688 E16.53025
G1 X136.996 Y84.259 E16.59651
G1 X137.667 Y84.687 E16.64415
G1 X138.73 Y85.41 E16.72112
G1 X139.219 Y85.762 E16.75719
G1 X140.167 Y86.478 E16.82831
G1 X140.81 Y86.993 E16.87764
G1 X141.857 Y87.879 E16.95975
G1 X142.85 Y88.792 E17.04051
G1 X143.219 Y89.15 E17.07129
G1 X144.069 Y90.015 E17.14389
G1 X144.884 Y90.895 E17.2157
G1 X145.423 Y91.499 E17.26416
G1 X145.821 Y91.969 E17.30104
G1 X146.355 Y92.7 E17.35523
G1 X148.11 Y95.445 E17.55029
G1 X148.669 Y96.348 E17.61387
G1 X149.271 Y97.376 E17.68519
G1 X149.514 Y97.817 E17.71533
G1 X150.016 Y98.774 E17.78003
G1 X150.336 Y99.427 E17.82357
G1 X150.804 Y100.444 E17.89059
G1 X150.975 Y100.837 E17.91625
G1 X151.413 Y101.917 E17.98602
G1 X151.598 Y102.397 E18.01682
G1 X151.891 Y103.226 E18.06946
G1 X152.084 Y103.838 E18.10788
G1 X152.228 Y104.399 E18.14255
G1 X152.617 Y106.252 E18.25591
G1 X152.934 Y107.705 E18.34494
G1 X153.132 Y108.73 E18.40744
G1 X153.255 Y109.46 E18.45176
G1 X153.421 Y110.671 E18.52494
G1 X153.497 Y111.346 E18.56561
G1 X153.579 Y112.278 E18.62162
G1 X153.622 Y112.924 E18.66038
G1 X153.696 Y114.474 E18.75328
G1 X153.704 Y114.906 E18.77915
G1 X153.636 Y116.117 E18.85176
G1 X153.454 Y117.519 E18.9364
G1 X153.237 Y119.3 E19.04382
G1 X153.088 Y120.368 E19.10837
G1 X152.939 Y121.272 E19.16323
G1 X152.801 Y122.001 E19.20764
G1 X152.567 Y123.076 E19.27351
G1 X152.234 Y124.423 E19.35658
G1 X152.002 Y125.292 E19.41043
G1 X151.825 Y125.883 E19.44736
G1 X151.386 Y126.994 E19.51888
G1 X149.756 Y130.452 E19.74775
G1 X149.27 Y131.419 E19.81254
G1 X148.994 Y131.936 E19.84763
G1 X148.506 Y132.808 E19.90746
G1 X148.272 Y133.205 E19.93504
G1 X147.569 Y134.324 E20.01416
G1 X147.142 Y134.968 E20.06042
G1 X146.166 Y136.371 E20.16274
G1 X145.586 Y137.117 E20.21931
G1 X144.997 Y137.756 E20.27134
G1 X142.415 Y140.289 E20.48789
G1 X141.621 Y141.034 E20.55307
G1 X141.147 Y141.462 E20.5913
G1 X140.365 Y142.13 E20.65288
G1 X139.463 Y142.854 E20.72212
G1 X138.867 Y143.306 E20.7669
G1 X138.289 Y143.726 E20.80968
G1 X137.251 Y144.437 E20.885
G1 X136.797 Y144.733 E20.91745
G1 X135.986 Y145.235 E20.97455
G1 X135.278 Y145.65 E21.02368
G1 X134.097 Y146.293 E21.10419
G1 X132.748 Y146.967 E21.19447
G1 X131.671 Y147.477 E21.26581
G1 X130.829 Y147.808 E21.31997
G1 X129.976 Y148.062 E21.37326
G1 X126.633 Y148.946 E21.58028
G1 X125.891 Y149.129 E21.62603
G1 X125.142 Y149.298 E21.672
G1 X124.09 Y149.505 E21.73619
G1 X123.365 Y149.629 E21.78022
G1 X122.375 Y149.771 E21.8401
G1 X121.274 Y149.897 E21.90644
G1 X119.826 Y150.011 E21.9934
G1 X118.773 Y150.053 E22.05649
G1 X117.686 Y150.067 E22.12158
G1 X116.87 Y150.054 E22.17043
G1 X115.923 Y150.014 E22.22718
G1 X115.061 Y149.956 E22.2789
G1 X114.167 Y149.873 E22.33266
G1 X112.967 Y149.73 E22.40501
G1 X112.381 Y149.642 E22.44048
G1 X111.432 Y149.48 E22.49812
G1 X110.553 Y149.305 E22.55178
G1 X109.41 Y149.049 E22.6219
G1 X107.847 Y148.723 E22.71749
G1 X107.108 Y148.559 E22.76281
G1 X106.234 Y148.324 E22.81699
G1 X105.344 Y148 E22.87369
G1 X104.184 Y147.518 E22.9489
G1 X102.58 Y146.795 E23.05423
G1 X102.096 Y146.557 E23.08652
G1 X101.111 Y146.048 E23.1529
G1 X100.474 Y145.696 E23.19647
G1 X99.584 Y145.176 E23.25818
G1 X98.822 Y144.7 E23.31197
G1 X97.875 Y144.076 E23.37987
G1 X97.468 Y143.792 E23.40958
G1 X96.595 Y143.156 E23.47424
G1 X95.919 Y142.632 E23.52545
G1 X95.181 Y142.03 E23.58247
G1 X94.524 Y141.464 E23.63438
G1 X93.551 Y140.575 E23.71329
G1 X92.507 Y139.545 E23.80109
G1 X90.144 Y137.042 E24.00717
G1 X89.523 Y136.336 E24.06346
G1 X89.146 Y135.837 E24.1009
G1 X88.412 Y134.796 E24.17716
G1 X87.876 Y133.98 E24.23561
G1 X87.438 Y133.279 E24.28509
G1 X87.109 Y132.719 E24.32398
G1 X86.615 Y131.825 E24.38513
G1 X86.238 Y131.108 E24.43362
G1 X85.953 Y130.541 E24.47162
G1 X85.498 Y129.567 E24.53598
G1 X83.997 Y126.061 E24.7643
G1 X83.689 Y125.252 E24.81613
G1 X83.505 Y124.642 E24.85427
G1 X83.252 Y123.69 E24.91325
G1 X83.008 Y122.658 E24.97673
G1 X82.852 Y121.91 E25.02248
G1 X82.649 Y120.806 E25.08968
G1 X82.552 Y120.194 E25.12678
G1 X82.433 Y119.307 E25.18036
G1 X82.296 Y118.036 E25.25689
G1 X82.181 Y117.091 E25.31388
G1 X82.151 Y116.656 E25.33999
G1 X82.043 Y115.635 E25.40145
G1 X81.986 Y114.697 E25.45771
G1 X81.992 Y114.12 E25.49226
G1 X82.043 Y112.935 E25.56327
G1 X82.123 Y111.809 E25.63085
G1 X82.184 Y111.213 E25.66672
G1 X82.314 Y110.12 E25.73262
G1 X82.371 Y109.722 E25.75669
G1 X82.58 Y108.476 E25.83232
G1 X83.432 Y104.32 E26.08631
G1 X83.674 Y103.405 E26.14297
G1 X83.972 Y102.572 E26.19594
G1 X84.345 Y101.655 E26.25521
G1 X84.627 Y100.99 E26.29845
G1 X85.179 Y99.742 E26.38015
G1 X85.401 Y99.28 E26.41083
G1 X85.899 Y98.292 E26.47707
G1 X86.172 Y97.78 E26.51181
G1 X86.944 Y96.432 E26.60481
G1 X87.506 Y95.533 E26.66828
G1 X88.943 Y93.18 E26.83335
G1 X89.477 Y92.405 E26.88969
G1 X89.898 Y91.883 E26.92984
G1 X90.596 Y91.098 E26.99273
G1 X91.781 Y89.824 E27.09689
G0 F4800 X92.123 Y90.161
G1 F600 X92.67 Y89.606 E27.14355
G1 X93.654 Y88.667 E27.22498
G1 X94.121 Y88.248 E27.26254
G1 X94.987 Y87.505 E27.33085
G1 X95.435 Y87.142 E27.36537
G1 X96.364 Y86.419 E27.43585
G1 X96.914 Y86.017 E27.47663
G1 X97.753 Y85.429 E27.53797
G1 X98.207 Y85.126 E27.57065
G1 X99.201 Y84.496 E27.6411
G1 X99.711 Y84.192 E27.67665
G1 X100.735 Y83.613 E27.74707
G1 X101.179 Y83.376 E27.77721
G1 X102.298 Y82.811 E27.85225
G1 X103.136 Y82.419 E27.90764
G1 X103.239 Y82.362 E27.91469
G1 X105.467 Y81.32 E28.06194
G1 X106.603 Y80.878 E28.13492
G1 X107.821 Y80.492 E28.21141
G1 X108.676 Y80.252 E28.26458
G1 X109.177 Y80.125 E28.29552
G1 X110.446 Y79.833 E28.37348
G1 X111.005 Y79.722 E28.4076
G1 X112.059 Y79.533 E28.47171
G1 X112.735 Y79.43 E28.51264
G1 X113.791 Y79.293 E28.5764
G1 X114.438 Y79.227 E28.61533
G1 X115.307 Y79.155 E28.66753
G1 X116.028 Y79.111 E28.71078
G1 X117.366 Y79.069 E28.79092
G1 X117.742 Y79.067 E28.81343
G1 X119.198 Y79.091 E28.90061
G1 X120.744 Y79.183 E28.99333
G1 X121.387 Y79.242 E29.03199
G1 X122.247 Y79.338 E29.0838
G1 X122.877 Y79.421 E29.12184
G1 X124.275 Y79.647 E29.20662
G1 X124.817 Y79.753 E29.23969
G1 X126.012 Y80.01 E29.31286
G1 X127.624 Y80.418 E29.41242
G1 X128.592 Y80.723 E29.47318
G1 X129.002 Y80.885 E29.49957
G1 X131.351 Y81.915 E29.65313
G1 X132.453 Y82.387 E29.7249
G1 X133.032 Y82.654 E29.76307
G1 X134.385 Y83.319 E29.85333
G1 X135.354 Y83.846 E29.91936
G1 X135.8 Y84.099 E29.95006
G1 X136.738 Y84.664 E30.01562
G1 X137.397 Y85.084 E30.0624
G1 X138.45 Y85.8 E30.13864
G1 X138.93 Y86.145 E30.17403
G1 X139.867 Y86.852 E30.2443
G1 X140.5 Y87.36 E30.29289
G1 X141.532 Y88.232 E30.37378
G1 X142.516 Y89.137 E30.45381
G1 X142.877 Y89.487 E30.48392
G1 X143.717 Y90.341 E30.55563
G1 X144.526 Y91.214 E30.62689
G1 X145.057 Y91.81 E30.67468
G1 X145.433 Y92.252 E30.70942
G1 X145.967 Y92.983 E30.76362
G1 X146.496 Y93.823 E30.82305
G1 X147.702 Y95.698 E30.95651
G1 X148.255 Y96.591 E31.0194
G1 X148.851 Y97.608 E31.08997
G1 X149.089 Y98.04 E31.1195
G1 X149.585 Y98.985 E31.18339
G1 X149.9 Y99.628 E31.22626
G1 X150.364 Y100.636 E31.29269
G1 X150.53 Y101.017 E31.31757
G1 X150.965 Y102.089 E31.38683
G1 X151.145 Y102.557 E31.41685
G1 X151.433 Y103.371 E31.46855
G1 X151.619 Y103.958 E31.50541
G1 X151.758 Y104.498 E31.53879
G1 X152.148 Y106.355 E31.65239
G1 X152.463 Y107.796 E31.7407
G1 X152.659 Y108.809 E31.80247
G1 X152.779 Y109.525 E31.84594
