;FLAVOR:Marlin
;TIME:5183
;Filament used: 4.12016m
;Layer height: 0.2
;MINX:83.203
;MINY:79.375
;MINZ:0.3
;MAXX:153.104
;MAXY:149.277
;MAXZ:14.78
;TARGET_MACHINE.NAME:BIQU B1
;Generated with Cura_SteamEngine 5.12.0
                                 ; BIQU B1 Start G-code
M117 Getting the bed up to temp!
M140 S60      ; Set Heat Bed temperature
M190 S60      ; Wait for Heat Bed temperature
M117 Getting the extruder up to temp!
M104 S190    ; Set Extruder temperature
G92 E0                           ; Reset Extruder
M117 Homing axes
G28                              ; Home all axes
M109 S190    ; Wait for Extruder temperature
G1 Z2.0 F3000                    ; Move Z Axis up little to prevent scratching of Heat Bed
G1 X4.1 Y20 Z0.3 F5000.0         ; Move to start position
M117 Purging
G1 X4.1 Y200.0 Z0.3 F1500.0 E15  ; Draw the first line
G1 X4.4 Y200.0 Z0.3 F5000.0      ; Move to side a little
G1 X4.4 Y20 Z0.3 F1500.0 E30     ; Draw the second line
G92 E0                           ; Reset Extruder
M117 Lets make
G1 Z2.0 F3000                    ; Move Z Axis up little to prevent scratching of Heat Bed
G1 X5 Y20 Z0.3 F5000.0           ; Move over to prevent blob squish
M82 ;absolute extrusion mode
G92 E0
G92 E0
G1 F3600 E-4
;LAYER_COUNT:63
;LAYER:0
M107
G0 F4800 X93.177 Y89.875 Z0.3
;TYPE:SKIRT
G1 F3600 E0
G1 F600 X93.788 Y89.267 E0.0516
G1 X94.256 Y88.82 E0.09035
G1 X95.049 Y88.1 E0.15447
G1 X95.774 Y87.476 E0.21174
G1 X96.451 Y86.927 E0.26392
G1 X97.079 Y86.442 E0.31143
G1 X97.99 Y85.775 E0.37902
G1 X98.568 Y85.376 E0.42107
G1 X99.292 Y84.899 E0.47298
G1 X99.974 Y84.473 E0.52112
G1 X100.692 Y84.048 E0.57107
G1 X101.52 Y83.587 E0.62781
G1 X102.466 Y83.092 E0.69173
G1 X103.086 Y82.788 E0.73307
G1 X103.872 Y82.425 E0.7849
G1 X104.642 Y82.093 E0.8351
G1 X105.504 Y81.745 E0.89075
G1 X106.102 Y81.516 E0.92909
G1 X106.978 Y81.209 E0.98466
G1 X107.704 Y80.974 E1.03035
G1 X108.847 Y80.637 E1.10169
G1 X109.328 Y80.505 E1.13155
G1 X110.471 Y80.229 E1.20195
G1 X111.031 Y80.106 E1.23627
G1 X112.38 Y79.854 E1.31843
G1 X113.01 Y79.755 E1.35661
G1 X114.178 Y79.6 E1.42715
G1 X114.753 Y79.539 E1.46177
G1 X115.552 Y79.47 E1.50978
G1 X116.218 Y79.426 E1.54974
G1 X117.71 Y79.375 E1.63911
G1 X119.341 Y79.392 E1.73677
G1 X119.738 Y79.409 E1.76055
G1 X121.072 Y79.495 E1.84058
G1 X121.75 Y79.559 E1.88136
G1 X122.576 Y79.653 E1.93113
G1 X123.172 Y79.735 E1.96714
G1 X124.308 Y79.921 E2.03606
G1 X124.877 Y80.027 E2.07071
G1 X125.971 Y80.26 E2.13768
G1 X126.867 Y80.479 E2.1929
G1 X127.723 Y80.71 E2.24598
G1 X128.504 Y80.941 E2.29474
G1 X129.332 Y81.209 E2.34684
G1 X129.918 Y81.413 E2.38399
G1 X130.987 Y81.816 E2.45238
G1 X131.555 Y82.044 E2.48903
G1 X132.576 Y82.489 E2.5557
G1 X133.401 Y82.875 E2.61023
G1 X134.656 Y83.513 E2.69452
G1 X135.744 Y84.125 E2.76926
G1 X136.401 Y84.517 E2.81506
G1 X137.178 Y85.006 E2.87002
G1 X137.703 Y85.352 E2.90766
G1 X138.81 Y86.13 E2.98867
G1 X139.331 Y86.521 E3.02767
G1 X139.974 Y87.022 E3.07647
G1 X140.693 Y87.614 E3.13223
G1 X141.595 Y88.399 E3.20381
G1 X142.589 Y89.335 E3.28555
G1 X143.055 Y89.799 E3.32492
G1 X143.966 Y90.76 E3.4042
G1 X144.439 Y91.291 E3.44677
G1 X145.188 Y92.175 E3.51614
G1 X145.507 Y92.572 E3.54663
G1 X146.229 Y93.508 E3.6174
G1 X147.062 Y94.685 E3.70373
G1 X147.557 Y95.431 E3.75733
G1 X148.115 Y96.332 E3.82077
G1 X148.485 Y96.963 E3.86457
G1 X149.04 Y97.965 E3.93314
G1 X149.655 Y99.188 E4.0151
G1 X150.061 Y100.061 E4.07274
G1 X150.371 Y100.776 E4.11939
G1 X150.622 Y101.389 E4.15905
G1 X151.106 Y102.673 E4.2412
G1 X151.305 Y103.254 E4.27797
G1 X151.559 Y104.047 E4.32782
G1 X151.76 Y104.723 E4.37004
G1 X152.053 Y105.824 E4.43825
G1 X152.209 Y106.465 E4.47775
G1 X152.541 Y108.07 E4.57587
G1 X152.722 Y109.165 E4.64231
G1 X152.836 Y110.004 E4.69301
G1 X152.934 Y110.878 E4.74566
G1 X152.993 Y111.531 E4.78491
G1 X153.066 Y112.679 E4.85378
G1 X153.088 Y113.229 E4.88673
G1 X153.104 Y114.406 E4.9572
G1 X153.1 Y114.982 E4.99169
G1 X153.045 Y116.395 E5.07635
G1 X152.999 Y117.036 E5.11482
G1 X152.925 Y117.862 E5.16447
G1 X152.821 Y118.759 E5.21853
G1 X152.609 Y120.199 E5.30567
G1 X152.393 Y121.339 E5.37514
G1 X152.268 Y121.928 E5.41118
G1 X152.016 Y122.975 E5.47566
G1 X151.851 Y123.604 E5.51459
G1 X151.533 Y124.686 E5.5821
G1 X151.254 Y125.548 E5.63635
G1 X150.968 Y126.358 E5.68777
G1 X150.682 Y127.11 E5.73594
G1 X150.331 Y127.969 E5.79149
G1 X150.096 Y128.516 E5.82714
G1 X149.649 Y129.479 E5.8907
G1 X149.21 Y130.356 E5.94941
G1 X148.514 Y131.64 E6.03685
G1 X147.8 Y132.836 E6.12024
G1 X147.464 Y133.361 E6.15756
G1 X146.833 Y134.3 E6.22529
G1 X146.564 Y134.682 E6.25326
G1 X145.885 Y135.597 E6.32148
G1 X145.389 Y136.228 E6.36953
G1 X144.654 Y137.114 E6.43845
G1 X144.313 Y137.505 E6.46951
G1 X143.615 Y138.269 E6.53146
G1 X143.103 Y138.8 E6.57562
G1 X142.5 Y139.4 E6.62655
G1 X142.054 Y139.826 E6.66347
G1 X141.165 Y140.63 E6.73523
G1 X140.558 Y141.151 E6.78312
G1 X139.76 Y141.798 E6.84463
G1 X139.161 Y142.257 E6.88981
G1 X138.488 Y142.751 E6.93979
G1 X137.985 Y143.106 E6.97665
G1 X137.055 Y143.724 E7.04349
G1 X136.329 Y144.178 E7.09476
G1 X135.03 Y144.933 E7.18471
G1 X134.049 Y145.452 E7.25115
G1 X133.233 Y145.857 E7.30569
G1 X132.251 Y146.309 E7.37041
G1 X131.669 Y146.558 E7.40831
G1 X130.855 Y146.887 E7.46087
G1 X130.288 Y147.104 E7.49722
G1 X129.187 Y147.489 E7.56705
G1 X128.411 Y147.738 E7.61584
G1 X127.555 Y147.989 E7.66924
G1 X126.726 Y148.21 E7.72061
G1 X125.902 Y148.408 E7.77134
G1 X125.265 Y148.547 E7.81038
G1 X123.854 Y148.809 E7.89629
G1 X123.285 Y148.899 E7.93078
G1 X122.448 Y149.012 E7.98135
G1 X121.571 Y149.109 E8.03417
G1 X120.728 Y149.182 E8.08483
G1 X119.797 Y149.239 E8.14067
G1 X118.949 Y149.267 E8.19147
G1 X118.097 Y149.277 E8.24248
G1 X117.21 Y149.265 E8.29559
G1 X116.333 Y149.229 E8.34813
G1 X115.469 Y149.173 E8.39997
G1 X114.618 Y149.098 E8.45111
G1 X113.713 Y148.994 E8.50565
G1 X113.136 Y148.916 E8.54051
G1 X111.987 Y148.728 E8.61021
G1 X111.199 Y148.577 E8.65825
G1 X110.315 Y148.386 E8.71239
G1 X109.724 Y148.247 E8.74874
G1 X108.606 Y147.946 E8.81806
G1 X107.79 Y147.704 E8.86901
G1 X106.681 Y147.342 E8.93885
G1 X106.158 Y147.154 E8.97213
G1 X105.075 Y146.738 E9.04158
G1 X104.517 Y146.507 E9.07774
G1 X103.734 Y146.165 E9.12889
G1 X102.919 Y145.783 E9.18278
G1 X102.151 Y145.399 E9.23418
G1 X101.384 Y144.991 E9.28619
G1 X100.595 Y144.547 E9.3404
G1 X100.118 Y144.265 E9.37357
G1 X98.916 Y143.507 E9.45865
G1 X98.38 Y143.147 E9.4973
G1 X97.657 Y142.639 E9.5502
G1 X97.225 Y142.321 E9.58232
G1 X96.329 Y141.625 E9.65024
G1 X95.631 Y141.053 E9.70427
G1 X94.931 Y140.448 E9.75966
G1 X94.536 Y140.091 E9.79153
G1 X93.497 Y139.101 E9.87745
G1 X93.057 Y138.652 E9.91509
G1 X92.313 Y137.861 E9.9801
G1 X91.91 Y137.407 E10.01645
G1 X91.115 Y136.475 E10.08979
G1 X90.27 Y135.401 E10.1716
G1 X89.72 Y134.652 E10.22723
G1 X89.224 Y133.94 E10.27918
G1 X88.896 Y133.449 E10.31453
G1 X88.294 Y132.493 E10.38217
G1 X87.989 Y131.983 E10.41774
G1 X87.446 Y131.019 E10.48398
G1 X87.129 Y130.422 E10.52445
G1 X86.522 Y129.195 E10.60641
G1 X86.259 Y128.624 E10.64404
G1 X85.889 Y127.765 E10.70004
G1 X85.614 Y127.082 E10.74412
G1 X85.299 Y126.246 E10.7976
G1 X84.99 Y125.357 E10.85395
G1 X84.714 Y124.494 E10.90819
G1 X84.498 Y123.752 E10.95446
G1 X84.204 Y122.635 E11.02361
G1 X84.061 Y122.025 E11.06112
G1 X83.894 Y121.248 E11.1087
G1 X83.717 Y120.296 E11.16667
G1 X83.527 Y119.088 E11.23988
G1 X83.35 Y117.535 E11.33346
G1 X83.292 Y116.828 E11.37593
G1 X83.242 Y116.013 E11.42481
G1 X83.213 Y115.148 E11.47663
G1 X83.203 Y114.206 E11.53303
G1 X83.207 Y113.632 E11.56739
G1 X83.257 Y112.354 E11.64396
G1 X83.31 Y111.595 E11.68951
G1 X83.417 Y110.444 E11.75872
G1 X83.597 Y109.088 E11.84061
G1 X83.704 Y108.422 E11.88099
G1 X83.915 Y107.308 E11.94887
G1 X84.095 Y106.479 E11.99966
G1 X84.294 Y105.659 E12.05018
G1 X84.53 Y104.784 E12.10443
G1 X84.791 Y103.909 E12.1591
G1 X84.96 Y103.379 E12.1924
G1 X85.34 Y102.289 E12.26151
G1 X85.541 Y101.752 E12.29584
G1 X86.064 Y100.472 E12.37862
G1 X86.323 Y99.887 E12.41692
G1 X86.787 Y98.902 E12.48211
G1 X87.07 Y98.342 E12.51967
G1 X87.49 Y97.552 E12.57324
G1 X87.809 Y96.981 E12.61239
G1 X88.487 Y95.845 E12.6916
G1 X88.713 Y95.489 E12.71684
G1 X89.345 Y94.536 E12.7853
G1 X89.796 Y93.895 E12.83222
G1 X90.33 Y93.172 E12.88604
G1 X90.88 Y92.466 E12.93961
G1 X91.405 Y91.828 E12.98908
G1 X91.976 Y91.167 E13.04137
G1 X92.609 Y90.469 E13.09779
G1 X93.177 Y89.875 E13.14699
G0 F4800 X93.516 Y90.215
G1 F600 X94.119 Y89.614 E13.19796
G1 X94.579 Y89.175 E13.23603
G1 X95.362 Y88.464 E13.29935
G1 X96.077 Y87.849 E13.35581
G1 X96.744 Y87.307 E13.40726
G1 X97.363 Y86.829 E13.45408
G1 X98.263 Y86.17 E13.52087
G1 X98.832 Y85.777 E13.56227
G1 X99.547 Y85.306 E13.61352
G1 X100.218 Y84.886 E13.66092
G1 X100.926 Y84.467 E13.71017
G1 X101.742 Y84.012 E13.7661
G1 X102.678 Y83.523 E13.82933
G1 X103.287 Y83.224 E13.86994
G1 X104.062 Y82.866 E13.92105
G1 X104.822 Y82.538 E13.97061
G1 X105.676 Y82.193 E14.02575
G1 X106.261 Y81.969 E14.06325
G1 X107.126 Y81.666 E14.11813
G1 X107.84 Y81.434 E14.16307
G1 X108.974 Y81.1 E14.23385
G1 X109.441 Y80.972 E14.26283
G1 X110.574 Y80.698 E14.33262
G1 X111.119 Y80.578 E14.36603
G1 X112.454 Y80.328 E14.44734
G1 X113.073 Y80.231 E14.48485
G1 X114.229 Y80.077 E14.55467
G1 X114.794 Y80.017 E14.58869
G1 X115.584 Y79.949 E14.63616
G1 X116.235 Y79.906 E14.67522
G1 X117.705 Y79.855 E14.76328
G1 X119.321 Y79.872 E14.86003
G1 X119.707 Y79.888 E14.88316
G1 X121.027 Y79.973 E14.96235
G1 X121.696 Y80.036 E15.00258
G1 X122.511 Y80.129 E15.05169
G1 X123.095 Y80.209 E15.08698
G1 X124.221 Y80.393 E15.15528
G1 X124.777 Y80.496 E15.18914
G1 X125.857 Y80.726 E15.25524
G1 X126.742 Y80.942 E15.30978
G1 X127.587 Y81.17 E15.36218
G1 X128.356 Y81.398 E15.4102
G1 X129.184 Y81.666 E15.4623
G1 X129.749 Y81.862 E15.49811
G1 X130.808 Y82.261 E15.56586
G1 X131.363 Y82.484 E15.60167
G1 X132.373 Y82.924 E15.66762
G1 X133.183 Y83.303 E15.72116
G1 X134.438 Y83.941 E15.80545
G1 X135.498 Y84.537 E15.87825
G1 X136.145 Y84.923 E15.92336
G1 X136.914 Y85.407 E15.97775
G1 X137.427 Y85.745 E16.01453
G1 X138.522 Y86.514 E16.09464
G1 X139.036 Y86.9 E16.13312
G1 X139.669 Y87.393 E16.18116
G1 X140.378 Y87.976 E16.23611
G1 X141.266 Y88.749 E16.3066
G1 X142.251 Y89.676 E16.38757
G1 X142.707 Y90.129 E16.42606
G1 X143.608 Y91.08 E16.50448
G1 X144.073 Y91.601 E16.54629
G1 X144.814 Y92.475 E16.61489
G1 X145.127 Y92.865 E16.64483
G1 X145.837 Y93.785 E16.7144
G1 X146.662 Y94.95 E16.79987
G1 X147.149 Y95.684 E16.8526
G1 X147.701 Y96.574 E16.9153
G1 X148.065 Y97.196 E16.95845
G1 X148.611 Y98.181 E17.02587
G1 X149.22 Y99.39 E17.10692
G1 X149.621 Y100.252 E17.16383
G1 X149.927 Y100.958 E17.2099
G1 X150.173 Y101.558 E17.24872
G1 X150.652 Y102.828 E17.32998
G1 X150.848 Y103.401 E17.36624
G1 X151.099 Y104.184 E17.41547
G1 X151.296 Y104.847 E17.45688
G1 X151.587 Y105.937 E17.52442
G1 X151.739 Y106.562 E17.56293
G1 X152.067 Y108.148 E17.65989
G1 X152.246 Y109.23 E17.72554
G1 X152.359 Y110.058 E17.77557
G1 X152.456 Y110.921 E17.82757
G1 X152.514 Y111.561 E17.86604
G1 X152.586 Y112.699 E17.9343
G1 X152.608 Y113.236 E17.96648
G1 X152.624 Y114.403 E18.03635
G1 X152.62 Y114.963 E18.06988
G1 X152.566 Y116.361 E18.15364
G1 X152.521 Y116.993 E18.19157
G1 X152.448 Y117.807 E18.2405
G1 X152.346 Y118.689 E18.29366
G1 X152.137 Y120.11 E18.37964
G1 X151.923 Y121.24 E18.4485
G1 X151.801 Y121.816 E18.48375
G1 X151.552 Y122.853 E18.54759
G1 X151.39 Y123.469 E18.58573
G1 X151.076 Y124.538 E18.65243
G1 X150.801 Y125.388 E18.70591
G1 X150.519 Y126.187 E18.75664
G1 X150.233 Y126.939 E18.80481
G1 X149.89 Y127.779 E18.85913
G1 X149.66 Y128.314 E18.89399
G1 X149.22 Y129.264 E18.95667
G1 X148.788 Y130.127 E19.01445
G1 X148.102 Y131.394 E19.10071
G1 X147.396 Y132.577 E19.18319
G1 X147.065 Y133.094 E19.21994
G1 X146.441 Y134.024 E19.28699
G1 X146.179 Y134.396 E19.31423
G1 X145.508 Y135.3 E19.38163
G1 X145.019 Y135.922 E19.42899
G1 X144.293 Y136.798 E19.49711
G1 X143.958 Y137.181 E19.52757
G1 X143.269 Y137.936 E19.58877
G1 X142.764 Y138.46 E19.63233
G1 X142.168 Y139.053 E19.68267
G1 X141.732 Y139.47 E19.71879
G1 X140.852 Y140.266 E19.78983
G1 X140.256 Y140.778 E19.83687
G1 X139.468 Y141.417 E19.8976
G1 X138.877 Y141.87 E19.94219
G1 X138.211 Y142.359 E19.99165
G1 X137.719 Y142.706 E20.02769
G1 X136.8 Y143.317 E20.09376
G1 X136.088 Y143.763 E20.14406
G1 X134.806 Y144.509 E20.23286
G1 X133.836 Y145.022 E20.29856
G1 X133.032 Y145.421 E20.35229
G1 X132.062 Y145.868 E20.41623
G1 X131.489 Y146.113 E20.45354
G1 X130.683 Y146.439 E20.50559
G1 X130.129 Y146.651 E20.54111
G1 X129.041 Y147.032 E20.61012
G1 X128.276 Y147.277 E20.65821
G1 X127.431 Y147.525 E20.71093
G1 X126.614 Y147.743 E20.76156
G1 X125.799 Y147.939 E20.81174
G1 X125.177 Y148.075 E20.84986
G1 X123.779 Y148.335 E20.93499
G1 X123.22 Y148.423 E20.96887
G1 X122.395 Y148.535 E21.01871
G1 X121.53 Y148.631 E21.07082
G1 X120.699 Y148.703 E21.12075
G1 X119.78 Y148.759 E21.17587
G1 X118.938 Y148.788 E21.22631
G1 X118.104 Y148.797 E21.27625
G1 X117.229 Y148.785 E21.32864
G1 X116.364 Y148.75 E21.38046
G1 X115.511 Y148.695 E21.43164
G1 X114.673 Y148.621 E21.482
G1 X113.777 Y148.518 E21.536
G1 X113.214 Y148.442 E21.57001
G1 X112.065 Y148.254 E21.63971
G1 X111.3 Y148.108 E21.68634
G1 X110.425 Y147.919 E21.73993
G1 X109.848 Y147.783 E21.77542
G1 X108.742 Y147.486 E21.84398
G1 X107.939 Y147.248 E21.89412
G1 X106.843 Y146.89 E21.96315
G1 X106.33 Y146.706 E21.99578
G1 X105.259 Y146.295 E22.06446
G1 X104.709 Y146.067 E22.1001
G1 X103.938 Y145.73 E22.15048
G1 X103.123 Y145.348 E22.20436
G1 X102.376 Y144.975 E22.25435
G1 X101.62 Y144.573 E22.30561
G1 X100.839 Y144.133 E22.35928
G1 X100.374 Y143.859 E22.39159
G1 X99.184 Y143.109 E22.4758
G1 X98.656 Y142.754 E22.51389
G1 X97.942 Y142.252 E22.56615
G1 X97.51 Y141.934 E22.59826
G1 X96.633 Y141.254 E22.6647
G1 X95.945 Y140.69 E22.71796
G1 X95.252 Y140.091 E22.7728
G1 X94.867 Y139.744 E22.80383
G1 X93.84 Y138.765 E22.88877
G1 X93.407 Y138.323 E22.92582
G1 X92.672 Y137.542 E22.99003
G1 X92.275 Y137.096 E23.02577
G1 X91.492 Y136.178 E23.09801
G1 X90.657 Y135.117 E23.17884
G1 X90.114 Y134.378 E23.23374
G1 X89.623 Y133.673 E23.28518
G1 X89.302 Y133.193 E23.31975
G1 X88.706 Y132.247 E23.38668
G1 X88.407 Y131.747 E23.42156
G1 X87.87 Y130.794 E23.48705
G1 X87.559 Y130.209 E23.52672
G1 X86.958 Y128.994 E23.60787
G1 X86.7 Y128.434 E23.64478
G1 X86.334 Y127.586 E23.70008
G1 X86.063 Y126.913 E23.74351
G1 X85.752 Y126.088 E23.7963
G1 X85.447 Y125.211 E23.85189
G1 X85.175 Y124.359 E23.90543
G1 X84.962 Y123.63 E23.9509
G1 X84.671 Y122.526 E24.01925
G1 X84.53 Y121.924 E24.05627
G1 X84.366 Y121.16 E24.10305
G1 X84.191 Y120.221 E24.16023
G1 X84.004 Y119.033 E24.23223
G1 X83.828 Y117.496 E24.32485
G1 X83.771 Y116.799 E24.36672
G1 X83.722 Y115.997 E24.41482
G1 X83.693 Y115.143 E24.46598
G1 X83.683 Y114.209 E24.5219
G1 X83.687 Y113.651 E24.55531
G1 X83.736 Y112.387 E24.63104
G1 X83.788 Y111.639 E24.67593
G1 X83.893 Y110.507 E24.74399
G1 X84.071 Y109.164 E24.82509
G1 X84.176 Y108.511 E24.86469
G1 X84.384 Y107.41 E24.93177
G1 X84.561 Y106.592 E24.98188
G1 X84.757 Y105.784 E25.03165
G1 X84.99 Y104.921 E25.08517
G1 X85.248 Y104.055 E25.13927
G1 X85.413 Y103.537 E25.17181
G1 X85.79 Y102.457 E25.2403
G1 X85.991 Y101.92 E25.27462
G1 X86.503 Y100.666 E25.35572
G1 X86.757 Y100.092 E25.39329
G1 X87.216 Y99.118 E25.45776
G1 X87.494 Y98.567 E25.49471
G1 X87.909 Y97.786 E25.54765
G1 X88.221 Y97.227 E25.58598
G1 X88.892 Y96.102 E25.6644
G1 X89.113 Y95.754 E25.68908
G1 X89.738 Y94.812 E25.75676
G1 X90.182 Y94.18 E25.803
G1 X90.709 Y93.467 E25.85608
G1 X91.251 Y92.771 E25.9089
G1 X91.768 Y92.142 E25.95764
G1 X92.332 Y91.489 E26.0093
G1 X92.956 Y90.801 E26.0649
G1 X93.516 Y90.215 E26.11343
G0 F4800 X93.855 Y90.555
G1 F600 X94.451 Y89.961 E26.16381
G1 X94.902 Y89.53 E26.20116
G1 X95.675 Y88.828 E26.26367
G1 X96.38 Y88.222 E26.31933
G1 X97.047 Y87.68 E26.37078
G1 X97.646 Y87.216 E26.41614
G1 X98.536 Y86.565 E26.48216
G1 X99.096 Y86.178 E26.52291
G1 X99.802 Y85.713 E26.57352
G1 X100.463 Y85.299 E26.62022
G1 X101.16 Y84.886 E26.66872
G1 X101.964 Y84.437 E26.72385
G1 X102.889 Y83.954 E26.78632
