;FLAVOR:Marlin
;TIME:5131
;Filament used: 4.08732m
;Layer height: 0.2
;MINX:81.378
;MINY:81.211
;MINZ:0.3
;MAXX:153.714
;MAXY:153.548
;MAXZ:14.78
;TARGET_MACHINE.NAME:BIQU B1
;Generated with Cura_SteamEngine 5.12.0
                                 ; BIQU B1 Start G-code
M117 Getting the bed up to temp!
M140 S60      ; Set Heat Bed temperature
M190 S60      ; Wait for Heat Bed temperature
M117 Getting the extruder up to temp!
M104 S200    ; Set Extruder temperature
G92 E0                           ; Reset Extruder
M117 Homing axes
G28                              ; Home all axes
M109 S200    ; Wait for Extruder temperature
G1 Z2.0 F3000                    ; Move Z Axis up little to prevent scratching of Heat Bed
G1 X4.1 Y20 Z0.3 F5000.0         ; Move to start position
M117 Purging
G1 X4.1 Y200.0 Z0.3 F1500.0 E15  ; Draw the first line
G1 X4.4 Y200.0 Z0.3 F5000.0      ; Move to side a little
G1 X4.4 Y20 Z0.3 F1500.0 E30     ; Draw the second line
G92 E0                           ; Reset Extruder
M117 Lets make
G1 Z2.0 F3000                    ; Move Z Axis up little to prevent scratching of Heat Bed
G1 X5 Y20 Z0.3 F5000.0           ; Move over to prevent blob squish
M82 ;absolute extrusion mode
G92 E0
G92 E0
G1 F3600 E-4
;LAYER_COUNT:63
;LAYER:0
M107
G0 F4800 X91.733 Y92.045 Z0.3
;TYPE:SKIRT
G1 F3600 E0
G1 F600 X92.571 Y91.216 E0.07057
G1 X92.867 Y90.937 E0.09492
G1 X93.853 Y90.051 E0.17428
G1 X94.399 Y89.588 E0.21714
G1 X95.293 Y88.865 E0.28598
G1 X95.818 Y88.465 E0.32549
G1 X96.756 Y87.782 E0.39496
G1 X97.201 Y87.475 E0.42732
G1 X98.187 Y86.827 E0.49796
G1 X98.763 Y86.471 E0.5385
G1 X99.536 Y86.015 E0.59223
G1 X100.086 Y85.706 E0.63
G1 X101.121 Y85.159 E0.70008
G1 X101.719 Y84.86 E0.74011
G1 X102.887 Y84.316 E0.81725
G1 X103.305 Y84.132 E0.84459
G1 X104.573 Y83.618 E0.9265
G1 X105.31 Y83.344 E0.97358
G1 X106.375 Y82.978 E1.041
G1 X107.014 Y82.778 E1.08108
G1 X108.082 Y82.469 E1.14764
G1 X108.796 Y82.285 E1.19179
G1 X110.071 Y81.99 E1.27014
G1 X111.475 Y81.725 E1.35567
G1 X112.36 Y81.585 E1.40932
G1 X113.332 Y81.456 E1.46802
G1 X113.983 Y81.386 E1.50722
G1 X115.029 Y81.298 E1.57006
G1 X115.925 Y81.247 E1.62379
G1 X117.259 Y81.211 E1.70368
G1 X118.397 Y81.222 E1.77182
G1 X119.226 Y81.252 E1.82148
G1 X120.496 Y81.333 E1.89767
G1 X121.165 Y81.393 E1.93788
G1 X122.264 Y81.52 E2.00411
G1 X123.148 Y81.648 E2.05759
G1 X124.179 Y81.823 E2.12019
G1 X124.73 Y81.932 E2.15382
G1 X126.267 Y82.275 E2.2481
G1 X127.558 Y82.622 E2.32814
G1 X128.332 Y82.856 E2.37654
G1 X129.157 Y83.124 E2.42848
G1 X129.728 Y83.322 E2.46466
G1 X130.816 Y83.734 E2.53431
G1 X131.679 Y84.088 E2.59015
G1 X132.538 Y84.465 E2.64631
G1 X133.22 Y84.785 E2.69142
G1 X134.141 Y85.245 E2.75305
G1 X134.967 Y85.683 E2.80902
G1 X135.719 Y86.109 E2.86077
G1 X136.263 Y86.43 E2.89858
G1 X137.334 Y87.104 E2.97434
G1 X137.814 Y87.42 E3.00875
G1 X138.565 Y87.945 E3.0636
G1 X139.352 Y88.524 E3.1221
G1 X140.522 Y89.445 E3.21124
G1 X141.777 Y90.528 E3.31048
G1 X142.105 Y90.828 E3.3371
G1 X143.092 Y91.773 E3.4189
G1 X144.163 Y92.891 E3.51159
G1 X144.781 Y93.582 E3.56709
G1 X145.354 Y94.254 E3.61996
G1 X145.738 Y94.721 E3.65616
G1 X146.58 Y95.81 E3.73857
G1 X146.92 Y96.28 E3.7733
G1 X147.593 Y97.245 E3.84374
G1 X147.984 Y97.844 E3.88656
G1 X148.622 Y98.87 E3.95889
G1 X148.905 Y99.357 E3.99261
G1 X149.417 Y100.276 E4.05559
G1 X149.811 Y101.035 E4.10679
G1 X150.231 Y101.892 E4.16393
G1 X150.526 Y102.533 E4.20617
G1 X150.893 Y103.377 E4.26127
G1 X151.14 Y103.98 E4.30029
G1 X151.649 Y105.333 E4.38683
G1 X151.783 Y105.717 E4.41118
G1 X152.12 Y106.762 E4.47691
G1 X152.309 Y107.394 E4.51641
G1 X152.671 Y108.755 E4.60072
G1 X152.83 Y109.429 E4.64218
G1 X153.023 Y110.344 E4.69816
G1 X153.183 Y111.207 E4.75071
G1 X153.316 Y112.024 E4.80027
G1 X153.402 Y112.62 E4.83632
G1 X153.532 Y113.749 E4.90435
G1 X153.608 Y114.595 E4.95521
G1 X153.665 Y115.484 E5.00854
G1 X153.706 Y116.626 E5.07695
G1 X153.714 Y117.683 E5.14024
G1 X153.703 Y118.345 E5.17987
G1 X153.67 Y119.187 E5.23032
G1 X153.625 Y119.925 E5.27459
G1 X153.496 Y121.363 E5.36102
G1 X153.426 Y121.934 E5.39546
G1 X153.27 Y123.038 E5.46221
G1 X153.145 Y123.763 E5.50626
G1 X152.974 Y124.656 E5.56069
G1 X152.852 Y125.232 E5.59594
G1 X152.527 Y126.571 E5.67843
G1 X152.342 Y127.245 E5.72028
G1 X152.014 Y128.34 E5.78871
G1 X151.852 Y128.84 E5.82018
G1 X151.445 Y129.994 E5.89344
G1 X151.277 Y130.435 E5.92169
G1 X150.842 Y131.501 E5.99062
G1 X150.6 Y132.06 E6.02708
G1 X150.081 Y133.181 E6.10104
G1 X149.732 Y133.882 E6.14792
G1 X149.19 Y134.898 E6.21686
G1 X148.831 Y135.531 E6.26043
G1 X148.358 Y136.323 E6.31566
G1 X147.893 Y137.057 E6.36768
G1 X147.375 Y137.831 E6.42343
G1 X146.86 Y138.562 E6.47697
G1 X146.292 Y139.328 E6.53406
G1 X145.807 Y139.949 E6.58123
G1 X145.063 Y140.852 E6.65128
G1 X144.614 Y141.369 E6.69227
G1 X144.059 Y141.981 E6.74174
G1 X143.593 Y142.476 E6.78244
G1 X142.776 Y143.293 E6.85161
G1 X142.069 Y143.964 E6.90996
G1 X141.366 Y144.595 E6.96652
G1 X140.707 Y145.157 E7.01837
G1 X139.643 Y146.011 E7.10005
G1 X138.423 Y146.912 E7.19085
G1 X137.803 Y147.34 E7.23595
G1 X136.856 Y147.959 E7.30369
G1 X136.389 Y148.249 E7.3366
G1 X135.541 Y148.752 E7.39562
G1 X134.747 Y149.193 E7.45
G1 X133.705 Y149.736 E7.52034
G1 X133.348 Y149.911 E7.54415
G1 X132.262 Y150.416 E7.61585
G1 X131.504 Y150.744 E7.6653
G1 X130.541 Y151.132 E7.72745
G1 X129.767 Y151.418 E7.77685
G1 X128.9 Y151.719 E7.8318
G1 X128.088 Y151.978 E7.88282
G1 X127.029 Y152.284 E7.94882
G1 X126.319 Y152.467 E7.99271
G1 X124.944 Y152.782 E8.07717
G1 X123.913 Y152.98 E8.14002
G1 X122.831 Y153.151 E8.2056
G1 X121.168 Y153.36 E8.30594
G1 X120.441 Y153.431 E8.34967
G1 X119.449 Y153.497 E8.4092
G1 X118.058 Y153.543 E8.49252
G1 X117.623 Y153.548 E8.51856
G1 X116.238 Y153.525 E8.60149
G1 X114.935 Y153.454 E8.67961
G1 X113.705 Y153.342 E8.75356
G1 X112.532 Y153.199 E8.8243
G1 X110.856 Y152.924 E8.92598
G1 X109.409 Y152.62 E9.0145
G1 X108.605 Y152.424 E9.06405
G1 X107.465 Y152.117 E9.13473
G1 X106.791 Y151.913 E9.17689
G1 X105.168 Y151.38 E9.27916
G1 X104.389 Y151.08 E9.32914
G1 X103.394 Y150.662 E9.39375
G1 X102.345 Y150.197 E9.46244
G1 X101.887 Y149.982 E9.49273
G1 X100.844 Y149.46 E9.56256
G1 X100.116 Y149.069 E9.61203
G1 X98.953 Y148.404 E9.69224
G1 X97.794 Y147.677 E9.77415
G1 X96.989 Y147.135 E9.83225
G1 X95.826 Y146.301 E9.91793
G1 X95.074 Y145.718 E9.97489
G1 X94.18 Y144.987 E10.04403
G1 X93.12 Y144.056 E10.12849
G1 X92.041 Y143.025 E10.21784
G1 X91.71 Y142.692 E10.24595
G1 X91.064 Y142.015 E10.30197
G1 X90.528 Y141.426 E10.34965
G1 X89.709 Y140.473 E10.42487
G1 X89.223 Y139.873 E10.4711
G1 X88.557 Y139.011 E10.53632
G1 X88.111 Y138.394 E10.58189
G1 X87.536 Y137.569 E10.6421
G1 X87.174 Y137.021 E10.68142
G1 X86.526 Y135.981 E10.75478
G1 X86.178 Y135.386 E10.79605
G1 X85.684 Y134.499 E10.85683
G1 X85.286 Y133.733 E10.90851
G1 X84.799 Y132.738 E10.97483
G1 X84.535 Y132.159 E11.01293
G1 X83.945 Y130.769 E11.10333
G1 X83.572 Y129.789 E11.16611
G1 X83.309 Y129.042 E11.21352
G1 X82.883 Y127.71 E11.29724
G1 X82.77 Y127.323 E11.32138
G1 X82.478 Y126.226 E11.38934
G1 X82.326 Y125.604 E11.42768
G1 X82.063 Y124.38 E11.50263
G1 X81.954 Y123.819 E11.53684
G1 X81.741 Y122.502 E11.61671
G1 X81.643 Y121.755 E11.66182
G1 X81.548 Y120.895 E11.71362
G1 X81.487 Y120.209 E11.75485
G1 X81.408 Y118.898 E11.83348
G1 X81.393 Y118.474 E11.85888
G1 X81.378 Y117.031 E11.94527
G1 X81.39 Y116.364 E11.98521
G1 X81.433 Y115.347 E12.04615
G1 X81.492 Y114.497 E12.09716
G1 X81.62 Y113.185 E12.17608
G1 X81.821 Y111.735 E12.26372
G1 X81.95 Y110.975 E12.30987
G1 X82.115 Y110.118 E12.36212
G1 X82.307 Y109.24 E12.41593
G1 X82.533 Y108.317 E12.47282
G1 X82.738 Y107.555 E12.52006
G1 X83.08 Y106.412 E12.59149
G1 X83.219 Y105.984 E12.61843
G1 X83.668 Y104.709 E12.69935
G1 X83.911 Y104.083 E12.73956
G1 X84.268 Y103.214 E12.7958
G1 X84.621 Y102.41 E12.84837
G1 X85.122 Y101.349 E12.91862
G1 X85.751 Y100.135 E13.00047
G1 X86.177 Y99.37 E13.05289
G1 X86.727 Y98.446 E13.11727
G1 X87.23 Y97.655 E13.17339
G1 X88.056 Y96.437 E13.2615
G1 X88.845 Y95.368 E13.34104
G1 X89.359 Y94.715 E13.39079
G1 X90.114 Y93.804 E13.46163
G1 X90.392 Y93.484 E13.487
G1 X91.206 Y92.59 E13.55939
G1 X91.733 Y92.045 E13.60478
G0 F4800 X92.071 Y92.386
G1 F600 X92.901 Y91.565 E13.67467
G1 X93.188 Y91.294 E13.6983
G1 X94.163 Y90.417 E13.77681
G1 X94.701 Y89.961 E13.81903
G1 X95.584 Y89.247 E13.88702
G1 X96.1 Y88.853 E13.92589
G1 X97.029 Y88.177 E13.99467
G1 X97.465 Y87.876 E14.02639
G1 X98.439 Y87.235 E14.0962
G1 X99.007 Y86.884 E14.13617
G1 X99.771 Y86.433 E14.18928
G1 X100.31 Y86.13 E14.2263
G1 X101.336 Y85.588 E14.29577
G1 X101.922 Y85.295 E14.33499
G1 X103.081 Y84.755 E14.41154
G1 X103.485 Y84.577 E14.43797
G1 X104.74 Y84.068 E14.51905
G1 X105.466 Y83.798 E14.56543
G1 X106.519 Y83.436 E14.63209
G1 X107.147 Y83.239 E14.67149
G1 X108.202 Y82.934 E14.73724
G1 X108.904 Y82.753 E14.78064
G1 X110.16 Y82.462 E14.85783
G1 X111.55 Y82.199 E14.94252
G1 X112.423 Y82.061 E14.99543
G1 X113.384 Y81.933 E15.05348
G1 X114.023 Y81.864 E15.09195
G1 X115.056 Y81.777 E15.15402
G1 X115.938 Y81.727 E15.20691
G1 X117.254 Y81.691 E15.28572
G1 X118.38 Y81.702 E15.35314
G1 X119.196 Y81.731 E15.40202
G1 X120.453 Y81.811 E15.47743
G1 X121.11 Y81.87 E15.51692
G1 X122.195 Y81.995 E15.58231
G1 X123.068 Y82.121 E15.63511
G1 X124.086 Y82.294 E15.69693
G1 X124.625 Y82.4 E15.72982
G1 X126.143 Y82.739 E15.82294
G1 X127.419 Y83.081 E15.90203
G1 X128.184 Y83.313 E15.94988
G1 X129 Y83.578 E16.00125
G1 X129.558 Y83.771 E16.0366
G1 X130.634 Y84.178 E16.10547
G1 X131.486 Y84.528 E16.16061
G1 X132.334 Y84.9 E16.21605
G1 X133.006 Y85.215 E16.26048
G1 X133.916 Y85.669 E16.32137
G1 X134.731 Y86.101 E16.37659
G1 X135.475 Y86.522 E16.42777
G1 X136.007 Y86.836 E16.46475
G1 X137.07 Y87.505 E16.53995
G1 X137.539 Y87.814 E16.57357
G1 X138.281 Y88.332 E16.62775
G1 X139.055 Y88.901 E16.68526
G1 X140.208 Y89.808 E16.77309
G1 X141.453 Y90.883 E16.87156
G1 X141.773 Y91.175 E16.8975
G1 X142.751 Y92.111 E16.97854
G1 X143.026 Y92.389 E17.00195
G1 X143.805 Y93.211 E17.06975
G1 X144.416 Y93.893 E17.12457
G1 X144.983 Y94.558 E17.17689
G1 X145.358 Y95.015 E17.21228
G1 X146.191 Y96.092 E17.2938
G1 X146.526 Y96.554 E17.32796
G1 X147.191 Y97.508 E17.39758
G1 X147.576 Y98.097 E17.43971
G1 X148.207 Y99.112 E17.51126
G1 X148.486 Y99.591 E17.54445
G1 X148.991 Y100.497 E17.60655
G1 X149.38 Y101.246 E17.65708
G1 X149.795 Y102.093 E17.71354
G1 X150.086 Y102.724 E17.75514
G1 X150.449 Y103.559 E17.80965
G1 X150.691 Y104.149 E17.84783
G1 X151.196 Y105.491 E17.93368
G1 X151.326 Y105.864 E17.95732
G1 X151.66 Y106.9 E18.02249
G1 X151.845 Y107.518 E18.06111
G1 X152.204 Y108.865 E18.14457
G1 X152.36 Y109.528 E18.18535
G1 X152.551 Y110.432 E18.24066
G1 X152.709 Y111.284 E18.29254
G1 X152.841 Y112.093 E18.34161
G1 X152.925 Y112.675 E18.37682
G1 X153.054 Y113.792 E18.44413
G1 X153.129 Y114.626 E18.49427
G1 X153.185 Y115.501 E18.54676
G1 X153.226 Y116.63 E18.61439
G1 X153.234 Y117.675 E18.67696
G1 X153.223 Y118.327 E18.716
G1 X153.191 Y119.158 E18.76578
G1 X153.147 Y119.882 E18.80921
G1 X153.019 Y121.305 E18.89475
G1 X152.951 Y121.867 E18.92864
G1 X152.797 Y122.957 E18.99454
G1 X152.674 Y123.673 E19.03804
G1 X152.505 Y124.556 E19.09186
G1 X152.385 Y125.119 E19.12632
G1 X152.064 Y126.444 E19.20794
G1 X151.882 Y127.107 E19.2491
G1 X151.557 Y128.192 E19.31691
G1 X151.399 Y128.68 E19.34762
G1 X150.996 Y129.823 E19.42018
G1 X150.828 Y130.264 E19.44843
G1 X150.401 Y131.311 E19.51613
G1 X150.165 Y131.858 E19.55179
G1 X149.651 Y132.967 E19.62497
G1 X149.308 Y133.656 E19.67105
G1 X148.773 Y134.661 E19.73921
G1 X148.419 Y135.285 E19.78216
G1 X147.953 Y136.066 E19.83661
G1 X147.494 Y136.79 E19.88793
G1 X146.983 Y137.555 E19.94301
G1 X146.475 Y138.276 E19.99581
G1 X145.913 Y139.033 E20.05225
G1 X145.437 Y139.644 E20.09862
G1 X144.701 Y140.537 E20.1679
G1 X144.258 Y141.047 E20.20835
G1 X143.71 Y141.652 E20.25722
G1 X143.244 Y142.147 E20.29792
G1 X142.446 Y142.945 E20.36548
G1 X141.748 Y143.607 E20.42307
G1 X141.054 Y144.23 E20.47891
G1 X140.406 Y144.783 E20.52991
G1 X139.358 Y145.625 E20.61039
G1 X138.15 Y146.517 E20.70029
G1 X137.54 Y146.938 E20.74467
G1 X136.603 Y147.551 E20.8117
G1 X136.144 Y147.836 E20.84405
G1 X135.308 Y148.332 E20.90224
G1 X134.525 Y148.767 E20.95587
G1 X133.493 Y149.305 E21.02554
G1 X133.146 Y149.476 E21.0487
G1 X132.071 Y149.976 E21.11968
G1 X131.325 Y150.299 E21.16835
G1 X130.375 Y150.682 E21.22967
G1 X129.609 Y150.965 E21.27856
G1 X128.754 Y151.262 E21.33275
G1 X127.955 Y151.517 E21.38296
G1 X126.909 Y151.819 E21.44814
G1 X126.212 Y151.999 E21.49124
G1 X124.853 Y152.311 E21.57472
G1 X123.838 Y152.506 E21.63659
G1 X122.771 Y152.675 E21.70127
G1 X121.121 Y152.882 E21.80083
G1 X120.409 Y152.952 E21.84366
G1 X119.433 Y153.017 E21.90222
G1 X118.052 Y153.063 E21.98494
G1 X117.631 Y153.068 E22.01015
G1 X116.264 Y153.046 E22.092
G1 X114.979 Y152.976 E22.16905
G1 X113.763 Y152.865 E22.24215
G1 X112.61 Y152.725 E22.31168
G1 X110.955 Y152.454 E22.41208
G1 X109.508 Y152.15 E22.50061
G1 X108.73 Y151.961 E22.54854
G1 X107.604 Y151.657 E22.61836
G1 X106.941 Y151.457 E22.65982
G1 X105.34 Y150.932 E22.76069
G1 X104.575 Y150.638 E22.80976
G1 X103.588 Y150.223 E22.87386
G1 X102.549 Y149.763 E22.94189
G1 X102.102 Y149.553 E22.97145
G1 X101.071 Y149.037 E23.04048
G1 X100.354 Y148.652 E23.0892
G1 X99.208 Y147.997 E23.16822
G1 X98.062 Y147.279 E23.24919
G1 X97.269 Y146.745 E23.30642
G1 X96.12 Y145.922 E23.39104
G1 X95.378 Y145.347 E23.44724
G1 X94.497 Y144.626 E23.51539
G1 X93.437 Y143.695 E23.59985
G1 X92.381 Y142.687 E23.68725
G1 X92.057 Y142.361 E23.71477
G1 X91.419 Y141.692 E23.77011
G1 X90.892 Y141.113 E23.81699
G1 X90.082 Y140.171 E23.89136
G1 X89.603 Y139.58 E23.93691
G1 X88.946 Y138.729 E24.00127
G1 X88.505 Y138.12 E24.04629
G1 X87.937 Y137.304 E24.10581
G1 X87.575 Y136.756 E24.14513
G1 X86.94 Y135.739 E24.21691
G1 X86.597 Y135.153 E24.25756
G1 X86.11 Y134.278 E24.31751
G1 X85.717 Y133.522 E24.36852
G1 X85.236 Y132.539 E24.43404
G1 X84.977 Y131.971 E24.47141
G1 X84.394 Y130.598 E24.56072
G1 X84.025 Y129.629 E24.62279
G1 X83.766 Y128.896 E24.66934
G1 X83.344 Y127.576 E24.7523
G1 X83.234 Y127.199 E24.77581
G1 X82.944 Y126.112 E24.84317
G1 X82.795 Y125.503 E24.8807
G1 X82.534 Y124.289 E24.95504
G1 X82.428 Y123.742 E24.9884
G1 X82.217 Y122.439 E25.06742
G1 X82.12 Y121.702 E25.11193
G1 X82.026 Y120.852 E25.16313
G1 X81.966 Y120.18 E25.20352
G1 X81.888 Y118.88 E25.28149
G1 X81.873 Y118.469 E25.30611
G1 X81.858 Y117.04 E25.39166
G1 X81.87 Y116.384 E25.43094
G1 X81.912 Y115.38 E25.49111
G1 X81.97 Y114.544 E25.54128
G1 X82.098 Y113.232 E25.6202
G1 X82.294 Y111.815 E25.70584
G1 X82.421 Y111.066 E25.75132
G1 X82.584 Y110.22 E25.8029
G1 X82.773 Y109.354 E25.85596
G1 X82.996 Y108.442 E25.91217
G1 X83.198 Y107.693 E25.95862
G1 X83.537 Y106.56 E26.02942
G1 X83.672 Y106.143 E26.05566
G1 X84.116 Y104.882 E26.1357
G1 X84.355 Y104.265 E26.17531
G1 X84.707 Y103.407 E26.23083
G1 X85.055 Y102.615 E26.28262
G1 X85.548 Y101.57 E26.3518
G1 X86.17 Y100.369 E26.43277
G1 X86.59 Y99.615 E26.48444
G1 X87.132 Y98.703 E26.54795
G1 X87.627 Y97.924 E26.60321
G1 X88.442 Y96.722 E26.69015
G1 X89.222 Y95.665 E26.7688
G1 X89.729 Y95.021 E26.81787
G1 X90.476 Y94.119 E26.88798
G1 X90.747 Y93.807 E26.91273
G1 X91.551 Y92.924 E26.98422
G1 X92.071 Y92.386 E27.02901
G0 F4800 X92.409 Y92.727
G1 F600 X93.23 Y91.914 E27.09819
G1 X93.509 Y91.651 E27.12114
G1 X94.474 Y90.783 E27.19885
G1 X95.003 Y90.334 E27.24039
G1 X95.876 Y89.628 E27.30761
G1 X96.382 Y89.241 E27.34574
G1 X97.301 Y88.572 E27.4138
G1 X97.729 Y88.277 E27.44492
G1 X98.691 Y87.643 E27.51389
G1 X99.251 Y87.297 E27.5533
G1 X100.007 Y86.851 E27.60585
G1 X100.534 Y86.554 E27.64207
G1 X101.551 Y86.017 E27.71092
G1 X102.125 Y85.73 E27.74934
G1 X103.275 Y85.194 E27.8253
G1 X103.665 Y85.022 E27.85082
G1 X104.907 Y84.518 E27.93106
G1 X105.622 Y84.252 E27.97674
G1 X106.663 Y83.894 E28.04264
G1 X107.28 Y83.7 E28.08136
G1 X108.322 Y83.399 E28.1463
G1 X109.012 Y83.221 E28.18896
G1 X110.249 Y82.934 E28.26498
G1 X111.625 Y82.673 E28.34883
G1 X112.487 Y82.537 E28.40107
G1 X113.436 Y82.41 E28.4584
